%
(Header)
(Generated by gcodetools from Inkscape.)
(Using default header. To add your own header create file "header" in the output dir.)
M3
(Header end.)
G21 (All units in mm)

(Start cutting path id: path459)
(Change tool to Cylindrical cutter)

G00 Z3.000000
G00 X13.261519 Y45.627031

G01 Z-0.700000 F100.0(Penetrate)
G03 X10.079539 Y44.309012 Z-0.700000 I-0.000000 J-4.500000 F120.000000
G03 X8.761519 Y41.127031 Z-0.700000 I3.181980 J-3.181981
G03 X8.780827 Y40.710976 Z-0.700000 I4.492194 J0.000000
G03 X8.835739 Y40.312578 Z-0.700000 I4.529489 J0.421320
G03 X2.508809 Y34.982328 Z-0.700000 I4.413775 J-11.659199
G03 X0.947067 Y26.570391 Z-0.700000 I10.780572 J-6.352442
G03 X2.282232 Y22.677087 Z-0.700000 I12.354549 J2.061261
G03 X4.599410 Y19.628984 Z-0.700000 I10.939346 J5.911315
G01 X4.599410 Y9.451250 Z-0.700000
G03 X1.417430 Y8.133230 Z-0.700000 I0.000000 J-4.499999
G03 X0.099410 Y4.951250 Z-0.700000 I3.181981 J-3.181980
G03 X1.417430 Y1.769270 Z-0.700000 I4.500000 J0.000000
G03 X4.599410 Y0.451250 Z-0.700000 I3.181980 J3.181980
G01 X4.599410 Y0.421950 Z-0.700000
G01 X21.599410 Y0.421950 Z-0.700000
G03 X24.781391 Y1.739969 Z-0.700000 I-0.000000 J4.500000
G03 X26.099410 Y4.921950 Z-0.700000 I-3.181981 J3.181981
G03 X24.781391 Y8.103931 Z-0.700000 I-4.500000 J0.000000
G03 X21.599410 Y9.421950 Z-0.700000 I-3.181981 J-3.181981
G01 X21.599410 Y19.304763 Z-0.700000
G03 X24.989485 Y24.278417 Z-0.700000 I-8.358395 J9.339313
G03 X25.601363 Y30.683669 Z-0.700000 I-11.706791 J4.350172
G03 X22.792882 Y36.723914 Z-0.700000 I-12.321467 J-2.055967
G03 X17.689254 Y40.320388 Z-0.700000 I-9.541326 J-8.120332
G03 X17.742832 Y40.715050 Z-0.700000 I-4.429789 J0.802339
G03 X17.761524 Y41.127028 Z-0.700000 I-4.530678 J0.411978
G03 X16.443504 Y44.309009 Z-0.700000 I-4.500000 J0.000000
G03 X13.261524 Y45.627028 Z-0.700000 I-3.181980 J-3.181981
G01 X13.261519 Y45.627031 Z-0.700000
G00 Z3.000000

(End cutting path id: path459)


(Start cutting path id: path459)
(Change tool to Cylindrical cutter)

G00 Z3.000000
G00 X13.261519 Y45.627031

G01 Z-1.400000 F100.0(Penetrate)
G03 X10.079539 Y44.309012 Z-1.400000 I-0.000000 J-4.500000 F120.000000
G03 X8.761519 Y41.127031 Z-1.400000 I3.181980 J-3.181981
G03 X8.780827 Y40.710976 Z-1.400000 I4.492194 J0.000000
G03 X8.835739 Y40.312578 Z-1.400000 I4.529489 J0.421320
G03 X2.508809 Y34.982328 Z-1.400000 I4.413775 J-11.659199
G03 X0.947067 Y26.570391 Z-1.400000 I10.780572 J-6.352442
G03 X2.282232 Y22.677087 Z-1.400000 I12.354549 J2.061261
G03 X4.599410 Y19.628984 Z-1.400000 I10.939346 J5.911315
G01 X4.599410 Y9.451250 Z-1.400000
G03 X1.417430 Y8.133230 Z-1.400000 I0.000000 J-4.499999
G03 X0.099410 Y4.951250 Z-1.400000 I3.181981 J-3.181980
G03 X1.417430 Y1.769270 Z-1.400000 I4.500000 J0.000000
G03 X4.599410 Y0.451250 Z-1.400000 I3.181980 J3.181980
G01 X4.599410 Y0.421950 Z-1.400000
G01 X21.599410 Y0.421950 Z-1.400000
G03 X24.781391 Y1.739969 Z-1.400000 I-0.000000 J4.500000
G03 X26.099410 Y4.921950 Z-1.400000 I-3.181981 J3.181981
G03 X24.781391 Y8.103931 Z-1.400000 I-4.500000 J0.000000
G03 X21.599410 Y9.421950 Z-1.400000 I-3.181981 J-3.181981
G01 X21.599410 Y19.304763 Z-1.400000
G03 X24.989485 Y24.278417 Z-1.400000 I-8.358395 J9.339313
G03 X25.601363 Y30.683669 Z-1.400000 I-11.706791 J4.350172
G03 X22.792882 Y36.723914 Z-1.400000 I-12.321467 J-2.055967
G03 X17.689254 Y40.320388 Z-1.400000 I-9.541326 J-8.120332
G03 X17.742832 Y40.715050 Z-1.400000 I-4.429789 J0.802339
G03 X17.761524 Y41.127028 Z-1.400000 I-4.530678 J0.411978
G03 X16.443504 Y44.309009 Z-1.400000 I-4.500000 J0.000000
G03 X13.261524 Y45.627028 Z-1.400000 I-3.181980 J-3.181981
G01 X13.261519 Y45.627031 Z-1.400000
G00 Z3.000000

(End cutting path id: path459)


(Start cutting path id: path459)
(Change tool to Cylindrical cutter)

G00 Z3.000000
G00 X13.261519 Y45.627031

G01 Z-2.100000 F100.0(Penetrate)
G03 X10.079539 Y44.309012 Z-2.100000 I-0.000000 J-4.500000 F120.000000
G03 X8.761519 Y41.127031 Z-2.100000 I3.181980 J-3.181981
G03 X8.780827 Y40.710976 Z-2.100000 I4.492194 J0.000000
G03 X8.835739 Y40.312578 Z-2.100000 I4.529489 J0.421320
G03 X2.508809 Y34.982328 Z-2.100000 I4.413775 J-11.659199
G03 X0.947067 Y26.570391 Z-2.100000 I10.780572 J-6.352442
G03 X2.282232 Y22.677087 Z-2.100000 I12.354549 J2.061261
G03 X4.599410 Y19.628984 Z-2.100000 I10.939346 J5.911315
G01 X4.599410 Y9.451250 Z-2.100000
G03 X1.417430 Y8.133230 Z-2.100000 I0.000000 J-4.499999
G03 X0.099410 Y4.951250 Z-2.100000 I3.181981 J-3.181980
G03 X1.417430 Y1.769270 Z-2.100000 I4.500000 J0.000000
G03 X4.599410 Y0.451250 Z-2.100000 I3.181980 J3.181980
G01 X4.599410 Y0.421950 Z-2.100000
G01 X21.599410 Y0.421950 Z-2.100000
G03 X24.781391 Y1.739969 Z-2.100000 I-0.000000 J4.500000
G03 X26.099410 Y4.921950 Z-2.100000 I-3.181981 J3.181981
G03 X24.781391 Y8.103931 Z-2.100000 I-4.500000 J0.000000
G03 X21.599410 Y9.421950 Z-2.100000 I-3.181981 J-3.181981
G01 X21.599410 Y19.304763 Z-2.100000
G03 X24.989485 Y24.278417 Z-2.100000 I-8.358395 J9.339313
G03 X25.601363 Y30.683669 Z-2.100000 I-11.706791 J4.350172
G03 X22.792882 Y36.723914 Z-2.100000 I-12.321467 J-2.055967
G03 X17.689254 Y40.320388 Z-2.100000 I-9.541326 J-8.120332
G03 X17.742832 Y40.715050 Z-2.100000 I-4.429789 J0.802339
G03 X17.761524 Y41.127028 Z-2.100000 I-4.530678 J0.411978
G03 X16.443504 Y44.309009 Z-2.100000 I-4.500000 J0.000000
G03 X13.261524 Y45.627028 Z-2.100000 I-3.181980 J-3.181981
G01 X13.261519 Y45.627031 Z-2.100000
G00 Z3.000000

(End cutting path id: path459)


(Start cutting path id: path459)
(Change tool to Cylindrical cutter)

G00 Z3.000000
G00 X13.261519 Y45.627031

G01 Z-2.800000 F100.0(Penetrate)
G03 X10.079539 Y44.309012 Z-2.800000 I-0.000000 J-4.500000 F120.000000
G03 X8.761519 Y41.127031 Z-2.800000 I3.181980 J-3.181981
G03 X8.780827 Y40.710976 Z-2.800000 I4.492194 J0.000000
G03 X8.835739 Y40.312578 Z-2.800000 I4.529489 J0.421320
G03 X2.508809 Y34.982328 Z-2.800000 I4.413775 J-11.659199
G03 X0.947067 Y26.570391 Z-2.800000 I10.780572 J-6.352442
G03 X2.282232 Y22.677087 Z-2.800000 I12.354549 J2.061261
G03 X4.599410 Y19.628984 Z-2.800000 I10.939346 J5.911315
G01 X4.599410 Y9.451250 Z-2.800000
G03 X1.417430 Y8.133230 Z-2.800000 I0.000000 J-4.499999
G03 X0.099410 Y4.951250 Z-2.800000 I3.181981 J-3.181980
G03 X1.417430 Y1.769270 Z-2.800000 I4.500000 J0.000000
G03 X4.599410 Y0.451250 Z-2.800000 I3.181980 J3.181980
G01 X4.599410 Y0.421950 Z-2.800000
G01 X21.599410 Y0.421950 Z-2.800000
G03 X24.781391 Y1.739969 Z-2.800000 I-0.000000 J4.500000
G03 X26.099410 Y4.921950 Z-2.800000 I-3.181981 J3.181981
G03 X24.781391 Y8.103931 Z-2.800000 I-4.500000 J0.000000
G03 X21.599410 Y9.421950 Z-2.800000 I-3.181981 J-3.181981
G01 X21.599410 Y19.304763 Z-2.800000
G03 X24.989485 Y24.278417 Z-2.800000 I-8.358395 J9.339313
G03 X25.601363 Y30.683669 Z-2.800000 I-11.706791 J4.350172
G03 X22.792882 Y36.723914 Z-2.800000 I-12.321467 J-2.055967
G03 X17.689254 Y40.320388 Z-2.800000 I-9.541326 J-8.120332
G03 X17.742832 Y40.715050 Z-2.800000 I-4.429789 J0.802339
G03 X17.761524 Y41.127028 Z-2.800000 I-4.530678 J0.411978
G03 X16.443504 Y44.309009 Z-2.800000 I-4.500000 J0.000000
G03 X13.261524 Y45.627028 Z-2.800000 I-3.181980 J-3.181981
G01 X13.261519 Y45.627031 Z-2.800000
G00 Z3.000000

(End cutting path id: path459)


(Start cutting path id: path459)
(Change tool to Cylindrical cutter)

G00 Z3.000000
G00 X13.261519 Y45.627031

G01 Z-3.500000 F100.0(Penetrate)
G03 X10.079539 Y44.309012 Z-3.500000 I-0.000000 J-4.500000 F120.000000
G03 X8.761519 Y41.127031 Z-3.500000 I3.181980 J-3.181981
G03 X8.780827 Y40.710976 Z-3.500000 I4.492194 J0.000000
G03 X8.835739 Y40.312578 Z-3.500000 I4.529489 J0.421320
G03 X2.508809 Y34.982328 Z-3.500000 I4.413775 J-11.659199
G03 X0.947067 Y26.570391 Z-3.500000 I10.780572 J-6.352442
G03 X2.282232 Y22.677087 Z-3.500000 I12.354549 J2.061261
G03 X4.599410 Y19.628984 Z-3.500000 I10.939346 J5.911315
G01 X4.599410 Y9.451250 Z-3.500000
G03 X1.417430 Y8.133230 Z-3.500000 I0.000000 J-4.499999
G03 X0.099410 Y4.951250 Z-3.500000 I3.181981 J-3.181980
G03 X1.417430 Y1.769270 Z-3.500000 I4.500000 J0.000000
G03 X4.599410 Y0.451250 Z-3.500000 I3.181980 J3.181980
G01 X4.599410 Y0.421950 Z-3.500000
G01 X21.599410 Y0.421950 Z-3.500000
G03 X24.781391 Y1.739969 Z-3.500000 I-0.000000 J4.500000
G03 X26.099410 Y4.921950 Z-3.500000 I-3.181981 J3.181981
G03 X24.781391 Y8.103931 Z-3.500000 I-4.500000 J0.000000
G03 X21.599410 Y9.421950 Z-3.500000 I-3.181981 J-3.181981
G01 X21.599410 Y19.304763 Z-3.500000
G03 X24.989485 Y24.278417 Z-3.500000 I-8.358395 J9.339313
G03 X25.601363 Y30.683669 Z-3.500000 I-11.706791 J4.350172
G03 X22.792882 Y36.723914 Z-3.500000 I-12.321467 J-2.055967
G03 X17.689254 Y40.320388 Z-3.500000 I-9.541326 J-8.120332
G03 X17.742832 Y40.715050 Z-3.500000 I-4.429789 J0.802339
G03 X17.761524 Y41.127028 Z-3.500000 I-4.530678 J0.411978
G03 X16.443504 Y44.309009 Z-3.500000 I-4.500000 J0.000000
G03 X13.261524 Y45.627028 Z-3.500000 I-3.181980 J-3.181981
G01 X13.261519 Y45.627031 Z-3.500000
G00 Z3.000000

(End cutting path id: path459)


(Start cutting path id: path459)
(Change tool to Cylindrical cutter)

G00 Z3.000000
G00 X13.261519 Y45.627031

G01 Z-4.200000 F100.0(Penetrate)
G03 X10.079539 Y44.309012 Z-4.200000 I-0.000000 J-4.500000 F120.000000
G03 X8.761519 Y41.127031 Z-4.200000 I3.181980 J-3.181981
G03 X8.780827 Y40.710976 Z-4.200000 I4.492194 J0.000000
G03 X8.835739 Y40.312578 Z-4.200000 I4.529489 J0.421320
G03 X2.508809 Y34.982328 Z-4.200000 I4.413775 J-11.659199
G03 X0.947067 Y26.570391 Z-4.200000 I10.780572 J-6.352442
G03 X2.282232 Y22.677087 Z-4.200000 I12.354549 J2.061261
G03 X4.599410 Y19.628984 Z-4.200000 I10.939346 J5.911315
G01 X4.599410 Y9.451250 Z-4.200000
G03 X1.417430 Y8.133230 Z-4.200000 I0.000000 J-4.499999
G03 X0.099410 Y4.951250 Z-4.200000 I3.181981 J-3.181980
G03 X1.417430 Y1.769270 Z-4.200000 I4.500000 J0.000000
G03 X4.599410 Y0.451250 Z-4.200000 I3.181980 J3.181980
G01 X4.599410 Y0.421950 Z-4.200000
G01 X21.599410 Y0.421950 Z-4.200000
G03 X24.781391 Y1.739969 Z-4.200000 I-0.000000 J4.500000
G03 X26.099410 Y4.921950 Z-4.200000 I-3.181981 J3.181981
G03 X24.781391 Y8.103931 Z-4.200000 I-4.500000 J0.000000
G03 X21.599410 Y9.421950 Z-4.200000 I-3.181981 J-3.181981
G01 X21.599410 Y19.304763 Z-4.200000
G03 X24.989485 Y24.278417 Z-4.200000 I-8.358395 J9.339313
G03 X25.601363 Y30.683669 Z-4.200000 I-11.706791 J4.350172
G03 X22.792882 Y36.723914 Z-4.200000 I-12.321467 J-2.055967
G03 X17.689254 Y40.320388 Z-4.200000 I-9.541326 J-8.120332
G03 X17.742832 Y40.715050 Z-4.200000 I-4.429789 J0.802339
G03 X17.761524 Y41.127028 Z-4.200000 I-4.530678 J0.411978
G03 X16.443504 Y44.309009 Z-4.200000 I-4.500000 J0.000000
G03 X13.261524 Y45.627028 Z-4.200000 I-3.181980 J-3.181981
G01 X13.261519 Y45.627031 Z-4.200000
G00 Z3.000000

(End cutting path id: path459)


(Start cutting path id: path459)
(Change tool to Cylindrical cutter)

G00 Z3.000000
G00 X13.261519 Y45.627031

G01 Z-4.500000 F100.0(Penetrate)
G03 X10.079539 Y44.309012 Z-4.500000 I-0.000000 J-4.500000 F120.000000
G03 X8.761519 Y41.127031 Z-4.500000 I3.181980 J-3.181981
G03 X8.780827 Y40.710976 Z-4.500000 I4.492194 J0.000000
G03 X8.835739 Y40.312578 Z-4.500000 I4.529489 J0.421320
G03 X2.508809 Y34.982328 Z-4.500000 I4.413775 J-11.659199
G03 X0.947067 Y26.570391 Z-4.500000 I10.780572 J-6.352442
G03 X2.282232 Y22.677087 Z-4.500000 I12.354549 J2.061261
G03 X4.599410 Y19.628984 Z-4.500000 I10.939346 J5.911315
G01 X4.599410 Y9.451250 Z-4.500000
G03 X1.417430 Y8.133230 Z-4.500000 I0.000000 J-4.499999
G03 X0.099410 Y4.951250 Z-4.500000 I3.181981 J-3.181980
G03 X1.417430 Y1.769270 Z-4.500000 I4.500000 J0.000000
G03 X4.599410 Y0.451250 Z-4.500000 I3.181980 J3.181980
G01 X4.599410 Y0.421950 Z-4.500000
G01 X21.599410 Y0.421950 Z-4.500000
G03 X24.781391 Y1.739969 Z-4.500000 I-0.000000 J4.500000
G03 X26.099410 Y4.921950 Z-4.500000 I-3.181981 J3.181981
G03 X24.781391 Y8.103931 Z-4.500000 I-4.500000 J0.000000
G03 X21.599410 Y9.421950 Z-4.500000 I-3.181981 J-3.181981
G01 X21.599410 Y19.304763 Z-4.500000
G03 X24.989485 Y24.278417 Z-4.500000 I-8.358395 J9.339313
G03 X25.601363 Y30.683669 Z-4.500000 I-11.706791 J4.350172
G03 X22.792882 Y36.723914 Z-4.500000 I-12.321467 J-2.055967
G03 X17.689254 Y40.320388 Z-4.500000 I-9.541326 J-8.120332
G03 X17.742832 Y40.715050 Z-4.500000 I-4.429789 J0.802339
G03 X17.761524 Y41.127028 Z-4.500000 I-4.530678 J0.411978
G03 X16.443504 Y44.309009 Z-4.500000 I-4.500000 J0.000000
G03 X13.261524 Y45.627028 Z-4.500000 I-3.181980 J-3.181981
G01 X13.261519 Y45.627031 Z-4.500000
G00 Z3.000000

(End cutting path id: path459)


(Footer)
M5
G00 X0.0000 Y0.0000
M2
(Using default footer. To add your own footer create file "footer" in the output dir.)
(end)
%