%
(Header)
(Generated by gcodetools from Inkscape.)
(Using default header. To add your own header create file "header" in the output dir.)
M3
(Header end.)
G21 (All units in mm)

(Start cutting path id: path24)
(Change tool to Cylindrical cutter)

G00 Z2.000000
G00 X12.938481 Y45.448031

G01 Z-0.700000 F100.0(Penetrate)
G02 X16.120461 Y44.130012 Z-0.700000 I0.000000 J-4.500000 F120.000000
G02 X17.438481 Y40.948031 Z-0.700000 I-3.181980 J-3.181981
G02 X17.419173 Y40.531976 Z-0.700000 I-4.492194 J0.000000
G02 X17.364261 Y40.133578 Z-0.700000 I-4.529489 J0.421320
G02 X23.691191 Y34.803328 Z-0.700000 I-4.413775 J-11.659199
G02 X25.252933 Y26.391391 Z-0.700000 I-10.780572 J-6.352442
G02 X23.917768 Y22.498087 Z-0.700000 I-12.354549 J2.061261
G02 X21.600590 Y19.449984 Z-0.700000 I-10.939346 J5.911315
G01 X21.600590 Y9.272250 Z-0.700000
G02 X24.782570 Y7.954230 Z-0.700000 I0.000000 J-4.499999
G02 X26.100590 Y4.772250 Z-0.700000 I-3.181981 J-3.181980
G02 X24.782570 Y1.590270 Z-0.700000 I-4.500000 J0.000000
G02 X21.600590 Y0.272250 Z-0.700000 I-3.181980 J3.181980
G01 X21.600590 Y0.242950 Z-0.700000
G01 X4.600590 Y0.242950 Z-0.700000
G02 X1.418609 Y1.560969 Z-0.700000 I0.000000 J4.500000
G02 X0.100590 Y4.742950 Z-0.700000 I3.181981 J3.181981
G02 X1.418609 Y7.924931 Z-0.700000 I4.500000 J-0.000000
G02 X4.600590 Y9.242950 Z-0.700000 I3.181981 J-3.181981
G01 X4.600590 Y19.125763 Z-0.700000
G02 X1.210515 Y24.099417 Z-0.700000 I8.358395 J9.339313
G02 X0.598637 Y30.504669 Z-0.700000 I11.706791 J4.350172
G02 X3.407118 Y36.544914 Z-0.700000 I12.321467 J-2.055967
G02 X8.510746 Y40.141388 Z-0.700000 I9.541326 J-8.120332
G02 X8.457168 Y40.536050 Z-0.700000 I4.429789 J0.802339
G02 X8.438476 Y40.948028 Z-0.700000 I4.530678 J0.411978
G02 X9.756496 Y44.130009 Z-0.700000 I4.500000 J0.000000
G02 X12.938476 Y45.448028 Z-0.700000 I3.181980 J-3.181981
G01 X12.938481 Y45.448031 Z-0.700000
G00 Z2.000000

(End cutting path id: path24)


(Start cutting path id: path24)
(Change tool to Cylindrical cutter)

G00 Z2.000000
G00 X12.938481 Y45.448031

G01 Z-1.400000 F100.0(Penetrate)
G02 X16.120461 Y44.130012 Z-1.400000 I0.000000 J-4.500000 F120.000000
G02 X17.438481 Y40.948031 Z-1.400000 I-3.181980 J-3.181981
G02 X17.419173 Y40.531976 Z-1.400000 I-4.492194 J0.000000
G02 X17.364261 Y40.133578 Z-1.400000 I-4.529489 J0.421320
G02 X23.691191 Y34.803328 Z-1.400000 I-4.413775 J-11.659199
G02 X25.252933 Y26.391391 Z-1.400000 I-10.780572 J-6.352442
G02 X23.917768 Y22.498087 Z-1.400000 I-12.354549 J2.061261
G02 X21.600590 Y19.449984 Z-1.400000 I-10.939346 J5.911315
G01 X21.600590 Y9.272250 Z-1.400000
G02 X24.782570 Y7.954230 Z-1.400000 I0.000000 J-4.499999
G02 X26.100590 Y4.772250 Z-1.400000 I-3.181981 J-3.181980
G02 X24.782570 Y1.590270 Z-1.400000 I-4.500000 J0.000000
G02 X21.600590 Y0.272250 Z-1.400000 I-3.181980 J3.181980
G01 X21.600590 Y0.242950 Z-1.400000
G01 X4.600590 Y0.242950 Z-1.400000
G02 X1.418609 Y1.560969 Z-1.400000 I0.000000 J4.500000
G02 X0.100590 Y4.742950 Z-1.400000 I3.181981 J3.181981
G02 X1.418609 Y7.924931 Z-1.400000 I4.500000 J-0.000000
G02 X4.600590 Y9.242950 Z-1.400000 I3.181981 J-3.181981
G01 X4.600590 Y19.125763 Z-1.400000
G02 X1.210515 Y24.099417 Z-1.400000 I8.358395 J9.339313
G02 X0.598637 Y30.504669 Z-1.400000 I11.706791 J4.350172
G02 X3.407118 Y36.544914 Z-1.400000 I12.321467 J-2.055967
G02 X8.510746 Y40.141388 Z-1.400000 I9.541326 J-8.120332
G02 X8.457168 Y40.536050 Z-1.400000 I4.429789 J0.802339
G02 X8.438476 Y40.948028 Z-1.400000 I4.530678 J0.411978
G02 X9.756496 Y44.130009 Z-1.400000 I4.500000 J0.000000
G02 X12.938476 Y45.448028 Z-1.400000 I3.181980 J-3.181981
G01 X12.938481 Y45.448031 Z-1.400000
G00 Z2.000000

(End cutting path id: path24)


(Start cutting path id: path24)
(Change tool to Cylindrical cutter)

G00 Z2.000000
G00 X12.938481 Y45.448031

G01 Z-2.100000 F100.0(Penetrate)
G02 X16.120461 Y44.130012 Z-2.100000 I0.000000 J-4.500000 F120.000000
G02 X17.438481 Y40.948031 Z-2.100000 I-3.181980 J-3.181981
G02 X17.419173 Y40.531976 Z-2.100000 I-4.492194 J0.000000
G02 X17.364261 Y40.133578 Z-2.100000 I-4.529489 J0.421320
G02 X23.691191 Y34.803328 Z-2.100000 I-4.413775 J-11.659199
G02 X25.252933 Y26.391391 Z-2.100000 I-10.780572 J-6.352442
G02 X23.917768 Y22.498087 Z-2.100000 I-12.354549 J2.061261
G02 X21.600590 Y19.449984 Z-2.100000 I-10.939346 J5.911315
G01 X21.600590 Y9.272250 Z-2.100000
G02 X24.782570 Y7.954230 Z-2.100000 I0.000000 J-4.499999
G02 X26.100590 Y4.772250 Z-2.100000 I-3.181981 J-3.181980
G02 X24.782570 Y1.590270 Z-2.100000 I-4.500000 J0.000000
G02 X21.600590 Y0.272250 Z-2.100000 I-3.181980 J3.181980
G01 X21.600590 Y0.242950 Z-2.100000
G01 X4.600590 Y0.242950 Z-2.100000
G02 X1.418609 Y1.560969 Z-2.100000 I0.000000 J4.500000
G02 X0.100590 Y4.742950 Z-2.100000 I3.181981 J3.181981
G02 X1.418609 Y7.924931 Z-2.100000 I4.500000 J-0.000000
G02 X4.600590 Y9.242950 Z-2.100000 I3.181981 J-3.181981
G01 X4.600590 Y19.125763 Z-2.100000
G02 X1.210515 Y24.099417 Z-2.100000 I8.358395 J9.339313
G02 X0.598637 Y30.504669 Z-2.100000 I11.706791 J4.350172
G02 X3.407118 Y36.544914 Z-2.100000 I12.321467 J-2.055967
G02 X8.510746 Y40.141388 Z-2.100000 I9.541326 J-8.120332
G02 X8.457168 Y40.536050 Z-2.100000 I4.429789 J0.802339
G02 X8.438476 Y40.948028 Z-2.100000 I4.530678 J0.411978
G02 X9.756496 Y44.130009 Z-2.100000 I4.500000 J0.000000
G02 X12.938476 Y45.448028 Z-2.100000 I3.181980 J-3.181981
G01 X12.938481 Y45.448031 Z-2.100000
G00 Z2.000000

(End cutting path id: path24)


(Start cutting path id: path24)
(Change tool to Cylindrical cutter)

G00 Z2.000000
G00 X12.938481 Y45.448031

G01 Z-2.800000 F100.0(Penetrate)
G02 X16.120461 Y44.130012 Z-2.800000 I0.000000 J-4.500000 F120.000000
G02 X17.438481 Y40.948031 Z-2.800000 I-3.181980 J-3.181981
G02 X17.419173 Y40.531976 Z-2.800000 I-4.492194 J0.000000
G02 X17.364261 Y40.133578 Z-2.800000 I-4.529489 J0.421320
G02 X23.691191 Y34.803328 Z-2.800000 I-4.413775 J-11.659199
G02 X25.252933 Y26.391391 Z-2.800000 I-10.780572 J-6.352442
G02 X23.917768 Y22.498087 Z-2.800000 I-12.354549 J2.061261
G02 X21.600590 Y19.449984 Z-2.800000 I-10.939346 J5.911315
G01 X21.600590 Y9.272250 Z-2.800000
G02 X24.782570 Y7.954230 Z-2.800000 I0.000000 J-4.499999
G02 X26.100590 Y4.772250 Z-2.800000 I-3.181981 J-3.181980
G02 X24.782570 Y1.590270 Z-2.800000 I-4.500000 J0.000000
G02 X21.600590 Y0.272250 Z-2.800000 I-3.181980 J3.181980
G01 X21.600590 Y0.242950 Z-2.800000
G01 X4.600590 Y0.242950 Z-2.800000
G02 X1.418609 Y1.560969 Z-2.800000 I0.000000 J4.500000
G02 X0.100590 Y4.742950 Z-2.800000 I3.181981 J3.181981
G02 X1.418609 Y7.924931 Z-2.800000 I4.500000 J-0.000000
G02 X4.600590 Y9.242950 Z-2.800000 I3.181981 J-3.181981
G01 X4.600590 Y19.125763 Z-2.800000
G02 X1.210515 Y24.099417 Z-2.800000 I8.358395 J9.339313
G02 X0.598637 Y30.504669 Z-2.800000 I11.706791 J4.350172
G02 X3.407118 Y36.544914 Z-2.800000 I12.321467 J-2.055967
G02 X8.510746 Y40.141388 Z-2.800000 I9.541326 J-8.120332
G02 X8.457168 Y40.536050 Z-2.800000 I4.429789 J0.802339
G02 X8.438476 Y40.948028 Z-2.800000 I4.530678 J0.411978
G02 X9.756496 Y44.130009 Z-2.800000 I4.500000 J0.000000
G02 X12.938476 Y45.448028 Z-2.800000 I3.181980 J-3.181981
G01 X12.938481 Y45.448031 Z-2.800000
G00 Z2.000000

(End cutting path id: path24)


(Start cutting path id: path24)
(Change tool to Cylindrical cutter)

G00 Z2.000000
G00 X12.938481 Y45.448031

G01 Z-3.500000 F100.0(Penetrate)
G02 X16.120461 Y44.130012 Z-3.500000 I0.000000 J-4.500000 F120.000000
G02 X17.438481 Y40.948031 Z-3.500000 I-3.181980 J-3.181981
G02 X17.419173 Y40.531976 Z-3.500000 I-4.492194 J0.000000
G02 X17.364261 Y40.133578 Z-3.500000 I-4.529489 J0.421320
G02 X23.691191 Y34.803328 Z-3.500000 I-4.413775 J-11.659199
G02 X25.252933 Y26.391391 Z-3.500000 I-10.780572 J-6.352442
G02 X23.917768 Y22.498087 Z-3.500000 I-12.354549 J2.061261
G02 X21.600590 Y19.449984 Z-3.500000 I-10.939346 J5.911315
G01 X21.600590 Y9.272250 Z-3.500000
G02 X24.782570 Y7.954230 Z-3.500000 I0.000000 J-4.499999
G02 X26.100590 Y4.772250 Z-3.500000 I-3.181981 J-3.181980
G02 X24.782570 Y1.590270 Z-3.500000 I-4.500000 J0.000000
G02 X21.600590 Y0.272250 Z-3.500000 I-3.181980 J3.181980
G01 X21.600590 Y0.242950 Z-3.500000
G01 X4.600590 Y0.242950 Z-3.500000
G02 X1.418609 Y1.560969 Z-3.500000 I0.000000 J4.500000
G02 X0.100590 Y4.742950 Z-3.500000 I3.181981 J3.181981
G02 X1.418609 Y7.924931 Z-3.500000 I4.500000 J-0.000000
G02 X4.600590 Y9.242950 Z-3.500000 I3.181981 J-3.181981
G01 X4.600590 Y19.125763 Z-3.500000
G02 X1.210515 Y24.099417 Z-3.500000 I8.358395 J9.339313
G02 X0.598637 Y30.504669 Z-3.500000 I11.706791 J4.350172
G02 X3.407118 Y36.544914 Z-3.500000 I12.321467 J-2.055967
G02 X8.510746 Y40.141388 Z-3.500000 I9.541326 J-8.120332
G02 X8.457168 Y40.536050 Z-3.500000 I4.429789 J0.802339
G02 X8.438476 Y40.948028 Z-3.500000 I4.530678 J0.411978
G02 X9.756496 Y44.130009 Z-3.500000 I4.500000 J0.000000
G02 X12.938476 Y45.448028 Z-3.500000 I3.181980 J-3.181981
G01 X12.938481 Y45.448031 Z-3.500000
G00 Z2.000000

(End cutting path id: path24)


(Start cutting path id: path24)
(Change tool to Cylindrical cutter)

G00 Z2.000000
G00 X12.938481 Y45.448031

G01 Z-4.200000 F100.0(Penetrate)
G02 X16.120461 Y44.130012 Z-4.200000 I0.000000 J-4.500000 F120.000000
G02 X17.438481 Y40.948031 Z-4.200000 I-3.181980 J-3.181981
G02 X17.419173 Y40.531976 Z-4.200000 I-4.492194 J0.000000
G02 X17.364261 Y40.133578 Z-4.200000 I-4.529489 J0.421320
G02 X23.691191 Y34.803328 Z-4.200000 I-4.413775 J-11.659199
G02 X25.252933 Y26.391391 Z-4.200000 I-10.780572 J-6.352442
G02 X23.917768 Y22.498087 Z-4.200000 I-12.354549 J2.061261
G02 X21.600590 Y19.449984 Z-4.200000 I-10.939346 J5.911315
G01 X21.600590 Y9.272250 Z-4.200000
G02 X24.782570 Y7.954230 Z-4.200000 I0.000000 J-4.499999
G02 X26.100590 Y4.772250 Z-4.200000 I-3.181981 J-3.181980
G02 X24.782570 Y1.590270 Z-4.200000 I-4.500000 J0.000000
G02 X21.600590 Y0.272250 Z-4.200000 I-3.181980 J3.181980
G01 X21.600590 Y0.242950 Z-4.200000
G01 X4.600590 Y0.242950 Z-4.200000
G02 X1.418609 Y1.560969 Z-4.200000 I0.000000 J4.500000
G02 X0.100590 Y4.742950 Z-4.200000 I3.181981 J3.181981
G02 X1.418609 Y7.924931 Z-4.200000 I4.500000 J-0.000000
G02 X4.600590 Y9.242950 Z-4.200000 I3.181981 J-3.181981
G01 X4.600590 Y19.125763 Z-4.200000
G02 X1.210515 Y24.099417 Z-4.200000 I8.358395 J9.339313
G02 X0.598637 Y30.504669 Z-4.200000 I11.706791 J4.350172
G02 X3.407118 Y36.544914 Z-4.200000 I12.321467 J-2.055967
G02 X8.510746 Y40.141388 Z-4.200000 I9.541326 J-8.120332
G02 X8.457168 Y40.536050 Z-4.200000 I4.429789 J0.802339
G02 X8.438476 Y40.948028 Z-4.200000 I4.530678 J0.411978
G02 X9.756496 Y44.130009 Z-4.200000 I4.500000 J0.000000
G02 X12.938476 Y45.448028 Z-4.200000 I3.181980 J-3.181981
G01 X12.938481 Y45.448031 Z-4.200000
G00 Z2.000000

(End cutting path id: path24)


(Start cutting path id: path24)
(Change tool to Cylindrical cutter)

G00 Z2.000000
G00 X12.938481 Y45.448031

G01 Z-4.500000 F100.0(Penetrate)
G02 X16.120461 Y44.130012 Z-4.500000 I0.000000 J-4.500000 F120.000000
G02 X17.438481 Y40.948031 Z-4.500000 I-3.181980 J-3.181981
G02 X17.419173 Y40.531976 Z-4.500000 I-4.492194 J0.000000
G02 X17.364261 Y40.133578 Z-4.500000 I-4.529489 J0.421320
G02 X23.691191 Y34.803328 Z-4.500000 I-4.413775 J-11.659199
G02 X25.252933 Y26.391391 Z-4.500000 I-10.780572 J-6.352442
G02 X23.917768 Y22.498087 Z-4.500000 I-12.354549 J2.061261
G02 X21.600590 Y19.449984 Z-4.500000 I-10.939346 J5.911315
G01 X21.600590 Y9.272250 Z-4.500000
G02 X24.782570 Y7.954230 Z-4.500000 I0.000000 J-4.499999
G02 X26.100590 Y4.772250 Z-4.500000 I-3.181981 J-3.181980
G02 X24.782570 Y1.590270 Z-4.500000 I-4.500000 J0.000000
G02 X21.600590 Y0.272250 Z-4.500000 I-3.181980 J3.181980
G01 X21.600590 Y0.242950 Z-4.500000
G01 X4.600590 Y0.242950 Z-4.500000
G02 X1.418609 Y1.560969 Z-4.500000 I0.000000 J4.500000
G02 X0.100590 Y4.742950 Z-4.500000 I3.181981 J3.181981
G02 X1.418609 Y7.924931 Z-4.500000 I4.500000 J-0.000000
G02 X4.600590 Y9.242950 Z-4.500000 I3.181981 J-3.181981
G01 X4.600590 Y19.125763 Z-4.500000
G02 X1.210515 Y24.099417 Z-4.500000 I8.358395 J9.339313
G02 X0.598637 Y30.504669 Z-4.500000 I11.706791 J4.350172
G02 X3.407118 Y36.544914 Z-4.500000 I12.321467 J-2.055967
G02 X8.510746 Y40.141388 Z-4.500000 I9.541326 J-8.120332
G02 X8.457168 Y40.536050 Z-4.500000 I4.429789 J0.802339
G02 X8.438476 Y40.948028 Z-4.500000 I4.530678 J0.411978
G02 X9.756496 Y44.130009 Z-4.500000 I4.500000 J0.000000
G02 X12.938476 Y45.448028 Z-4.500000 I3.181980 J-3.181981
G01 X12.938481 Y45.448031 Z-4.500000
G00 Z2.000000

(End cutting path id: path24)


(Footer)
M5
G00 X0.0000 Y0.0000
M2
(Using default footer. To add your own footer create file "footer" in the output dir.)
(end)
%