%
(Header)
(Generated by gcodetools from Inkscape.)
(Using default header. To add your own header create file "header" in the output dir.)
M3
(Header end.)
G21 (All units in mm)

(Start cutting path id: circle28)
(Change tool to Cylindrical cutter)

G00 Z2.000000
G00 X12.438100 Y40.948200

G01 Z-0.700000 F100.0(Penetrate)
G03 X12.476160 Y40.756858 Z-0.700000 I0.500000 J0.000000 F120.000000
G03 X12.584547 Y40.594647 Z-0.700000 I0.461940 J0.191342
G03 X12.746758 Y40.486260 Z-0.700000 I0.353553 J0.353553
G03 X12.938100 Y40.448200 Z-0.700000 I0.191342 J0.461940
G03 X13.129442 Y40.486260 Z-0.700000 I-0.000000 J0.500000
G03 X13.291653 Y40.594647 Z-0.700000 I-0.191342 J0.461940
G03 X13.400040 Y40.756858 Z-0.700000 I-0.353553 J0.353553
G03 X13.438100 Y40.948200 Z-0.700000 I-0.461940 J0.191342
G03 X13.400040 Y41.139542 Z-0.700000 I-0.500000 J-0.000000
G03 X13.291653 Y41.301753 Z-0.700000 I-0.461940 J-0.191342
G03 X13.129442 Y41.410140 Z-0.700000 I-0.353553 J-0.353553
G03 X12.938100 Y41.448200 Z-0.700000 I-0.191342 J-0.461940
G03 X12.746758 Y41.410140 Z-0.700000 I0.000000 J-0.500000
G03 X12.584547 Y41.301753 Z-0.700000 I0.191342 J-0.461940
G03 X12.476160 Y41.139542 Z-0.700000 I0.353553 J-0.353553
G03 X12.438100 Y40.948200 Z-0.700000 I0.461940 J-0.191342
G01 X12.438100 Y40.948200 Z-0.700000
G00 Z2.000000

(End cutting path id: circle28)


(Start cutting path id: circle28)
(Change tool to Cylindrical cutter)

G00 Z2.000000
G00 X12.438100 Y40.948200

G01 Z-1.400000 F100.0(Penetrate)
G03 X12.476160 Y40.756858 Z-1.400000 I0.500000 J0.000000 F120.000000
G03 X12.584547 Y40.594647 Z-1.400000 I0.461940 J0.191342
G03 X12.746758 Y40.486260 Z-1.400000 I0.353553 J0.353553
G03 X12.938100 Y40.448200 Z-1.400000 I0.191342 J0.461940
G03 X13.129442 Y40.486260 Z-1.400000 I-0.000000 J0.500000
G03 X13.291653 Y40.594647 Z-1.400000 I-0.191342 J0.461940
G03 X13.400040 Y40.756858 Z-1.400000 I-0.353553 J0.353553
G03 X13.438100 Y40.948200 Z-1.400000 I-0.461940 J0.191342
G03 X13.400040 Y41.139542 Z-1.400000 I-0.500000 J-0.000000
G03 X13.291653 Y41.301753 Z-1.400000 I-0.461940 J-0.191342
G03 X13.129442 Y41.410140 Z-1.400000 I-0.353553 J-0.353553
G03 X12.938100 Y41.448200 Z-1.400000 I-0.191342 J-0.461940
G03 X12.746758 Y41.410140 Z-1.400000 I0.000000 J-0.500000
G03 X12.584547 Y41.301753 Z-1.400000 I0.191342 J-0.461940
G03 X12.476160 Y41.139542 Z-1.400000 I0.353553 J-0.353553
G03 X12.438100 Y40.948200 Z-1.400000 I0.461940 J-0.191342
G01 X12.438100 Y40.948200 Z-1.400000
G00 Z2.000000

(End cutting path id: circle28)


(Start cutting path id: circle28)
(Change tool to Cylindrical cutter)

G00 Z2.000000
G00 X12.438100 Y40.948200

G01 Z-2.100000 F100.0(Penetrate)
G03 X12.476160 Y40.756858 Z-2.100000 I0.500000 J0.000000 F120.000000
G03 X12.584547 Y40.594647 Z-2.100000 I0.461940 J0.191342
G03 X12.746758 Y40.486260 Z-2.100000 I0.353553 J0.353553
G03 X12.938100 Y40.448200 Z-2.100000 I0.191342 J0.461940
G03 X13.129442 Y40.486260 Z-2.100000 I-0.000000 J0.500000
G03 X13.291653 Y40.594647 Z-2.100000 I-0.191342 J0.461940
G03 X13.400040 Y40.756858 Z-2.100000 I-0.353553 J0.353553
G03 X13.438100 Y40.948200 Z-2.100000 I-0.461940 J0.191342
G03 X13.400040 Y41.139542 Z-2.100000 I-0.500000 J-0.000000
G03 X13.291653 Y41.301753 Z-2.100000 I-0.461940 J-0.191342
G03 X13.129442 Y41.410140 Z-2.100000 I-0.353553 J-0.353553
G03 X12.938100 Y41.448200 Z-2.100000 I-0.191342 J-0.461940
G03 X12.746758 Y41.410140 Z-2.100000 I0.000000 J-0.500000
G03 X12.584547 Y41.301753 Z-2.100000 I0.191342 J-0.461940
G03 X12.476160 Y41.139542 Z-2.100000 I0.353553 J-0.353553
G03 X12.438100 Y40.948200 Z-2.100000 I0.461940 J-0.191342
G01 X12.438100 Y40.948200 Z-2.100000
G00 Z2.000000

(End cutting path id: circle28)


(Start cutting path id: circle28)
(Change tool to Cylindrical cutter)

G00 Z2.000000
G00 X12.438100 Y40.948200

G01 Z-2.800000 F100.0(Penetrate)
G03 X12.476160 Y40.756858 Z-2.800000 I0.500000 J0.000000 F120.000000
G03 X12.584547 Y40.594647 Z-2.800000 I0.461940 J0.191342
G03 X12.746758 Y40.486260 Z-2.800000 I0.353553 J0.353553
G03 X12.938100 Y40.448200 Z-2.800000 I0.191342 J0.461940
G03 X13.129442 Y40.486260 Z-2.800000 I-0.000000 J0.500000
G03 X13.291653 Y40.594647 Z-2.800000 I-0.191342 J0.461940
G03 X13.400040 Y40.756858 Z-2.800000 I-0.353553 J0.353553
G03 X13.438100 Y40.948200 Z-2.800000 I-0.461940 J0.191342
G03 X13.400040 Y41.139542 Z-2.800000 I-0.500000 J-0.000000
G03 X13.291653 Y41.301753 Z-2.800000 I-0.461940 J-0.191342
G03 X13.129442 Y41.410140 Z-2.800000 I-0.353553 J-0.353553
G03 X12.938100 Y41.448200 Z-2.800000 I-0.191342 J-0.461940
G03 X12.746758 Y41.410140 Z-2.800000 I0.000000 J-0.500000
G03 X12.584547 Y41.301753 Z-2.800000 I0.191342 J-0.461940
G03 X12.476160 Y41.139542 Z-2.800000 I0.353553 J-0.353553
G03 X12.438100 Y40.948200 Z-2.800000 I0.461940 J-0.191342
G01 X12.438100 Y40.948200 Z-2.800000
G00 Z2.000000

(End cutting path id: circle28)


(Start cutting path id: circle28)
(Change tool to Cylindrical cutter)

G00 Z2.000000
G00 X12.438100 Y40.948200

G01 Z-3.500000 F100.0(Penetrate)
G03 X12.476160 Y40.756858 Z-3.500000 I0.500000 J0.000000 F120.000000
G03 X12.584547 Y40.594647 Z-3.500000 I0.461940 J0.191342
G03 X12.746758 Y40.486260 Z-3.500000 I0.353553 J0.353553
G03 X12.938100 Y40.448200 Z-3.500000 I0.191342 J0.461940
G03 X13.129442 Y40.486260 Z-3.500000 I-0.000000 J0.500000
G03 X13.291653 Y40.594647 Z-3.500000 I-0.191342 J0.461940
G03 X13.400040 Y40.756858 Z-3.500000 I-0.353553 J0.353553
G03 X13.438100 Y40.948200 Z-3.500000 I-0.461940 J0.191342
G03 X13.400040 Y41.139542 Z-3.500000 I-0.500000 J-0.000000
G03 X13.291653 Y41.301753 Z-3.500000 I-0.461940 J-0.191342
G03 X13.129442 Y41.410140 Z-3.500000 I-0.353553 J-0.353553
G03 X12.938100 Y41.448200 Z-3.500000 I-0.191342 J-0.461940
G03 X12.746758 Y41.410140 Z-3.500000 I0.000000 J-0.500000
G03 X12.584547 Y41.301753 Z-3.500000 I0.191342 J-0.461940
G03 X12.476160 Y41.139542 Z-3.500000 I0.353553 J-0.353553
G03 X12.438100 Y40.948200 Z-3.500000 I0.461940 J-0.191342
G01 X12.438100 Y40.948200 Z-3.500000
G00 Z2.000000

(End cutting path id: circle28)


(Start cutting path id: circle28)
(Change tool to Cylindrical cutter)

G00 Z2.000000
G00 X12.438100 Y40.948200

G01 Z-4.200000 F100.0(Penetrate)
G03 X12.476160 Y40.756858 Z-4.200000 I0.500000 J0.000000 F120.000000
G03 X12.584547 Y40.594647 Z-4.200000 I0.461940 J0.191342
G03 X12.746758 Y40.486260 Z-4.200000 I0.353553 J0.353553
G03 X12.938100 Y40.448200 Z-4.200000 I0.191342 J0.461940
G03 X13.129442 Y40.486260 Z-4.200000 I-0.000000 J0.500000
G03 X13.291653 Y40.594647 Z-4.200000 I-0.191342 J0.461940
G03 X13.400040 Y40.756858 Z-4.200000 I-0.353553 J0.353553
G03 X13.438100 Y40.948200 Z-4.200000 I-0.461940 J0.191342
G03 X13.400040 Y41.139542 Z-4.200000 I-0.500000 J-0.000000
G03 X13.291653 Y41.301753 Z-4.200000 I-0.461940 J-0.191342
G03 X13.129442 Y41.410140 Z-4.200000 I-0.353553 J-0.353553
G03 X12.938100 Y41.448200 Z-4.200000 I-0.191342 J-0.461940
G03 X12.746758 Y41.410140 Z-4.200000 I0.000000 J-0.500000
G03 X12.584547 Y41.301753 Z-4.200000 I0.191342 J-0.461940
G03 X12.476160 Y41.139542 Z-4.200000 I0.353553 J-0.353553
G03 X12.438100 Y40.948200 Z-4.200000 I0.461940 J-0.191342
G01 X12.438100 Y40.948200 Z-4.200000
G00 Z2.000000

(End cutting path id: circle28)


(Start cutting path id: circle28)
(Change tool to Cylindrical cutter)

G00 Z2.000000
G00 X12.438100 Y40.948200

G01 Z-4.500000 F100.0(Penetrate)
G03 X12.476160 Y40.756858 Z-4.500000 I0.500000 J0.000000 F120.000000
G03 X12.584547 Y40.594647 Z-4.500000 I0.461940 J0.191342
G03 X12.746758 Y40.486260 Z-4.500000 I0.353553 J0.353553
G03 X12.938100 Y40.448200 Z-4.500000 I0.191342 J0.461940
G03 X13.129442 Y40.486260 Z-4.500000 I-0.000000 J0.500000
G03 X13.291653 Y40.594647 Z-4.500000 I-0.191342 J0.461940
G03 X13.400040 Y40.756858 Z-4.500000 I-0.353553 J0.353553
G03 X13.438100 Y40.948200 Z-4.500000 I-0.461940 J0.191342
G03 X13.400040 Y41.139542 Z-4.500000 I-0.500000 J-0.000000
G03 X13.291653 Y41.301753 Z-4.500000 I-0.461940 J-0.191342
G03 X13.129442 Y41.410140 Z-4.500000 I-0.353553 J-0.353553
G03 X12.938100 Y41.448200 Z-4.500000 I-0.191342 J-0.461940
G03 X12.746758 Y41.410140 Z-4.500000 I0.000000 J-0.500000
G03 X12.584547 Y41.301753 Z-4.500000 I0.191342 J-0.461940
G03 X12.476160 Y41.139542 Z-4.500000 I0.353553 J-0.353553
G03 X12.438100 Y40.948200 Z-4.500000 I0.461940 J-0.191342
G01 X12.438100 Y40.948200 Z-4.500000
G00 Z2.000000

(End cutting path id: circle28)


(Start cutting path id: circle20)
(Change tool to Cylindrical cutter)

G00 Z2.000000
G00 X8.676499 Y28.448199

G01 Z-0.700000 F100.0(Penetrate)
G03 X9.000011 Y26.821794 Z-0.700000 I4.250000 J0.000000 F120.000000
G03 X9.921295 Y25.442995 Z-0.700000 I3.926488 J1.626405
G03 X11.300094 Y24.521711 Z-0.700000 I3.005204 J3.005204
G03 X12.926499 Y24.198199 Z-0.700000 I1.626405 J3.926488
G03 X14.552904 Y24.521711 Z-0.700000 I0.000000 J4.250000
G03 X15.931703 Y25.442995 Z-0.700000 I-1.626405 J3.926488
G03 X16.852987 Y26.821794 Z-0.700000 I-3.005204 J3.005204
G03 X17.176499 Y28.448199 Z-0.700000 I-3.926488 J1.626405
G03 X16.852987 Y30.074604 Z-0.700000 I-4.250000 J0.000000
G03 X15.931703 Y31.453403 Z-0.700000 I-3.926488 J-1.626405
G03 X14.552904 Y32.374687 Z-0.700000 I-3.005204 J-3.005204
G03 X12.926499 Y32.698199 Z-0.700000 I-1.626405 J-3.926488
G03 X11.300094 Y32.374687 Z-0.700000 I0.000000 J-4.250000
G03 X9.921295 Y31.453403 Z-0.700000 I1.626405 J-3.926488
G03 X9.000011 Y30.074604 Z-0.700000 I3.005204 J-3.005204
G03 X8.676499 Y28.448199 Z-0.700000 I3.926488 J-1.626405
G01 X8.676499 Y28.448199 Z-0.700000
G00 Z2.000000

(End cutting path id: circle20)


(Start cutting path id: circle20)
(Change tool to Cylindrical cutter)

G00 Z2.000000
G00 X8.676499 Y28.448199

G01 Z-1.400000 F100.0(Penetrate)
G03 X9.000011 Y26.821794 Z-1.400000 I4.250000 J0.000000 F120.000000
G03 X9.921295 Y25.442995 Z-1.400000 I3.926488 J1.626405
G03 X11.300094 Y24.521711 Z-1.400000 I3.005204 J3.005204
G03 X12.926499 Y24.198199 Z-1.400000 I1.626405 J3.926488
G03 X14.552904 Y24.521711 Z-1.400000 I0.000000 J4.250000
G03 X15.931703 Y25.442995 Z-1.400000 I-1.626405 J3.926488
G03 X16.852987 Y26.821794 Z-1.400000 I-3.005204 J3.005204
G03 X17.176499 Y28.448199 Z-1.400000 I-3.926488 J1.626405
G03 X16.852987 Y30.074604 Z-1.400000 I-4.250000 J0.000000
G03 X15.931703 Y31.453403 Z-1.400000 I-3.926488 J-1.626405
G03 X14.552904 Y32.374687 Z-1.400000 I-3.005204 J-3.005204
G03 X12.926499 Y32.698199 Z-1.400000 I-1.626405 J-3.926488
G03 X11.300094 Y32.374687 Z-1.400000 I0.000000 J-4.250000
G03 X9.921295 Y31.453403 Z-1.400000 I1.626405 J-3.926488
G03 X9.000011 Y30.074604 Z-1.400000 I3.005204 J-3.005204
G03 X8.676499 Y28.448199 Z-1.400000 I3.926488 J-1.626405
G01 X8.676499 Y28.448199 Z-1.400000
G00 Z2.000000

(End cutting path id: circle20)


(Start cutting path id: circle20)
(Change tool to Cylindrical cutter)

G00 Z2.000000
G00 X8.676499 Y28.448199

G01 Z-2.100000 F100.0(Penetrate)
G03 X9.000011 Y26.821794 Z-2.100000 I4.250000 J0.000000 F120.000000
G03 X9.921295 Y25.442995 Z-2.100000 I3.926488 J1.626405
G03 X11.300094 Y24.521711 Z-2.100000 I3.005204 J3.005204
G03 X12.926499 Y24.198199 Z-2.100000 I1.626405 J3.926488
G03 X14.552904 Y24.521711 Z-2.100000 I0.000000 J4.250000
G03 X15.931703 Y25.442995 Z-2.100000 I-1.626405 J3.926488
G03 X16.852987 Y26.821794 Z-2.100000 I-3.005204 J3.005204
G03 X17.176499 Y28.448199 Z-2.100000 I-3.926488 J1.626405
G03 X16.852987 Y30.074604 Z-2.100000 I-4.250000 J0.000000
G03 X15.931703 Y31.453403 Z-2.100000 I-3.926488 J-1.626405
G03 X14.552904 Y32.374687 Z-2.100000 I-3.005204 J-3.005204
G03 X12.926499 Y32.698199 Z-2.100000 I-1.626405 J-3.926488
G03 X11.300094 Y32.374687 Z-2.100000 I0.000000 J-4.250000
G03 X9.921295 Y31.453403 Z-2.100000 I1.626405 J-3.926488
G03 X9.000011 Y30.074604 Z-2.100000 I3.005204 J-3.005204
G03 X8.676499 Y28.448199 Z-2.100000 I3.926488 J-1.626405
G01 X8.676499 Y28.448199 Z-2.100000
G00 Z2.000000

(End cutting path id: circle20)


(Start cutting path id: circle20)
(Change tool to Cylindrical cutter)

G00 Z2.000000
G00 X8.676499 Y28.448199

G01 Z-2.800000 F100.0(Penetrate)
G03 X9.000011 Y26.821794 Z-2.800000 I4.250000 J0.000000 F120.000000
G03 X9.921295 Y25.442995 Z-2.800000 I3.926488 J1.626405
G03 X11.300094 Y24.521711 Z-2.800000 I3.005204 J3.005204
G03 X12.926499 Y24.198199 Z-2.800000 I1.626405 J3.926488
G03 X14.552904 Y24.521711 Z-2.800000 I0.000000 J4.250000
G03 X15.931703 Y25.442995 Z-2.800000 I-1.626405 J3.926488
G03 X16.852987 Y26.821794 Z-2.800000 I-3.005204 J3.005204
G03 X17.176499 Y28.448199 Z-2.800000 I-3.926488 J1.626405
G03 X16.852987 Y30.074604 Z-2.800000 I-4.250000 J0.000000
G03 X15.931703 Y31.453403 Z-2.800000 I-3.926488 J-1.626405
G03 X14.552904 Y32.374687 Z-2.800000 I-3.005204 J-3.005204
G03 X12.926499 Y32.698199 Z-2.800000 I-1.626405 J-3.926488
G03 X11.300094 Y32.374687 Z-2.800000 I0.000000 J-4.250000
G03 X9.921295 Y31.453403 Z-2.800000 I1.626405 J-3.926488
G03 X9.000011 Y30.074604 Z-2.800000 I3.005204 J-3.005204
G03 X8.676499 Y28.448199 Z-2.800000 I3.926488 J-1.626405
G01 X8.676499 Y28.448199 Z-2.800000
G00 Z2.000000

(End cutting path id: circle20)


(Start cutting path id: circle20)
(Change tool to Cylindrical cutter)

G00 Z2.000000
G00 X8.676499 Y28.448199

G01 Z-3.500000 F100.0(Penetrate)
G03 X9.000011 Y26.821794 Z-3.500000 I4.250000 J0.000000 F120.000000
G03 X9.921295 Y25.442995 Z-3.500000 I3.926488 J1.626405
G03 X11.300094 Y24.521711 Z-3.500000 I3.005204 J3.005204
G03 X12.926499 Y24.198199 Z-3.500000 I1.626405 J3.926488
G03 X14.552904 Y24.521711 Z-3.500000 I0.000000 J4.250000
G03 X15.931703 Y25.442995 Z-3.500000 I-1.626405 J3.926488
G03 X16.852987 Y26.821794 Z-3.500000 I-3.005204 J3.005204
G03 X17.176499 Y28.448199 Z-3.500000 I-3.926488 J1.626405
G03 X16.852987 Y30.074604 Z-3.500000 I-4.250000 J0.000000
G03 X15.931703 Y31.453403 Z-3.500000 I-3.926488 J-1.626405
G03 X14.552904 Y32.374687 Z-3.500000 I-3.005204 J-3.005204
G03 X12.926499 Y32.698199 Z-3.500000 I-1.626405 J-3.926488
G03 X11.300094 Y32.374687 Z-3.500000 I0.000000 J-4.250000
G03 X9.921295 Y31.453403 Z-3.500000 I1.626405 J-3.926488
G03 X9.000011 Y30.074604 Z-3.500000 I3.005204 J-3.005204
G03 X8.676499 Y28.448199 Z-3.500000 I3.926488 J-1.626405
G01 X8.676499 Y28.448199 Z-3.500000
G00 Z2.000000

(End cutting path id: circle20)


(Start cutting path id: circle20)
(Change tool to Cylindrical cutter)

G00 Z2.000000
G00 X8.676499 Y28.448199

G01 Z-4.200000 F100.0(Penetrate)
G03 X9.000011 Y26.821794 Z-4.200000 I4.250000 J0.000000 F120.000000
G03 X9.921295 Y25.442995 Z-4.200000 I3.926488 J1.626405
G03 X11.300094 Y24.521711 Z-4.200000 I3.005204 J3.005204
G03 X12.926499 Y24.198199 Z-4.200000 I1.626405 J3.926488
G03 X14.552904 Y24.521711 Z-4.200000 I0.000000 J4.250000
G03 X15.931703 Y25.442995 Z-4.200000 I-1.626405 J3.926488
G03 X16.852987 Y26.821794 Z-4.200000 I-3.005204 J3.005204
G03 X17.176499 Y28.448199 Z-4.200000 I-3.926488 J1.626405
G03 X16.852987 Y30.074604 Z-4.200000 I-4.250000 J0.000000
G03 X15.931703 Y31.453403 Z-4.200000 I-3.926488 J-1.626405
G03 X14.552904 Y32.374687 Z-4.200000 I-3.005204 J-3.005204
G03 X12.926499 Y32.698199 Z-4.200000 I-1.626405 J-3.926488
G03 X11.300094 Y32.374687 Z-4.200000 I0.000000 J-4.250000
G03 X9.921295 Y31.453403 Z-4.200000 I1.626405 J-3.926488
G03 X9.000011 Y30.074604 Z-4.200000 I3.005204 J-3.005204
G03 X8.676499 Y28.448199 Z-4.200000 I3.926488 J-1.626405
G01 X8.676499 Y28.448199 Z-4.200000
G00 Z2.000000

(End cutting path id: circle20)


(Start cutting path id: circle20)
(Change tool to Cylindrical cutter)

G00 Z2.000000
G00 X8.676499 Y28.448199

G01 Z-4.500000 F100.0(Penetrate)
G03 X9.000011 Y26.821794 Z-4.500000 I4.250000 J0.000000 F120.000000
G03 X9.921295 Y25.442995 Z-4.500000 I3.926488 J1.626405
G03 X11.300094 Y24.521711 Z-4.500000 I3.005204 J3.005204
G03 X12.926499 Y24.198199 Z-4.500000 I1.626405 J3.926488
G03 X14.552904 Y24.521711 Z-4.500000 I0.000000 J4.250000
G03 X15.931703 Y25.442995 Z-4.500000 I-1.626405 J3.926488
G03 X16.852987 Y26.821794 Z-4.500000 I-3.005204 J3.005204
G03 X17.176499 Y28.448199 Z-4.500000 I-3.926488 J1.626405
G03 X16.852987 Y30.074604 Z-4.500000 I-4.250000 J0.000000
G03 X15.931703 Y31.453403 Z-4.500000 I-3.926488 J-1.626405
G03 X14.552904 Y32.374687 Z-4.500000 I-3.005204 J-3.005204
G03 X12.926499 Y32.698199 Z-4.500000 I-1.626405 J-3.926488
G03 X11.300094 Y32.374687 Z-4.500000 I0.000000 J-4.250000
G03 X9.921295 Y31.453403 Z-4.500000 I1.626405 J-3.926488
G03 X9.000011 Y30.074604 Z-4.500000 I3.005204 J-3.005204
G03 X8.676499 Y28.448199 Z-4.500000 I3.926488 J-1.626405
G01 X8.676499 Y28.448199 Z-4.500000
G00 Z2.000000

(End cutting path id: circle20)


(Start cutting path id: circle26)
(Change tool to Cylindrical cutter)

G00 Z2.000000
G00 X4.099999 Y4.743499

G01 Z-0.700000 F100.0(Penetrate)
G03 X4.138059 Y4.552157 Z-0.700000 I0.500000 J0.000000 F120.000000
G03 X4.246446 Y4.389946 Z-0.700000 I0.461940 J0.191342
G03 X4.408657 Y4.281559 Z-0.700000 I0.353553 J0.353553
G03 X4.599999 Y4.243499 Z-0.700000 I0.191342 J0.461940
G03 X4.791341 Y4.281559 Z-0.700000 I0.000000 J0.500000
G03 X4.953552 Y4.389946 Z-0.700000 I-0.191342 J0.461940
G03 X5.061939 Y4.552157 Z-0.700000 I-0.353553 J0.353553
G03 X5.099999 Y4.743499 Z-0.700000 I-0.461940 J0.191342
G03 X5.061939 Y4.934841 Z-0.700000 I-0.500000 J0.000000
G03 X4.953552 Y5.097052 Z-0.700000 I-0.461940 J-0.191342
G03 X4.791341 Y5.205439 Z-0.700000 I-0.353553 J-0.353553
G03 X4.599999 Y5.243499 Z-0.700000 I-0.191342 J-0.461940
G03 X4.408657 Y5.205439 Z-0.700000 I-0.000000 J-0.500000
G03 X4.246446 Y5.097052 Z-0.700000 I0.191342 J-0.461940
G03 X4.138059 Y4.934841 Z-0.700000 I0.353553 J-0.353553
G03 X4.099999 Y4.743499 Z-0.700000 I0.461940 J-0.191342
G01 X4.099999 Y4.743499 Z-0.700000
G00 Z2.000000

(End cutting path id: circle26)


(Start cutting path id: circle26)
(Change tool to Cylindrical cutter)

G00 Z2.000000
G00 X4.099999 Y4.743499

G01 Z-1.400000 F100.0(Penetrate)
G03 X4.138059 Y4.552157 Z-1.400000 I0.500000 J0.000000 F120.000000
G03 X4.246446 Y4.389946 Z-1.400000 I0.461940 J0.191342
G03 X4.408657 Y4.281559 Z-1.400000 I0.353553 J0.353553
G03 X4.599999 Y4.243499 Z-1.400000 I0.191342 J0.461940
G03 X4.791341 Y4.281559 Z-1.400000 I0.000000 J0.500000
G03 X4.953552 Y4.389946 Z-1.400000 I-0.191342 J0.461940
G03 X5.061939 Y4.552157 Z-1.400000 I-0.353553 J0.353553
G03 X5.099999 Y4.743499 Z-1.400000 I-0.461940 J0.191342
G03 X5.061939 Y4.934841 Z-1.400000 I-0.500000 J0.000000
G03 X4.953552 Y5.097052 Z-1.400000 I-0.461940 J-0.191342
G03 X4.791341 Y5.205439 Z-1.400000 I-0.353553 J-0.353553
G03 X4.599999 Y5.243499 Z-1.400000 I-0.191342 J-0.461940
G03 X4.408657 Y5.205439 Z-1.400000 I-0.000000 J-0.500000
G03 X4.246446 Y5.097052 Z-1.400000 I0.191342 J-0.461940
G03 X4.138059 Y4.934841 Z-1.400000 I0.353553 J-0.353553
G03 X4.099999 Y4.743499 Z-1.400000 I0.461940 J-0.191342
G01 X4.099999 Y4.743499 Z-1.400000
G00 Z2.000000

(End cutting path id: circle26)


(Start cutting path id: circle26)
(Change tool to Cylindrical cutter)

G00 Z2.000000
G00 X4.099999 Y4.743499

G01 Z-2.100000 F100.0(Penetrate)
G03 X4.138059 Y4.552157 Z-2.100000 I0.500000 J0.000000 F120.000000
G03 X4.246446 Y4.389946 Z-2.100000 I0.461940 J0.191342
G03 X4.408657 Y4.281559 Z-2.100000 I0.353553 J0.353553
G03 X4.599999 Y4.243499 Z-2.100000 I0.191342 J0.461940
G03 X4.791341 Y4.281559 Z-2.100000 I0.000000 J0.500000
G03 X4.953552 Y4.389946 Z-2.100000 I-0.191342 J0.461940
G03 X5.061939 Y4.552157 Z-2.100000 I-0.353553 J0.353553
G03 X5.099999 Y4.743499 Z-2.100000 I-0.461940 J0.191342
G03 X5.061939 Y4.934841 Z-2.100000 I-0.500000 J0.000000
G03 X4.953552 Y5.097052 Z-2.100000 I-0.461940 J-0.191342
G03 X4.791341 Y5.205439 Z-2.100000 I-0.353553 J-0.353553
G03 X4.599999 Y5.243499 Z-2.100000 I-0.191342 J-0.461940
G03 X4.408657 Y5.205439 Z-2.100000 I-0.000000 J-0.500000
G03 X4.246446 Y5.097052 Z-2.100000 I0.191342 J-0.461940
G03 X4.138059 Y4.934841 Z-2.100000 I0.353553 J-0.353553
G03 X4.099999 Y4.743499 Z-2.100000 I0.461940 J-0.191342
G01 X4.099999 Y4.743499 Z-2.100000
G00 Z2.000000

(End cutting path id: circle26)


(Start cutting path id: circle26)
(Change tool to Cylindrical cutter)

G00 Z2.000000
G00 X4.099999 Y4.743499

G01 Z-2.800000 F100.0(Penetrate)
G03 X4.138059 Y4.552157 Z-2.800000 I0.500000 J0.000000 F120.000000
G03 X4.246446 Y4.389946 Z-2.800000 I0.461940 J0.191342
G03 X4.408657 Y4.281559 Z-2.800000 I0.353553 J0.353553
G03 X4.599999 Y4.243499 Z-2.800000 I0.191342 J0.461940
G03 X4.791341 Y4.281559 Z-2.800000 I0.000000 J0.500000
G03 X4.953552 Y4.389946 Z-2.800000 I-0.191342 J0.461940
G03 X5.061939 Y4.552157 Z-2.800000 I-0.353553 J0.353553
G03 X5.099999 Y4.743499 Z-2.800000 I-0.461940 J0.191342
G03 X5.061939 Y4.934841 Z-2.800000 I-0.500000 J0.000000
G03 X4.953552 Y5.097052 Z-2.800000 I-0.461940 J-0.191342
G03 X4.791341 Y5.205439 Z-2.800000 I-0.353553 J-0.353553
G03 X4.599999 Y5.243499 Z-2.800000 I-0.191342 J-0.461940
G03 X4.408657 Y5.205439 Z-2.800000 I-0.000000 J-0.500000
G03 X4.246446 Y5.097052 Z-2.800000 I0.191342 J-0.461940
G03 X4.138059 Y4.934841 Z-2.800000 I0.353553 J-0.353553
G03 X4.099999 Y4.743499 Z-2.800000 I0.461940 J-0.191342
G01 X4.099999 Y4.743499 Z-2.800000
G00 Z2.000000

(End cutting path id: circle26)


(Start cutting path id: circle26)
(Change tool to Cylindrical cutter)

G00 Z2.000000
G00 X4.099999 Y4.743499

G01 Z-3.500000 F100.0(Penetrate)
G03 X4.138059 Y4.552157 Z-3.500000 I0.500000 J0.000000 F120.000000
G03 X4.246446 Y4.389946 Z-3.500000 I0.461940 J0.191342
G03 X4.408657 Y4.281559 Z-3.500000 I0.353553 J0.353553
G03 X4.599999 Y4.243499 Z-3.500000 I0.191342 J0.461940
G03 X4.791341 Y4.281559 Z-3.500000 I0.000000 J0.500000
G03 X4.953552 Y4.389946 Z-3.500000 I-0.191342 J0.461940
G03 X5.061939 Y4.552157 Z-3.500000 I-0.353553 J0.353553
G03 X5.099999 Y4.743499 Z-3.500000 I-0.461940 J0.191342
G03 X5.061939 Y4.934841 Z-3.500000 I-0.500000 J0.000000
G03 X4.953552 Y5.097052 Z-3.500000 I-0.461940 J-0.191342
G03 X4.791341 Y5.205439 Z-3.500000 I-0.353553 J-0.353553
G03 X4.599999 Y5.243499 Z-3.500000 I-0.191342 J-0.461940
G03 X4.408657 Y5.205439 Z-3.500000 I-0.000000 J-0.500000
G03 X4.246446 Y5.097052 Z-3.500000 I0.191342 J-0.461940
G03 X4.138059 Y4.934841 Z-3.500000 I0.353553 J-0.353553
G03 X4.099999 Y4.743499 Z-3.500000 I0.461940 J-0.191342
G01 X4.099999 Y4.743499 Z-3.500000
G00 Z2.000000

(End cutting path id: circle26)


(Start cutting path id: circle26)
(Change tool to Cylindrical cutter)

G00 Z2.000000
G00 X4.099999 Y4.743499

G01 Z-4.200000 F100.0(Penetrate)
G03 X4.138059 Y4.552157 Z-4.200000 I0.500000 J0.000000 F120.000000
G03 X4.246446 Y4.389946 Z-4.200000 I0.461940 J0.191342
G03 X4.408657 Y4.281559 Z-4.200000 I0.353553 J0.353553
G03 X4.599999 Y4.243499 Z-4.200000 I0.191342 J0.461940
G03 X4.791341 Y4.281559 Z-4.200000 I0.000000 J0.500000
G03 X4.953552 Y4.389946 Z-4.200000 I-0.191342 J0.461940
G03 X5.061939 Y4.552157 Z-4.200000 I-0.353553 J0.353553
G03 X5.099999 Y4.743499 Z-4.200000 I-0.461940 J0.191342
G03 X5.061939 Y4.934841 Z-4.200000 I-0.500000 J0.000000
G03 X4.953552 Y5.097052 Z-4.200000 I-0.461940 J-0.191342
G03 X4.791341 Y5.205439 Z-4.200000 I-0.353553 J-0.353553
G03 X4.599999 Y5.243499 Z-4.200000 I-0.191342 J-0.461940
G03 X4.408657 Y5.205439 Z-4.200000 I-0.000000 J-0.500000
G03 X4.246446 Y5.097052 Z-4.200000 I0.191342 J-0.461940
G03 X4.138059 Y4.934841 Z-4.200000 I0.353553 J-0.353553
G03 X4.099999 Y4.743499 Z-4.200000 I0.461940 J-0.191342
G01 X4.099999 Y4.743499 Z-4.200000
G00 Z2.000000

(End cutting path id: circle26)


(Start cutting path id: circle26)
(Change tool to Cylindrical cutter)

G00 Z2.000000
G00 X4.099999 Y4.743499

G01 Z-4.500000 F100.0(Penetrate)
G03 X4.138059 Y4.552157 Z-4.500000 I0.500000 J0.000000 F120.000000
G03 X4.246446 Y4.389946 Z-4.500000 I0.461940 J0.191342
G03 X4.408657 Y4.281559 Z-4.500000 I0.353553 J0.353553
G03 X4.599999 Y4.243499 Z-4.500000 I0.191342 J0.461940
G03 X4.791341 Y4.281559 Z-4.500000 I0.000000 J0.500000
G03 X4.953552 Y4.389946 Z-4.500000 I-0.191342 J0.461940
G03 X5.061939 Y4.552157 Z-4.500000 I-0.353553 J0.353553
G03 X5.099999 Y4.743499 Z-4.500000 I-0.461940 J0.191342
G03 X5.061939 Y4.934841 Z-4.500000 I-0.500000 J0.000000
G03 X4.953552 Y5.097052 Z-4.500000 I-0.461940 J-0.191342
G03 X4.791341 Y5.205439 Z-4.500000 I-0.353553 J-0.353553
G03 X4.599999 Y5.243499 Z-4.500000 I-0.191342 J-0.461940
G03 X4.408657 Y5.205439 Z-4.500000 I-0.000000 J-0.500000
G03 X4.246446 Y5.097052 Z-4.500000 I0.191342 J-0.461940
G03 X4.138059 Y4.934841 Z-4.500000 I0.353553 J-0.353553
G03 X4.099999 Y4.743499 Z-4.500000 I0.461940 J-0.191342
G01 X4.099999 Y4.743499 Z-4.500000
G00 Z2.000000

(End cutting path id: circle26)


(Start cutting path id: circle22)
(Change tool to Cylindrical cutter)

G00 Z2.000000
G00 X21.100000 Y4.771399

G01 Z-0.700000 F100.0(Penetrate)
G03 X21.138060 Y4.580057 Z-0.700000 I0.500000 J0.000000 F120.000000
G03 X21.246447 Y4.417846 Z-0.700000 I0.461940 J0.191342
G03 X21.408658 Y4.309459 Z-0.700000 I0.353553 J0.353553
G03 X21.600000 Y4.271399 Z-0.700000 I0.191342 J0.461940
G03 X21.791342 Y4.309459 Z-0.700000 I-0.000000 J0.500000
G03 X21.953553 Y4.417846 Z-0.700000 I-0.191342 J0.461940
G03 X22.061940 Y4.580057 Z-0.700000 I-0.353553 J0.353553
G03 X22.100000 Y4.771399 Z-0.700000 I-0.461940 J0.191342
G03 X22.061940 Y4.962741 Z-0.700000 I-0.500000 J0.000000
G03 X21.953553 Y5.124952 Z-0.700000 I-0.461940 J-0.191342
G03 X21.791342 Y5.233339 Z-0.700000 I-0.353553 J-0.353553
G03 X21.600000 Y5.271399 Z-0.700000 I-0.191342 J-0.461940
G03 X21.408658 Y5.233339 Z-0.700000 I0.000000 J-0.500000
G03 X21.246447 Y5.124952 Z-0.700000 I0.191342 J-0.461940
G03 X21.138060 Y4.962741 Z-0.700000 I0.353553 J-0.353553
G03 X21.100000 Y4.771399 Z-0.700000 I0.461940 J-0.191342
G01 X21.100000 Y4.771399 Z-0.700000
G00 Z2.000000

(End cutting path id: circle22)


(Start cutting path id: circle22)
(Change tool to Cylindrical cutter)

G00 Z2.000000
G00 X21.100000 Y4.771399

G01 Z-1.400000 F100.0(Penetrate)
G03 X21.138060 Y4.580057 Z-1.400000 I0.500000 J0.000000 F120.000000
G03 X21.246447 Y4.417846 Z-1.400000 I0.461940 J0.191342
G03 X21.408658 Y4.309459 Z-1.400000 I0.353553 J0.353553
G03 X21.600000 Y4.271399 Z-1.400000 I0.191342 J0.461940
G03 X21.791342 Y4.309459 Z-1.400000 I-0.000000 J0.500000
G03 X21.953553 Y4.417846 Z-1.400000 I-0.191342 J0.461940
G03 X22.061940 Y4.580057 Z-1.400000 I-0.353553 J0.353553
G03 X22.100000 Y4.771399 Z-1.400000 I-0.461940 J0.191342
G03 X22.061940 Y4.962741 Z-1.400000 I-0.500000 J0.000000
G03 X21.953553 Y5.124952 Z-1.400000 I-0.461940 J-0.191342
G03 X21.791342 Y5.233339 Z-1.400000 I-0.353553 J-0.353553
G03 X21.600000 Y5.271399 Z-1.400000 I-0.191342 J-0.461940
G03 X21.408658 Y5.233339 Z-1.400000 I0.000000 J-0.500000
G03 X21.246447 Y5.124952 Z-1.400000 I0.191342 J-0.461940
G03 X21.138060 Y4.962741 Z-1.400000 I0.353553 J-0.353553
G03 X21.100000 Y4.771399 Z-1.400000 I0.461940 J-0.191342
G01 X21.100000 Y4.771399 Z-1.400000
G00 Z2.000000

(End cutting path id: circle22)


(Start cutting path id: circle22)
(Change tool to Cylindrical cutter)

G00 Z2.000000
G00 X21.100000 Y4.771399

G01 Z-2.100000 F100.0(Penetrate)
G03 X21.138060 Y4.580057 Z-2.100000 I0.500000 J0.000000 F120.000000
G03 X21.246447 Y4.417846 Z-2.100000 I0.461940 J0.191342
G03 X21.408658 Y4.309459 Z-2.100000 I0.353553 J0.353553
G03 X21.600000 Y4.271399 Z-2.100000 I0.191342 J0.461940
G03 X21.791342 Y4.309459 Z-2.100000 I-0.000000 J0.500000
G03 X21.953553 Y4.417846 Z-2.100000 I-0.191342 J0.461940
G03 X22.061940 Y4.580057 Z-2.100000 I-0.353553 J0.353553
G03 X22.100000 Y4.771399 Z-2.100000 I-0.461940 J0.191342
G03 X22.061940 Y4.962741 Z-2.100000 I-0.500000 J0.000000
G03 X21.953553 Y5.124952 Z-2.100000 I-0.461940 J-0.191342
G03 X21.791342 Y5.233339 Z-2.100000 I-0.353553 J-0.353553
G03 X21.600000 Y5.271399 Z-2.100000 I-0.191342 J-0.461940
G03 X21.408658 Y5.233339 Z-2.100000 I0.000000 J-0.500000
G03 X21.246447 Y5.124952 Z-2.100000 I0.191342 J-0.461940
G03 X21.138060 Y4.962741 Z-2.100000 I0.353553 J-0.353553
G03 X21.100000 Y4.771399 Z-2.100000 I0.461940 J-0.191342
G01 X21.100000 Y4.771399 Z-2.100000
G00 Z2.000000

(End cutting path id: circle22)


(Start cutting path id: circle22)
(Change tool to Cylindrical cutter)

G00 Z2.000000
G00 X21.100000 Y4.771399

G01 Z-2.800000 F100.0(Penetrate)
G03 X21.138060 Y4.580057 Z-2.800000 I0.500000 J0.000000 F120.000000
G03 X21.246447 Y4.417846 Z-2.800000 I0.461940 J0.191342
G03 X21.408658 Y4.309459 Z-2.800000 I0.353553 J0.353553
G03 X21.600000 Y4.271399 Z-2.800000 I0.191342 J0.461940
G03 X21.791342 Y4.309459 Z-2.800000 I-0.000000 J0.500000
G03 X21.953553 Y4.417846 Z-2.800000 I-0.191342 J0.461940
G03 X22.061940 Y4.580057 Z-2.800000 I-0.353553 J0.353553
G03 X22.100000 Y4.771399 Z-2.800000 I-0.461940 J0.191342
G03 X22.061940 Y4.962741 Z-2.800000 I-0.500000 J0.000000
G03 X21.953553 Y5.124952 Z-2.800000 I-0.461940 J-0.191342
G03 X21.791342 Y5.233339 Z-2.800000 I-0.353553 J-0.353553
G03 X21.600000 Y5.271399 Z-2.800000 I-0.191342 J-0.461940
G03 X21.408658 Y5.233339 Z-2.800000 I0.000000 J-0.500000
G03 X21.246447 Y5.124952 Z-2.800000 I0.191342 J-0.461940
G03 X21.138060 Y4.962741 Z-2.800000 I0.353553 J-0.353553
G03 X21.100000 Y4.771399 Z-2.800000 I0.461940 J-0.191342
G01 X21.100000 Y4.771399 Z-2.800000
G00 Z2.000000

(End cutting path id: circle22)


(Start cutting path id: circle22)
(Change tool to Cylindrical cutter)

G00 Z2.000000
G00 X21.100000 Y4.771399

G01 Z-3.500000 F100.0(Penetrate)
G03 X21.138060 Y4.580057 Z-3.500000 I0.500000 J0.000000 F120.000000
G03 X21.246447 Y4.417846 Z-3.500000 I0.461940 J0.191342
G03 X21.408658 Y4.309459 Z-3.500000 I0.353553 J0.353553
G03 X21.600000 Y4.271399 Z-3.500000 I0.191342 J0.461940
G03 X21.791342 Y4.309459 Z-3.500000 I-0.000000 J0.500000
G03 X21.953553 Y4.417846 Z-3.500000 I-0.191342 J0.461940
G03 X22.061940 Y4.580057 Z-3.500000 I-0.353553 J0.353553
G03 X22.100000 Y4.771399 Z-3.500000 I-0.461940 J0.191342
G03 X22.061940 Y4.962741 Z-3.500000 I-0.500000 J0.000000
G03 X21.953553 Y5.124952 Z-3.500000 I-0.461940 J-0.191342
G03 X21.791342 Y5.233339 Z-3.500000 I-0.353553 J-0.353553
G03 X21.600000 Y5.271399 Z-3.500000 I-0.191342 J-0.461940
G03 X21.408658 Y5.233339 Z-3.500000 I0.000000 J-0.500000
G03 X21.246447 Y5.124952 Z-3.500000 I0.191342 J-0.461940
G03 X21.138060 Y4.962741 Z-3.500000 I0.353553 J-0.353553
G03 X21.100000 Y4.771399 Z-3.500000 I0.461940 J-0.191342
G01 X21.100000 Y4.771399 Z-3.500000
G00 Z2.000000

(End cutting path id: circle22)


(Start cutting path id: circle22)
(Change tool to Cylindrical cutter)

G00 Z2.000000
G00 X21.100000 Y4.771399

G01 Z-4.200000 F100.0(Penetrate)
G03 X21.138060 Y4.580057 Z-4.200000 I0.500000 J0.000000 F120.000000
G03 X21.246447 Y4.417846 Z-4.200000 I0.461940 J0.191342
G03 X21.408658 Y4.309459 Z-4.200000 I0.353553 J0.353553
G03 X21.600000 Y4.271399 Z-4.200000 I0.191342 J0.461940
G03 X21.791342 Y4.309459 Z-4.200000 I-0.000000 J0.500000
G03 X21.953553 Y4.417846 Z-4.200000 I-0.191342 J0.461940
G03 X22.061940 Y4.580057 Z-4.200000 I-0.353553 J0.353553
G03 X22.100000 Y4.771399 Z-4.200000 I-0.461940 J0.191342
G03 X22.061940 Y4.962741 Z-4.200000 I-0.500000 J0.000000
G03 X21.953553 Y5.124952 Z-4.200000 I-0.461940 J-0.191342
G03 X21.791342 Y5.233339 Z-4.200000 I-0.353553 J-0.353553
G03 X21.600000 Y5.271399 Z-4.200000 I-0.191342 J-0.461940
G03 X21.408658 Y5.233339 Z-4.200000 I0.000000 J-0.500000
G03 X21.246447 Y5.124952 Z-4.200000 I0.191342 J-0.461940
G03 X21.138060 Y4.962741 Z-4.200000 I0.353553 J-0.353553
G03 X21.100000 Y4.771399 Z-4.200000 I0.461940 J-0.191342
G01 X21.100000 Y4.771399 Z-4.200000
G00 Z2.000000

(End cutting path id: circle22)


(Start cutting path id: circle22)
(Change tool to Cylindrical cutter)

G00 Z2.000000
G00 X21.100000 Y4.771399

G01 Z-4.500000 F100.0(Penetrate)
G03 X21.138060 Y4.580057 Z-4.500000 I0.500000 J0.000000 F120.000000
G03 X21.246447 Y4.417846 Z-4.500000 I0.461940 J0.191342
G03 X21.408658 Y4.309459 Z-4.500000 I0.353553 J0.353553
G03 X21.600000 Y4.271399 Z-4.500000 I0.191342 J0.461940
G03 X21.791342 Y4.309459 Z-4.500000 I-0.000000 J0.500000
G03 X21.953553 Y4.417846 Z-4.500000 I-0.191342 J0.461940
G03 X22.061940 Y4.580057 Z-4.500000 I-0.353553 J0.353553
G03 X22.100000 Y4.771399 Z-4.500000 I-0.461940 J0.191342
G03 X22.061940 Y4.962741 Z-4.500000 I-0.500000 J0.000000
G03 X21.953553 Y5.124952 Z-4.500000 I-0.461940 J-0.191342
G03 X21.791342 Y5.233339 Z-4.500000 I-0.353553 J-0.353553
G03 X21.600000 Y5.271399 Z-4.500000 I-0.191342 J-0.461940
G03 X21.408658 Y5.233339 Z-4.500000 I0.000000 J-0.500000
G03 X21.246447 Y5.124952 Z-4.500000 I0.191342 J-0.461940
G03 X21.138060 Y4.962741 Z-4.500000 I0.353553 J-0.353553
G03 X21.100000 Y4.771399 Z-4.500000 I0.461940 J-0.191342
G01 X21.100000 Y4.771399 Z-4.500000
G00 Z2.000000

(End cutting path id: circle22)


(Footer)
M5
G00 X0.0000 Y0.0000
M2
(Using default footer. To add your own footer create file "footer" in the output dir.)
(end)
%