%
(Header)
(Generated by gcodetools from Inkscape.)
(Using default header. To add your own header create file "header" in the output dir.)
M3
(Header end.)
G21 (All units in mm)

(Start cutting path id: rect27816)
(Change tool to Cylindrical cutter)

G00 Z3.000000
G00 X0.100469 Y149.999466

G01 Z-0.700000 F100.0(Penetrate)
G01 X0.100469 Y-0.000530 Z-0.700000 F120.000000
G01 X200.100470 Y-0.000530 Z-0.700000
G01 X200.100470 Y149.999466 Z-0.700000
G01 X0.100469 Y149.999466 Z-0.700000
G00 Z3.000000

(End cutting path id: rect27816)


(Start cutting path id: rect27816)
(Change tool to Cylindrical cutter)

G00 Z3.000000
G00 X0.100469 Y149.999466

G01 Z-1.400000 F100.0(Penetrate)
G01 X0.100469 Y-0.000530 Z-1.400000 F120.000000
G01 X200.100470 Y-0.000530 Z-1.400000
G01 X200.100470 Y149.999466 Z-1.400000
G01 X0.100469 Y149.999466 Z-1.400000
G00 Z3.000000

(End cutting path id: rect27816)


(Start cutting path id: rect27816)
(Change tool to Cylindrical cutter)

G00 Z3.000000
G00 X0.100469 Y149.999466

G01 Z-2.100000 F100.0(Penetrate)
G01 X0.100469 Y-0.000530 Z-2.100000 F120.000000
G01 X200.100470 Y-0.000530 Z-2.100000
G01 X200.100470 Y149.999466 Z-2.100000
G01 X0.100469 Y149.999466 Z-2.100000
G00 Z3.000000

(End cutting path id: rect27816)


(Start cutting path id: rect27816)
(Change tool to Cylindrical cutter)

G00 Z3.000000
G00 X0.100469 Y149.999466

G01 Z-2.800000 F100.0(Penetrate)
G01 X0.100469 Y-0.000530 Z-2.800000 F120.000000
G01 X200.100470 Y-0.000530 Z-2.800000
G01 X200.100470 Y149.999466 Z-2.800000
G01 X0.100469 Y149.999466 Z-2.800000
G00 Z3.000000

(End cutting path id: rect27816)


(Start cutting path id: rect27816)
(Change tool to Cylindrical cutter)

G00 Z3.000000
G00 X0.100469 Y149.999466

G01 Z-3.500000 F100.0(Penetrate)
G01 X0.100469 Y-0.000530 Z-3.500000 F120.000000
G01 X200.100470 Y-0.000530 Z-3.500000
G01 X200.100470 Y149.999466 Z-3.500000
G01 X0.100469 Y149.999466 Z-3.500000
G00 Z3.000000

(End cutting path id: rect27816)


(Start cutting path id: rect27816)
(Change tool to Cylindrical cutter)

G00 Z3.000000
G00 X0.100469 Y149.999466

G01 Z-4.200000 F100.0(Penetrate)
G01 X0.100469 Y-0.000530 Z-4.200000 F120.000000
G01 X200.100470 Y-0.000530 Z-4.200000
G01 X200.100470 Y149.999466 Z-4.200000
G01 X0.100469 Y149.999466 Z-4.200000
G00 Z3.000000

(End cutting path id: rect27816)


(Start cutting path id: rect27816)
(Change tool to Cylindrical cutter)

G00 Z3.000000
G00 X0.100469 Y149.999466

G01 Z-4.500000 F100.0(Penetrate)
G01 X0.100469 Y-0.000530 Z-4.500000 F120.000000
G01 X200.100470 Y-0.000530 Z-4.500000
G01 X200.100470 Y149.999466 Z-4.500000
G01 X0.100469 Y149.999466 Z-4.500000
G00 Z3.000000

(End cutting path id: rect27816)


(Footer)
M5
G00 X0.0000 Y0.0000
M2
(Using default footer. To add your own footer create file "footer" in the output dir.)
(end)
%