%
(Header)
(Generated by gcodetools from Inkscape.)
(Using default header. To add your own header create file "header" in the output dir.)
M3
(Header end.)
G21 (All units in mm)

(Start cutting path id: rect27820)
(Change tool to Cylindrical cutter)

G00 Z3.000000
G00 X99.100000 Y131.644800

G01 Z-0.700000 F100.0(Penetrate)
G01 X101.100000 Y131.644800 Z-0.700000 F120.000000
G01 X101.100000 Y31.644800 Z-0.700000
G01 X99.100000 Y31.644800 Z-0.700000
G01 X99.100000 Y131.644800 Z-0.700000
G00 Z3.000000

(End cutting path id: rect27820)


(Start cutting path id: rect27820)
(Change tool to Cylindrical cutter)

G00 Z3.000000
G00 X99.100000 Y131.644800

G01 Z-1.400000 F100.0(Penetrate)
G01 X101.100000 Y131.644800 Z-1.400000 F120.000000
G01 X101.100000 Y31.644800 Z-1.400000
G01 X99.100000 Y31.644800 Z-1.400000
G01 X99.100000 Y131.644800 Z-1.400000
G00 Z3.000000

(End cutting path id: rect27820)


(Start cutting path id: rect27820)
(Change tool to Cylindrical cutter)

G00 Z3.000000
G00 X99.100000 Y131.644800

G01 Z-2.100000 F100.0(Penetrate)
G01 X101.100000 Y131.644800 Z-2.100000 F120.000000
G01 X101.100000 Y31.644800 Z-2.100000
G01 X99.100000 Y31.644800 Z-2.100000
G01 X99.100000 Y131.644800 Z-2.100000
G00 Z3.000000

(End cutting path id: rect27820)


(Start cutting path id: rect27820)
(Change tool to Cylindrical cutter)

G00 Z3.000000
G00 X99.100000 Y131.644800

G01 Z-2.800000 F100.0(Penetrate)
G01 X101.100000 Y131.644800 Z-2.800000 F120.000000
G01 X101.100000 Y31.644800 Z-2.800000
G01 X99.100000 Y31.644800 Z-2.800000
G01 X99.100000 Y131.644800 Z-2.800000
G00 Z3.000000

(End cutting path id: rect27820)


(Start cutting path id: rect27820)
(Change tool to Cylindrical cutter)

G00 Z3.000000
G00 X99.100000 Y131.644800

G01 Z-3.500000 F100.0(Penetrate)
G01 X101.100000 Y131.644800 Z-3.500000 F120.000000
G01 X101.100000 Y31.644800 Z-3.500000
G01 X99.100000 Y31.644800 Z-3.500000
G01 X99.100000 Y131.644800 Z-3.500000
G00 Z3.000000

(End cutting path id: rect27820)


(Start cutting path id: rect27820)
(Change tool to Cylindrical cutter)

G00 Z3.000000
G00 X99.100000 Y131.644800

G01 Z-4.200000 F100.0(Penetrate)
G01 X101.100000 Y131.644800 Z-4.200000 F120.000000
G01 X101.100000 Y31.644800 Z-4.200000
G01 X99.100000 Y31.644800 Z-4.200000
G01 X99.100000 Y131.644800 Z-4.200000
G00 Z3.000000

(End cutting path id: rect27820)


(Start cutting path id: rect27820)
(Change tool to Cylindrical cutter)

G00 Z3.000000
G00 X99.100000 Y131.644800

G01 Z-4.500000 F100.0(Penetrate)
G01 X101.100000 Y131.644800 Z-4.500000 F120.000000
G01 X101.100000 Y31.644800 Z-4.500000
G01 X99.100000 Y31.644800 Z-4.500000
G01 X99.100000 Y131.644800 Z-4.500000
G00 Z3.000000

(End cutting path id: rect27820)


(Start cutting path id: rect27818)
(Change tool to Cylindrical cutter)

G00 Z3.000000
G00 X24.100000 Y31.644810

G01 Z-0.700000 F100.0(Penetrate)
G01 X176.100000 Y31.644810 Z-0.700000 F120.000000
G01 X176.100000 Y29.644810 Z-0.700000
G01 X24.100000 Y29.644810 Z-0.700000
G01 X24.100000 Y31.644810 Z-0.700000
G00 Z3.000000

(End cutting path id: rect27818)


(Start cutting path id: rect27818)
(Change tool to Cylindrical cutter)

G00 Z3.000000
G00 X24.100000 Y31.644810

G01 Z-1.400000 F100.0(Penetrate)
G01 X176.100000 Y31.644810 Z-1.400000 F120.000000
G01 X176.100000 Y29.644810 Z-1.400000
G01 X24.100000 Y29.644810 Z-1.400000
G01 X24.100000 Y31.644810 Z-1.400000
G00 Z3.000000

(End cutting path id: rect27818)


(Start cutting path id: rect27818)
(Change tool to Cylindrical cutter)

G00 Z3.000000
G00 X24.100000 Y31.644810

G01 Z-2.100000 F100.0(Penetrate)
G01 X176.100000 Y31.644810 Z-2.100000 F120.000000
G01 X176.100000 Y29.644810 Z-2.100000
G01 X24.100000 Y29.644810 Z-2.100000
G01 X24.100000 Y31.644810 Z-2.100000
G00 Z3.000000

(End cutting path id: rect27818)


(Start cutting path id: rect27818)
(Change tool to Cylindrical cutter)

G00 Z3.000000
G00 X24.100000 Y31.644810

G01 Z-2.800000 F100.0(Penetrate)
G01 X176.100000 Y31.644810 Z-2.800000 F120.000000
G01 X176.100000 Y29.644810 Z-2.800000
G01 X24.100000 Y29.644810 Z-2.800000
G01 X24.100000 Y31.644810 Z-2.800000
G00 Z3.000000

(End cutting path id: rect27818)


(Start cutting path id: rect27818)
(Change tool to Cylindrical cutter)

G00 Z3.000000
G00 X24.100000 Y31.644810

G01 Z-3.500000 F100.0(Penetrate)
G01 X176.100000 Y31.644810 Z-3.500000 F120.000000
G01 X176.100000 Y29.644810 Z-3.500000
G01 X24.100000 Y29.644810 Z-3.500000
G01 X24.100000 Y31.644810 Z-3.500000
G00 Z3.000000

(End cutting path id: rect27818)


(Start cutting path id: rect27818)
(Change tool to Cylindrical cutter)

G00 Z3.000000
G00 X24.100000 Y31.644810

G01 Z-4.200000 F100.0(Penetrate)
G01 X176.100000 Y31.644810 Z-4.200000 F120.000000
G01 X176.100000 Y29.644810 Z-4.200000
G01 X24.100000 Y29.644810 Z-4.200000
G01 X24.100000 Y31.644810 Z-4.200000
G00 Z3.000000

(End cutting path id: rect27818)


(Start cutting path id: rect27818)
(Change tool to Cylindrical cutter)

G00 Z3.000000
G00 X24.100000 Y31.644810

G01 Z-4.500000 F100.0(Penetrate)
G01 X176.100000 Y31.644810 Z-4.500000 F120.000000
G01 X176.100000 Y29.644810 Z-4.500000
G01 X24.100000 Y29.644810 Z-4.500000
G01 X24.100000 Y31.644810 Z-4.500000
G00 Z3.000000

(End cutting path id: rect27818)


(Footer)
M5
G00 X0.0000 Y0.0000
M2
(Using default footer. To add your own footer create file "footer" in the output dir.)
(end)
%