%
(Header)
(Generated by gcodetools from Inkscape.)
(Using default header. To add your own header create file "header" in the output dir.)
M3
(Header end.)
G21 (All units in mm)

(Start cutting path id: path58535)
(Change tool to Cylindrical cutter)

G00 Z2.000000
G00 X268.662590 Y101.924280

G01 Z-0.100000 F100.0(Penetrate)
G03 X268.845630 Y101.960613 Z-0.100000 I0.000000 J0.479235 F150.000000
G03 X269.000210 Y102.063810 Z-0.100000 I-0.181572 J0.439349
G03 X269.103691 Y102.219858 Z-0.100000 I-0.346055 J0.341817
G03 X269.139730 Y102.401430 Z-0.100000 I-0.439381 J0.181572
G03 X269.103241 Y102.586136 Z-0.100000 I-0.485730 J-0.000000
G03 X269.000210 Y102.740770 Z-0.100000 I-0.437574 J-0.179909
G03 X268.845630 Y102.843967 Z-0.100000 I-0.336151 J-0.336151
G03 X268.662590 Y102.880300 Z-0.100000 I-0.183040 J-0.442902
G03 X268.479632 Y102.843743 Z-0.100000 I0.000000 J-0.476109
G03 X268.323240 Y102.739050 Z-0.100000 I0.186160 J-0.447246
G03 X268.220043 Y102.584470 Z-0.100000 I0.336151 J-0.336151
G03 X268.183710 Y102.401430 Z-0.100000 I0.442902 J-0.183040
G03 X268.219751 Y102.219860 Z-0.100000 I0.475386 J-0.000000
G03 X268.323240 Y102.063810 Z-0.100000 I0.449533 J0.185781
G03 X268.477885 Y101.960770 Z-0.100000 I0.334580 J0.334580
G03 X268.662590 Y101.924280 Z-0.100000 I0.184705 J0.449220
G01 X268.662590 Y101.924280 Z-0.100000
G00 Z2.000000

(End cutting path id: path58535)


(Start cutting path id: path58535)
(Change tool to Cylindrical cutter)

G00 Z2.000000
G00 X268.662590 Y102.112040

G01 Z-0.100000 F100.0(Penetrate)
G02 X268.550956 Y102.133952 Z-0.100000 I0.000000 J0.295322 F150.000000
G02 X268.455880 Y102.196440 Z-0.100000 I0.111651 J0.273453
G02 X268.393396 Y102.291490 Z-0.100000 I0.210800 J0.206638
G02 X268.371480 Y102.403140 Z-0.100000 I0.273436 J0.111650
G02 X268.393368 Y102.512934 Z-0.100000 I0.286318 J-0.000000
G02 X268.455880 Y102.606410 Z-0.100000 I0.266783 J-0.110771
G02 X268.551205 Y102.670240 Z-0.100000 I0.208940 J-0.208940
G02 X268.662590 Y102.692510 Z-0.100000 I0.111385 J-0.267416
G02 X268.773760 Y102.670110 Z-0.100000 I0.000000 J-0.287066
G02 X268.867570 Y102.606410 Z-0.100000 I-0.111147 J-0.264609
G02 X268.931430 Y102.512668 Z-0.100000 I-0.202478 J-0.206556
G02 X268.953670 Y102.403140 Z-0.100000 I-0.258579 J-0.109528
G02 X268.931404 Y102.291781 Z-0.100000 I-0.289604 J-0.000000
G02 X268.867570 Y102.196440 Z-0.100000 I-0.272899 J0.113675
G02 X268.774038 Y102.134086 Z-0.100000 I-0.202644 J0.202644
G02 X268.662590 Y102.112040 Z-0.100000 I-0.111448 J0.270671
G01 X268.662590 Y102.112040 Z-0.100000
G00 Z2.000000

(End cutting path id: path58535)


(Start cutting path id: path58533)
(Change tool to Cylindrical cutter)

G00 Z2.000000
G00 X267.816810 Y99.888220

G01 Z-0.100000 F100.0(Penetrate)
G03 X268.260110 Y99.916213 Z-0.100000 I-0.000000 J3.524041 F150.000000
G03 X268.536840 Y99.979520 Z-0.100000 I-0.181068 J1.427976
G03 X268.790082 Y100.102318 Z-0.100000 I-0.365346 J1.075964
G03 X268.958870 Y100.253410 Z-0.100000 I-0.400764 J0.617528
G03 X269.065864 Y100.450592 Z-0.100000 I-0.474930 J0.385323
G03 X269.107010 Y100.711610 Z-0.100000 I-0.807333 J0.261018
G03 X269.084401 Y100.909161 Z-0.100000 I-0.874371 J0.000000
G03 X269.024310 Y101.068180 Z-0.100000 I-0.622554 J-0.144390
G03 X268.926352 Y101.205939 Z-0.100000 I-0.567501 J-0.299834
G03 X268.788320 Y101.321400 Z-0.100000 I-0.532162 J-0.495952
G03 X268.628310 Y101.406028 Z-0.100000 I-0.543455 J-0.833950
G03 X268.412810 Y101.478150 Z-0.100000 I-0.604349 J-1.447778
G03 X268.190071 Y101.517204 Z-0.100000 I-0.359430 J-1.395257
G03 X267.816800 Y101.534950 Z-0.100000 I-0.373271 J-3.916782
G03 X267.376899 Y101.507105 Z-0.100000 I-0.000000 J-3.488803
G03 X267.098490 Y101.443650 Z-0.100000 I0.184616 J-1.452477
G03 X266.847052 Y101.322294 Z-0.100000 I0.353295 J-1.053152
G03 X266.676470 Y101.169760 Z-0.100000 I0.406251 J-0.625967
G03 X266.569717 Y100.974104 Z-0.100000 I0.464302 J-0.380283
G03 X266.528330 Y100.711560 Z-0.100000 I0.812055 J-0.262544
G03 X266.600198 Y100.381028 Z-0.100000 I0.796017 J0.000000
G03 X266.790150 Y100.137950 Z-0.100000 I0.602326 J0.274927
G03 X267.133886 Y99.970058 Z-0.100000 I0.554990 J0.700442
G03 X267.816800 Y99.888180 Z-0.100000 I0.682914 J2.807038
G01 X267.816810 Y99.888220 Z-0.100000
G00 Z2.000000

(End cutting path id: path58533)


(Start cutting path id: path58533)
(Change tool to Cylindrical cutter)

G00 Z2.000000
G00 X267.816810 Y100.206890

G01 Z-0.100000 F100.0(Penetrate)
G02 X267.211506 Y100.259349 Z-0.100000 I-0.000000 J3.518418 F150.000000
G02 X266.988260 Y100.351590 Z-0.100000 I0.095675 J0.547834
G02 X266.833039 Y100.523613 Z-0.100000 I0.313475 J0.438899
G02 X266.783270 Y100.711600 Z-0.100000 I0.330149 J0.187987
G02 X266.833469 Y100.899063 Z-0.100000 I0.375128 J0.000000
G02 X266.989980 Y101.069890 Z-0.100000 I0.463100 J-0.267179
G02 X267.213560 Y101.163309 Z-0.100000 I0.320165 J-0.451996
G02 X267.816810 Y101.216310 Z-0.100000 I0.603250 J-3.406539
G02 X268.423337 Y101.163130 Z-0.100000 I0.000000 J-3.485348
G02 X268.645360 Y101.069890 Z-0.100000 I-0.094877 J-0.536882
G02 X268.800005 Y100.899113 Z-0.100000 I-0.303995 J-0.430686
G02 X268.850350 Y100.708160 Z-0.100000 I-0.336959 J-0.190953
G02 X268.803289 Y100.518967 Z-0.100000 I-0.403825 J0.000000
G02 X268.669480 Y100.367090 Z-0.100000 I-0.384576 J0.203941
G02 X268.421037 Y100.263159 Z-0.100000 I-0.367441 J0.529441
G02 X267.816810 Y100.206890 Z-0.100000 I-0.604227 J3.216020
G01 X267.816810 Y100.206890 Z-0.100000
G00 Z2.000000

(End cutting path id: path58533)


(Start cutting path id: path58530)
(Change tool to Cylindrical cutter)

G00 Z2.000000
G00 X362.042590 Y8.360280

G01 Z-0.100000 F100.0(Penetrate)
G03 X362.225632 Y8.396611 Z-0.100000 I-0.000000 J0.479268 F150.000000
G03 X362.380210 Y8.499800 Z-0.100000 I-0.181560 J0.439351
G03 X362.483691 Y8.655848 Z-0.100000 I-0.346055 J0.341817
G03 X362.519730 Y8.837420 Z-0.100000 I-0.439381 J0.181572
G03 X362.483242 Y9.022127 Z-0.100000 I-0.485745 J0.000000
G03 X362.380210 Y9.176770 Z-0.100000 I-0.437623 J-0.179924
G03 X362.225630 Y9.279967 Z-0.100000 I-0.336151 J-0.336151
G03 X362.042590 Y9.316300 Z-0.100000 I-0.183040 J-0.442902
G03 X361.859632 Y9.279743 Z-0.100000 I0.000000 J-0.476109
G03 X361.703240 Y9.175050 Z-0.100000 I0.186160 J-0.447246
G03 X361.600044 Y9.020470 Z-0.100000 I0.336142 J-0.336142
G03 X361.563710 Y8.837420 Z-0.100000 I0.442938 J-0.183050
G03 X361.599751 Y8.655850 Z-0.100000 I0.475386 J-0.000000
G03 X361.703240 Y8.499800 Z-0.100000 I0.449533 J0.185781
G03 X361.857883 Y8.396768 Z-0.100000 I0.334567 J0.334591
G03 X362.042590 Y8.360280 Z-0.100000 I0.184707 J0.449256
G01 X362.042590 Y8.360280 Z-0.100000
G00 Z2.000000

(End cutting path id: path58530)


(Start cutting path id: path58530)
(Change tool to Cylindrical cutter)

G00 Z2.000000
G00 X362.042590 Y8.548030

G01 Z-0.100000 F100.0(Penetrate)
G02 X361.930956 Y8.569942 Z-0.100000 I0.000000 J0.295322 F150.000000
G02 X361.835880 Y8.632430 Z-0.100000 I0.111651 J0.273453
G02 X361.773397 Y8.727481 Z-0.100000 I0.210791 J0.206629
G02 X361.751480 Y8.839140 Z-0.100000 I0.273473 J0.111659
G02 X361.773367 Y8.948925 Z-0.100000 I0.286281 J-0.000000
G02 X361.835880 Y9.042400 Z-0.100000 I0.266793 J-0.110781
G02 X361.931205 Y9.106230 Z-0.100000 I0.208940 J-0.208940
G02 X362.042590 Y9.128500 Z-0.100000 I0.111385 J-0.267416
G02 X362.153760 Y9.106100 Z-0.100000 I0.000000 J-0.287066
G02 X362.247570 Y9.042400 Z-0.100000 I-0.111147 J-0.264609
G02 X362.311431 Y8.948658 Z-0.100000 I-0.202487 J-0.206566
G02 X362.333670 Y8.839140 Z-0.100000 I-0.258544 J-0.109518
G02 X362.311405 Y8.727780 Z-0.100000 I-0.289619 J-0.000000
G02 X362.247570 Y8.632430 Z-0.100000 I-0.272948 J0.113690
G02 X362.154038 Y8.570076 Z-0.100000 I-0.202644 J0.202644
G02 X362.042590 Y8.548030 Z-0.100000 I-0.111448 J0.270671
G01 X362.042590 Y8.548030 Z-0.100000
G00 Z2.000000

(End cutting path id: path58530)


(Start cutting path id: path58528)
(Change tool to Cylindrical cutter)

G00 Z2.000000
G00 X361.196810 Y6.324210

G01 Z-0.100000 F100.0(Penetrate)
G03 X361.640110 Y6.352203 Z-0.100000 I-0.000000 J3.524041 F150.000000
G03 X361.916840 Y6.415510 Z-0.100000 I-0.181068 J1.427976
G03 X362.170084 Y6.538306 Z-0.100000 I-0.365372 J1.076039
G03 X362.338870 Y6.689390 Z-0.100000 I-0.400755 J0.617536
G03 X362.445865 Y6.886581 Z-0.100000 I-0.474993 J0.385353
G03 X362.487010 Y7.147590 Z-0.100000 I-0.807306 J0.261009
G03 X362.464400 Y7.345150 Z-0.100000 I-0.874412 J0.000000
G03 X362.404310 Y7.504160 Z-0.100000 I-0.622457 J-0.144368
G03 X362.306352 Y7.641919 Z-0.100000 I-0.567501 J-0.299834
G03 X362.168320 Y7.757380 Z-0.100000 I-0.532162 J-0.495952
G03 X362.008310 Y7.842008 Z-0.100000 I-0.543455 J-0.833950
G03 X361.792810 Y7.914130 Z-0.100000 I-0.604349 J-1.447778
G03 X361.570071 Y7.953184 Z-0.100000 I-0.359430 J-1.395257
G03 X361.196800 Y7.970930 Z-0.100000 I-0.373271 J-3.916782
G03 X360.756899 Y7.943085 Z-0.100000 I-0.000000 J-3.488803
G03 X360.478490 Y7.879630 Z-0.100000 I0.184616 J-1.452477
G03 X360.227050 Y7.758276 Z-0.100000 I0.353319 J-1.053224
G03 X360.056470 Y7.605750 Z-0.100000 I0.406242 J-0.625976
G03 X359.949717 Y7.410094 Z-0.100000 I0.464294 J-0.380276
G03 X359.908330 Y7.147540 Z-0.100000 I0.812103 J-0.262554
G03 X359.980198 Y6.817008 Z-0.100000 I0.796017 J0.000000
G03 X360.170150 Y6.573930 Z-0.100000 I0.602326 J0.274927
G03 X360.513886 Y6.406038 Z-0.100000 I0.554990 J0.700442
G03 X361.196800 Y6.324160 Z-0.100000 I0.682914 J2.807038
G01 X361.196810 Y6.324210 Z-0.100000
G00 Z2.000000

(End cutting path id: path58528)


(Start cutting path id: path58528)
(Change tool to Cylindrical cutter)

G00 Z2.000000
G00 X361.196810 Y6.642890

G01 Z-0.100000 F100.0(Penetrate)
G02 X360.591504 Y6.695345 Z-0.100000 I-0.000000 J3.518665 F150.000000
G02 X360.368260 Y6.787580 Z-0.100000 I0.095671 J0.547851
G02 X360.213037 Y6.959611 Z-0.100000 I0.313522 J0.438935
G02 X360.163270 Y7.147590 Z-0.100000 I0.330135 J0.187979
G02 X360.213468 Y7.335054 Z-0.100000 I0.375139 J0.000000
G02 X360.369980 Y7.505890 Z-0.100000 I0.463138 J-0.267193
G02 X360.593558 Y7.599302 Z-0.100000 I0.320159 J-0.452019
G02 X361.196810 Y7.652300 Z-0.100000 I0.603252 J-3.406783
G02 X361.803339 Y7.599123 Z-0.100000 I0.000000 J-3.485590
G02 X362.025360 Y7.505890 Z-0.100000 I-0.094873 J-0.536898
G02 X362.180006 Y7.335104 Z-0.100000 I-0.304032 J-0.430709
G02 X362.230350 Y7.144150 Z-0.100000 I-0.336971 J-0.190954
G02 X362.183289 Y6.954957 Z-0.100000 I-0.403825 J-0.000000
G02 X362.049480 Y6.803080 Z-0.100000 I-0.384576 J0.203941
G02 X361.801039 Y6.699156 Z-0.100000 I-0.367435 J0.529465
G02 X361.196810 Y6.642890 Z-0.100000 I-0.604229 J3.216231
G01 X361.196810 Y6.642890 Z-0.100000
G00 Z2.000000

(End cutting path id: path58528)


(Start cutting path id: path58526)
(Change tool to Cylindrical cutter)

G00 Z2.000000
G00 X360.535350 Y4.408730

G01 Z-0.100000 F100.0(Penetrate)
G01 X360.562950 Y4.706730 Z-0.100000 F150.000000
G02 X360.366882 Y4.769701 Z-0.100000 I0.138502 J0.767976
G02 X360.258060 Y4.851420 Z-0.100000 I0.146112 J0.307887
G02 X360.189672 Y4.968251 Z-0.100000 I0.259461 J0.230308
G02 X360.163260 Y5.125310 Z-0.100000 I0.453764 J0.157059
G02 X360.181047 Y5.263260 Z-0.100000 I0.543830 J0.000000
G02 X360.228760 Y5.375080 Z-0.100000 I0.401880 J-0.105390
G02 X360.304845 Y5.473254 Z-0.100000 I0.458326 J-0.276635
G02 X360.402740 Y5.552510 Z-0.100000 I0.393087 J-0.385443
G02 X360.517740 Y5.610208 Z-0.100000 I0.364895 J-0.583832
G02 X360.699020 Y5.667920 Z-0.100000 I0.546364 J-1.402623
G02 X360.886501 Y5.702716 Z-0.100000 I0.376662 J-1.506972
G02 X361.077980 Y5.714420 Z-0.100000 I0.191479 J-1.560496
G02 X361.098672 Y5.714086 Z-0.100000 I0.000000 J-0.641783
G02 X361.139980 Y5.712420 Z-0.100000 I-0.082578 J-2.559905
G03 X361.007831 Y5.604044 Z-0.100000 I0.360739 J-0.574623
G03 X360.898820 Y5.457480 Z-0.100000 I0.563014 J-0.532582
G03 X360.830943 Y5.291084 Z-0.100000 I0.598941 J-0.341365
G03 X360.807520 Y5.109530 Z-0.100000 I0.691913 J-0.181554
G03 X360.866675 Y4.821333 Z-0.100000 I0.731611 J-0.000000
G03 X361.034900 Y4.578980 Z-0.100000 I0.676166 J0.289787
G03 X361.286718 Y4.422935 Z-0.100000 I0.496735 J0.520400
G03 X361.634350 Y4.361940 Z-0.100000 I0.347632 J0.960137
G03 X361.992922 Y4.425316 Z-0.100000 I0.000000 J1.046052
G03 X362.252750 Y4.587590 Z-0.100000 I-0.253786 J0.695509
G03 X362.424712 Y4.841325 Z-0.100000 I-0.525096 J0.541007
G03 X362.487020 Y5.156040 Z-0.100000 I-0.763647 J0.314715
G03 X362.452907 Y5.392214 Z-0.100000 I-0.834619 J0.000000
G03 X362.354380 Y5.605620 Z-0.100000 I-0.776716 J-0.229155
G03 X362.197158 Y5.781417 Z-0.100000 I-0.639779 J-0.413973
G03 X361.975420 Y5.915690 Z-0.100000 I-0.582965 J-0.712486
G03 X361.723657 Y5.988219 Z-0.100000 I-0.400829 J-0.918126
G03 X361.265720 Y6.022480 Z-0.100000 I-0.457937 J-3.043339
G03 X360.787414 Y5.990068 Z-0.100000 I0.000000 J-3.545391
G03 X360.494020 Y5.917410 Z-0.100000 I0.190133 J-1.396455
G03 X360.233341 Y5.779074 Z-0.100000 I0.376142 J-1.023581
G03 X360.058210 Y5.603900 Z-0.100000 I0.448651 J-0.623670
G03 X359.948457 Y5.384191 Z-0.100000 I0.608800 J-0.441387
G03 X359.908350 Y5.118140 Z-0.100000 I0.862384 J-0.266051
G03 X359.954249 Y4.839055 Z-0.100000 I0.871422 J-0.000000
G03 X360.071990 Y4.634100 Z-0.100000 I0.576549 J0.194915
G03 X360.260694 Y4.490360 Z-0.100000 I0.452973 J0.398933
G03 X360.535360 Y4.408450 Z-0.100000 I0.385810 J0.792257
G01 X360.535350 Y4.408730 Z-0.100000
G00 Z2.000000

(End cutting path id: path58526)


(Start cutting path id: path58526)
(Change tool to Cylindrical cutter)

G00 Z2.000000
G00 X361.649840 Y5.678250

G01 Z-0.100000 F100.0(Penetrate)
G02 X361.900870 Y5.637043 Z-0.100000 I-0.000000 J-0.785238 F150.000000
G02 X362.073590 Y5.535280 Z-0.100000 I-0.155891 J-0.462047
G02 X362.190508 Y5.376300 Z-0.100000 I-0.327160 J-0.363084
G02 X362.230350 Y5.194210 Z-0.100000 I-0.396181 J-0.182090
G02 X362.188427 Y5.006068 Z-0.100000 I-0.443136 J0.000000
G02 X362.061530 Y4.834200 Z-0.100000 I-0.492860 J0.231118
G02 X361.876148 Y4.723788 Z-0.100000 I-0.364832 J0.401717
G02 X361.624000 Y4.680890 Z-0.100000 I-0.252148 J0.719602
G02 X361.398933 Y4.721032 Z-0.100000 I-0.000000 J0.651011
G02 X361.231260 Y4.825590 Z-0.100000 I0.168141 J0.456362
G02 X361.120770 Y4.988577 Z-0.100000 I0.344115 J0.352223
G02 X361.081400 Y5.185600 Z-0.100000 I0.473311 J0.197023
G02 X361.121608 Y5.383271 Z-0.100000 I0.505999 J-0.000000
G02 X361.231260 Y5.538730 Z-0.100000 I0.414289 J-0.175814
G02 X361.398746 Y5.637505 Z-0.100000 I0.314197 J-0.341379
G02 X361.649840 Y5.678250 Z-0.100000 I0.251094 J-0.753317
G01 X361.649840 Y5.678250 Z-0.100000
G00 Z2.000000

(End cutting path id: path58526)


(Start cutting path id: path58523)
(Change tool to Cylindrical cutter)

G00 Z2.000000
G00 X344.403590 Y37.464280

G01 Z-0.100000 F100.0(Penetrate)
G03 X344.586632 Y37.500611 Z-0.100000 I0.000000 J0.479268 F150.000000
G03 X344.741210 Y37.603800 Z-0.100000 I-0.181560 J0.439351
G03 X344.844691 Y37.759848 Z-0.100000 I-0.346055 J0.341817
G03 X344.880730 Y37.941420 Z-0.100000 I-0.439381 J0.181572
G03 X344.844242 Y38.126127 Z-0.100000 I-0.485745 J0.000000
G03 X344.741210 Y38.280770 Z-0.100000 I-0.437623 J-0.179924
G03 X344.586630 Y38.383967 Z-0.100000 I-0.336151 J-0.336151
G03 X344.403590 Y38.420300 Z-0.100000 I-0.183040 J-0.442902
G03 X344.220632 Y38.383743 Z-0.100000 I-0.000000 J-0.476109
G03 X344.064240 Y38.279050 Z-0.100000 I0.186160 J-0.447246
G03 X343.961044 Y38.124470 Z-0.100000 I0.336142 J-0.336142
G03 X343.924710 Y37.941420 Z-0.100000 I0.442938 J-0.183050
G03 X343.960751 Y37.759850 Z-0.100000 I0.475386 J-0.000000
G03 X344.064240 Y37.603800 Z-0.100000 I0.449533 J0.185781
G03 X344.218883 Y37.500768 Z-0.100000 I0.334567 J0.334591
G03 X344.403590 Y37.464280 Z-0.100000 I0.184707 J0.449256
G01 X344.403590 Y37.464280 Z-0.100000
G00 Z2.000000

(End cutting path id: path58523)


(Start cutting path id: path58523)
(Change tool to Cylindrical cutter)

G00 Z2.000000
G00 X344.403590 Y37.652030

G01 Z-0.100000 F100.0(Penetrate)
G02 X344.291956 Y37.673942 Z-0.100000 I0.000000 J0.295322 F150.000000
G02 X344.196880 Y37.736430 Z-0.100000 I0.111651 J0.273453
G02 X344.134397 Y37.831481 Z-0.100000 I0.210791 J0.206629
G02 X344.112480 Y37.943140 Z-0.100000 I0.273473 J0.111659
G02 X344.134367 Y38.052925 Z-0.100000 I0.286281 J-0.000000
G02 X344.196880 Y38.146400 Z-0.100000 I0.266793 J-0.110781
G02 X344.292205 Y38.210230 Z-0.100000 I0.208940 J-0.208940
G02 X344.403590 Y38.232500 Z-0.100000 I0.111385 J-0.267416
G02 X344.514760 Y38.210100 Z-0.100000 I-0.000000 J-0.287066
G02 X344.608570 Y38.146400 Z-0.100000 I-0.111147 J-0.264609
G02 X344.672431 Y38.052658 Z-0.100000 I-0.202487 J-0.206566
G02 X344.694670 Y37.943140 Z-0.100000 I-0.258544 J-0.109518
G02 X344.672405 Y37.831780 Z-0.100000 I-0.289619 J-0.000000
G02 X344.608570 Y37.736430 Z-0.100000 I-0.272948 J0.113690
G02 X344.515038 Y37.674076 Z-0.100000 I-0.202644 J0.202644
G02 X344.403590 Y37.652030 Z-0.100000 I-0.111448 J0.270671
G01 X344.403590 Y37.652030 Z-0.100000
G00 Z2.000000

(End cutting path id: path58523)


(Start cutting path id: path58521)
(Change tool to Cylindrical cutter)

G00 Z2.000000
G00 X342.973860 Y35.428210

G01 Z-0.100000 F100.0(Penetrate)
G01 X343.001460 Y35.753780 Z-0.100000 F150.000000
G02 X342.780105 Y35.820737 Z-0.100000 I0.122482 J0.804288
G02 X342.643170 Y35.920860 Z-0.100000 I0.185004 J0.396726
G02 X342.555708 Y36.065510 Z-0.100000 I0.338864 J0.303659
G02 X342.524310 Y36.239540 Z-0.100000 I0.466599 J0.174030
G02 X342.567863 Y36.444334 Z-0.100000 I0.503266 J-0.000000
G02 X342.693130 Y36.618500 Z-0.100000 I0.482658 J-0.215016
G02 X342.879097 Y36.729484 Z-0.100000 I0.360125 J-0.392135
G02 X343.140990 Y36.773530 Z-0.100000 I0.261893 J-0.756573
G02 X343.388730 Y36.730519 Z-0.100000 I0.000000 J-0.734984
G02 X343.559570 Y36.623670 Z-0.100000 I-0.159098 J-0.444382
G02 X343.670517 Y36.457556 Z-0.100000 I-0.327265 J-0.338686
G02 X343.712880 Y36.234370 Z-0.100000 I-0.566735 J-0.223186
G02 X343.694696 Y36.089339 Z-0.100000 I-0.587447 J0.000000
G02 X343.643980 Y35.963930 Z-0.100000 I-0.487590 J0.124223
G02 X343.564702 Y35.854754 Z-0.100000 I-0.493793 J0.275194
G02 X343.468280 Y35.774450 Z-0.100000 I-0.358541 J0.332466
G01 X343.506180 Y35.483330 Z-0.100000
G01 X344.803270 Y35.727940 Z-0.100000
G01 X344.803270 Y36.983680 Z-0.100000
G01 X344.506990 Y36.983680 Z-0.100000
G01 X344.506990 Y35.975990 Z-0.100000
G01 X343.828300 Y35.839900 Z-0.100000
G03 X343.948339 Y36.079355 Z-0.100000 I-0.765598 J0.533609
G03 X343.986780 Y36.317050 Z-0.100000 I-0.715650 J0.237695
G03 X343.926492 Y36.622675 Z-0.100000 I-0.804820 J-0.000000
G03 X343.757680 Y36.875160 Z-0.100000 I-0.707745 J-0.290524
G03 X343.502918 Y37.040254 Z-0.100000 I-0.521151 J-0.525093
G03 X343.168560 Y37.102540 Z-0.100000 I-0.334358 J-0.866289
G03 X342.844425 Y37.049360 Z-0.100000 I-0.000000 J-1.014393
G03 X342.576000 Y36.902720 Z-0.100000 I0.281064 J-0.833487
G03 X342.352958 Y36.619428 Z-0.100000 I0.482979 J-0.609709
G03 X342.269390 Y36.239540 Z-0.100000 I0.821676 J-0.379888
G03 X342.323355 Y35.915425 Z-0.100000 I1.000301 J0.000000
G03 X342.462310 Y35.676260 Z-0.100000 I0.670631 J0.229687
G03 X342.681334 Y35.510517 Z-0.100000 I0.526152 J0.467704
G03 X342.973910 Y35.428210 Z-0.100000 I0.376062 J0.775623
G01 X342.973860 Y35.428210 Z-0.100000
G00 Z2.000000

(End cutting path id: path58521)


(Start cutting path id: path58519)
(Change tool to Cylindrical cutter)

G00 Z2.000000
G00 X344.506940 Y33.486890

G01 Z-0.100000 F100.0(Penetrate)
G01 X344.804940 Y33.486890 Z-0.100000 F150.000000
G01 X344.804940 Y35.121600 Z-0.100000
G01 X344.563780 Y35.121600 Z-0.100000
G02 X344.292324 Y34.900654 Z-0.100000 I-1.686980 J1.795407
G02 X343.881650 Y34.642730 Z-0.100000 I-2.717411 J3.870837
G02 X343.445817 Y34.431718 Z-0.100000 I-2.115731 J3.814323
G02 X343.006590 Y34.277540 Z-0.100000 I-1.552480 J3.720017
G02 X342.686270 Y34.203388 Z-0.100000 I-0.799524 J2.724831
G02 X342.312400 Y34.158690 Z-0.100000 I-0.628475 J3.670853
G01 X342.312400 Y33.840010 Z-0.100000
G03 X342.607432 Y33.866345 Z-0.100000 I-0.034419 J2.051386
G03 X343.032430 Y33.957150 Z-0.100000 I-0.709199 J4.359267
G03 X343.445181 Y34.092716 Z-0.100000 I-0.960396 J3.620186
G03 X343.845480 Y34.277540 Z-0.100000 I-1.414308 J3.589072
G03 X344.225250 Y34.506406 Z-0.100000 I-2.050204 J3.831535
G03 X344.506940 Y34.723690 Z-0.100000 I-1.564256 J2.319159
G01 X344.506940 Y33.486890 Z-0.100000
G00 Z2.000000

(End cutting path id: path58519)


(Start cutting path id: path58516)
(Change tool to Cylindrical cutter)

G00 Z2.000000
G00 X327.646590 Y44.344280

G01 Z-0.100000 F100.0(Penetrate)
G03 X327.829632 Y44.380611 Z-0.100000 I-0.000000 J0.479268 F150.000000
G03 X327.984210 Y44.483800 Z-0.100000 I-0.181560 J0.439351
G03 X328.087691 Y44.639848 Z-0.100000 I-0.346055 J0.341817
G03 X328.123730 Y44.821420 Z-0.100000 I-0.439381 J0.181572
G03 X328.087242 Y45.006127 Z-0.100000 I-0.485745 J0.000000
G03 X327.984210 Y45.160770 Z-0.100000 I-0.437623 J-0.179924
G03 X327.829630 Y45.263967 Z-0.100000 I-0.336151 J-0.336151
G03 X327.646590 Y45.300300 Z-0.100000 I-0.183040 J-0.442902
G03 X327.463632 Y45.263743 Z-0.100000 I-0.000000 J-0.476109
G03 X327.307240 Y45.159050 Z-0.100000 I0.186160 J-0.447246
G03 X327.204044 Y45.004470 Z-0.100000 I0.336142 J-0.336142
G03 X327.167710 Y44.821420 Z-0.100000 I0.442938 J-0.183050
G03 X327.203751 Y44.639850 Z-0.100000 I0.475386 J-0.000000
G03 X327.307240 Y44.483800 Z-0.100000 I0.449533 J0.185781
G03 X327.461883 Y44.380768 Z-0.100000 I0.334567 J0.334591
G03 X327.646590 Y44.344280 Z-0.100000 I0.184707 J0.449256
G01 X327.646590 Y44.344280 Z-0.100000
G00 Z2.000000

(End cutting path id: path58516)


(Start cutting path id: path58516)
(Change tool to Cylindrical cutter)

G00 Z2.000000
G00 X327.646590 Y44.532030

G01 Z-0.100000 F100.0(Penetrate)
G02 X327.534956 Y44.553942 Z-0.100000 I0.000000 J0.295322 F150.000000
G02 X327.439880 Y44.616430 Z-0.100000 I0.111651 J0.273453
G02 X327.377397 Y44.711481 Z-0.100000 I0.210791 J0.206629
G02 X327.355480 Y44.823140 Z-0.100000 I0.273473 J0.111659
G02 X327.377367 Y44.932925 Z-0.100000 I0.286281 J0.000000
G02 X327.439880 Y45.026400 Z-0.100000 I0.266793 J-0.110781
G02 X327.535205 Y45.090230 Z-0.100000 I0.208940 J-0.208940
G02 X327.646590 Y45.112500 Z-0.100000 I0.111385 J-0.267416
G02 X327.757760 Y45.090100 Z-0.100000 I0.000000 J-0.287066
G02 X327.851570 Y45.026400 Z-0.100000 I-0.111147 J-0.264609
G02 X327.915431 Y44.932658 Z-0.100000 I-0.202487 J-0.206566
G02 X327.937670 Y44.823140 Z-0.100000 I-0.258544 J-0.109518
G02 X327.915405 Y44.711780 Z-0.100000 I-0.289619 J-0.000000
G02 X327.851570 Y44.616430 Z-0.100000 I-0.272948 J0.113690
G02 X327.758038 Y44.554076 Z-0.100000 I-0.202644 J0.202644
G02 X327.646590 Y44.532030 Z-0.100000 I-0.111448 J0.270671
G01 X327.646590 Y44.532030 Z-0.100000
G00 Z2.000000

(End cutting path id: path58516)


(Start cutting path id: path58514)
(Change tool to Cylindrical cutter)

G00 Z2.000000
G00 X326.800810 Y42.308210

G01 Z-0.100000 F100.0(Penetrate)
G03 X327.244110 Y42.336203 Z-0.100000 I-0.000000 J3.524041 F150.000000
G03 X327.520840 Y42.399510 Z-0.100000 I-0.181068 J1.427976
G03 X327.774084 Y42.522306 Z-0.100000 I-0.365372 J1.076039
G03 X327.942870 Y42.673390 Z-0.100000 I-0.400755 J0.617536
G03 X328.049865 Y42.870581 Z-0.100000 I-0.474993 J0.385353
G03 X328.091010 Y43.131590 Z-0.100000 I-0.807306 J0.261009
G03 X328.068400 Y43.329150 Z-0.100000 I-0.874412 J0.000000
G03 X328.008310 Y43.488160 Z-0.100000 I-0.622457 J-0.144368
G03 X327.910352 Y43.625919 Z-0.100000 I-0.567501 J-0.299834
G03 X327.772320 Y43.741380 Z-0.100000 I-0.532162 J-0.495952
G03 X327.612310 Y43.826008 Z-0.100000 I-0.543455 J-0.833950
G03 X327.396810 Y43.898130 Z-0.100000 I-0.604349 J-1.447778
G03 X327.174071 Y43.937184 Z-0.100000 I-0.359430 J-1.395257
G03 X326.800800 Y43.954930 Z-0.100000 I-0.373271 J-3.916782
G03 X326.360899 Y43.927085 Z-0.100000 I-0.000000 J-3.488803
G03 X326.082490 Y43.863630 Z-0.100000 I0.184616 J-1.452477
G03 X325.831050 Y43.742276 Z-0.100000 I0.353319 J-1.053224
G03 X325.660470 Y43.589750 Z-0.100000 I0.406242 J-0.625976
G03 X325.553717 Y43.394094 Z-0.100000 I0.464294 J-0.380276
G03 X325.512330 Y43.131540 Z-0.100000 I0.812103 J-0.262554
G03 X325.584198 Y42.801008 Z-0.100000 I0.796017 J0.000000
G03 X325.774150 Y42.557930 Z-0.100000 I0.602326 J0.274927
G03 X326.117886 Y42.390038 Z-0.100000 I0.554990 J0.700442
G03 X326.800800 Y42.308160 Z-0.100000 I0.682914 J2.807038
G01 X326.800810 Y42.308210 Z-0.100000
G00 Z2.000000

(End cutting path id: path58514)


(Start cutting path id: path58514)
(Change tool to Cylindrical cutter)

G00 Z2.000000
G00 X326.800810 Y42.626890

G01 Z-0.100000 F100.0(Penetrate)
G02 X326.195504 Y42.679345 Z-0.100000 I-0.000000 J3.518665 F150.000000
G02 X325.972260 Y42.771580 Z-0.100000 I0.095671 J0.547851
G02 X325.817037 Y42.943611 Z-0.100000 I0.313522 J0.438935
G02 X325.767270 Y43.131590 Z-0.100000 I0.330135 J0.187979
G02 X325.817468 Y43.319054 Z-0.100000 I0.375139 J-0.000000
G02 X325.973980 Y43.489890 Z-0.100000 I0.463138 J-0.267193
G02 X326.197558 Y43.583302 Z-0.100000 I0.320159 J-0.452019
G02 X326.800810 Y43.636300 Z-0.100000 I0.603252 J-3.406783
G02 X327.407339 Y43.583123 Z-0.100000 I0.000000 J-3.485590
G02 X327.629360 Y43.489890 Z-0.100000 I-0.094873 J-0.536898
G02 X327.784006 Y43.319104 Z-0.100000 I-0.304032 J-0.430709
G02 X327.834350 Y43.128150 Z-0.100000 I-0.336971 J-0.190954
G02 X327.787289 Y42.938957 Z-0.100000 I-0.403825 J0.000000
G02 X327.653480 Y42.787080 Z-0.100000 I-0.384576 J0.203941
G02 X327.405039 Y42.683156 Z-0.100000 I-0.367435 J0.529465
G02 X326.800810 Y42.626890 Z-0.100000 I-0.604229 J3.216231
G01 X326.800810 Y42.626890 Z-0.100000
G00 Z2.000000

(End cutting path id: path58514)


(Start cutting path id: path58512)
(Change tool to Cylindrical cutter)

G00 Z2.000000
G00 X327.462270 Y41.955090

G01 Z-0.100000 F100.0(Penetrate)
G01 X327.438170 Y41.646750 Z-0.100000 F150.000000
G02 X327.612265 Y41.589226 Z-0.100000 I-0.209527 J-0.926332
G02 X327.703440 Y41.529620 Z-0.100000 I-0.135401 J-0.306648
G02 X327.801369 Y41.388947 Z-0.100000 I-0.291163 J-0.307117
G02 X327.836080 Y41.219550 Z-0.100000 I-0.395997 J-0.169397
G02 X327.814213 Y41.078610 Z-0.100000 I-0.465136 J-0.000000
G02 X327.753380 Y40.959450 Z-0.100000 I-0.390051 J0.124018
G02 X327.629550 Y40.834733 Z-0.100000 I-0.469868 J0.342693
G02 X327.441600 Y40.728630 Z-0.100000 I-0.521867 J0.704912
G02 X327.231311 Y40.670431 Z-0.100000 I-0.345275 J0.838560
G02 X326.857650 Y40.640730 Z-0.100000 I-0.398378 J2.646562
G03 X327.009558 Y40.769397 Z-0.100000 I-0.449533 J0.684739
G03 X327.110870 Y40.914610 Z-0.100000 I-0.475778 J0.439888
G03 X327.172860 Y41.081513 Z-0.100000 I-0.681570 J0.348109
G03 X327.193570 Y41.253960 Z-0.100000 I-0.707618 J0.172447
G03 X327.134393 Y41.538566 Z-0.100000 I-0.713982 J0.000000
G03 X326.964470 Y41.781060 Z-0.100000 I-0.679406 J-0.295299
G03 X326.712678 Y41.939212 Z-0.100000 I-0.505697 J-0.525600
G03 X326.375360 Y41.999820 Z-0.100000 I-0.337318 J-0.908380
G03 X326.143978 Y41.973170 Z-0.100000 I-0.000000 J-1.017774
G03 X325.932660 Y41.896470 Z-0.100000 I0.215560 J-0.923353
G03 X325.750319 Y41.772154 Z-0.100000 I0.367346 J-0.734692
G03 X325.620880 Y41.615690 Z-0.100000 I0.465409 J-0.516793
G03 X325.541133 Y41.428515 Z-0.100000 I0.615238 J-0.372701
G03 X325.512360 Y41.209170 Z-0.100000 I0.821673 J-0.219345
G03 X325.588034 Y40.856304 Z-0.100000 I0.860541 J0.000000
G03 X325.796580 Y40.576990 Z-0.100000 I0.732238 J0.329205
G03 X326.112050 Y40.412338 Z-0.100000 I0.514802 J0.601810
G03 X326.737100 Y40.332390 Z-0.100000 I0.625050 J2.403402
G03 X327.438035 Y40.420032 Z-0.100000 I-0.000000 J2.846752
G03 X327.801640 Y40.602830 Z-0.100000 I-0.232652 J0.915794
G03 X328.012434 Y40.876143 Z-0.100000 I-0.478973 J0.587356
G03 X328.091030 Y41.238450 Z-0.100000 I-0.795776 J0.362307
G03 X328.044317 Y41.518805 Z-0.100000 I-0.864658 J-0.000000
G03 X327.923940 Y41.725940 Z-0.100000 I-0.581153 J-0.199194
G03 X327.733243 Y41.872911 Z-0.100000 I-0.465524 J-0.406823
G03 X327.462290 Y41.955040 Z-0.100000 I-0.380058 J-0.765840
G01 X327.462270 Y41.955090 Z-0.100000
G00 Z2.000000

(End cutting path id: path58512)


(Start cutting path id: path58512)
(Change tool to Cylindrical cutter)

G00 Z2.000000
G00 X326.373620 Y40.689010

G01 Z-0.100000 F100.0(Penetrate)
G02 X326.217123 Y40.705958 Z-0.100000 I0.000000 J0.731010 F150.000000
G02 X326.067000 Y40.756210 Z-0.100000 I0.158290 J0.722244
G02 X325.934984 Y40.841438 Z-0.100000 I0.251427 J0.534310
G02 X325.843070 Y40.947410 Z-0.100000 I0.305583 J0.357893
G02 X325.785928 Y41.075023 Z-0.100000 I0.445328 J0.276009
G02 X325.767270 Y41.204070 Z-0.100000 I0.436955 J0.129047
G02 X325.807085 Y41.382592 Z-0.100000 I0.420132 J-0.000000
G02 X325.925750 Y41.541690 Z-0.100000 I0.447819 J-0.210208
G02 X326.099849 Y41.641942 Z-0.100000 I0.327508 J-0.367458
G02 X326.356390 Y41.682940 Z-0.100000 I0.256541 J-0.782137
G02 X326.602273 Y41.642408 Z-0.100000 I-0.000000 J-0.766074
G02 X326.768080 Y41.543420 Z-0.100000 I-0.147648 J-0.435673
G02 X326.879553 Y41.386291 Z-0.100000 I-0.313279 J-0.340356
G02 X326.919670 Y41.192010 Z-0.100000 I-0.450375 J-0.194281
G02 X326.880261 Y40.998586 Z-0.100000 I-0.494382 J0.000000
G02 X326.768080 Y40.835440 Z-0.100000 I-0.457717 J0.194591
G02 X326.601543 Y40.729964 Z-0.100000 I-0.331704 J0.339521
G02 X326.373620 Y40.689030 Z-0.100000 I-0.227923 J0.614074
G01 X326.373620 Y40.689010 Z-0.100000
G00 Z2.000000

(End cutting path id: path58512)


(Start cutting path id: path58509)
(Change tool to Cylindrical cutter)

G00 Z2.000000
G00 X313.359590 Y55.280280

G01 Z-0.100000 F100.0(Penetrate)
G03 X313.542632 Y55.316611 Z-0.100000 I-0.000000 J0.479268 F150.000000
G03 X313.697210 Y55.419800 Z-0.100000 I-0.181560 J0.439351
G03 X313.800691 Y55.575848 Z-0.100000 I-0.346055 J0.341817
G03 X313.836730 Y55.757420 Z-0.100000 I-0.439381 J0.181572
G03 X313.800242 Y55.942127 Z-0.100000 I-0.485745 J0.000000
G03 X313.697210 Y56.096770 Z-0.100000 I-0.437623 J-0.179924
G03 X313.542630 Y56.199967 Z-0.100000 I-0.336151 J-0.336151
G03 X313.359590 Y56.236300 Z-0.100000 I-0.183040 J-0.442902
G03 X313.176632 Y56.199743 Z-0.100000 I-0.000000 J-0.476109
G03 X313.020240 Y56.095050 Z-0.100000 I0.186160 J-0.447246
G03 X312.917044 Y55.940470 Z-0.100000 I0.336142 J-0.336142
G03 X312.880710 Y55.757420 Z-0.100000 I0.442938 J-0.183050
G03 X312.916751 Y55.575850 Z-0.100000 I0.475386 J-0.000000
G03 X313.020240 Y55.419800 Z-0.100000 I0.449533 J0.185781
G03 X313.174883 Y55.316768 Z-0.100000 I0.334567 J0.334591
G03 X313.359590 Y55.280280 Z-0.100000 I0.184707 J0.449256
G01 X313.359590 Y55.280280 Z-0.100000
G00 Z2.000000

(End cutting path id: path58509)


(Start cutting path id: path58509)
(Change tool to Cylindrical cutter)

G00 Z2.000000
G00 X313.359590 Y55.468030

G01 Z-0.100000 F100.0(Penetrate)
G02 X313.247956 Y55.489942 Z-0.100000 I0.000000 J0.295322 F150.000000
G02 X313.152880 Y55.552430 Z-0.100000 I0.111651 J0.273453
G02 X313.090397 Y55.647481 Z-0.100000 I0.210791 J0.206629
G02 X313.068480 Y55.759140 Z-0.100000 I0.273473 J0.111659
G02 X313.090367 Y55.868925 Z-0.100000 I0.286281 J0.000000
G02 X313.152880 Y55.962400 Z-0.100000 I0.266793 J-0.110781
G02 X313.248205 Y56.026230 Z-0.100000 I0.208940 J-0.208940
G02 X313.359590 Y56.048500 Z-0.100000 I0.111385 J-0.267416
G02 X313.470760 Y56.026100 Z-0.100000 I0.000000 J-0.287066
G02 X313.564570 Y55.962400 Z-0.100000 I-0.111147 J-0.264609
G02 X313.628431 Y55.868658 Z-0.100000 I-0.202487 J-0.206566
G02 X313.650670 Y55.759140 Z-0.100000 I-0.258544 J-0.109518
G02 X313.628405 Y55.647780 Z-0.100000 I-0.289619 J-0.000000
G02 X313.564570 Y55.552430 Z-0.100000 I-0.272948 J0.113690
G02 X313.471038 Y55.490076 Z-0.100000 I-0.202644 J0.202644
G02 X313.359590 Y55.468030 Z-0.100000 I-0.111448 J0.270671
G01 X313.359590 Y55.468030 Z-0.100000
G00 Z2.000000

(End cutting path id: path58509)


(Start cutting path id: path58507)
(Change tool to Cylindrical cutter)

G00 Z2.000000
G00 X311.929860 Y53.244210

G01 Z-0.100000 F100.0(Penetrate)
G01 X311.957460 Y53.569780 Z-0.100000 F150.000000
G02 X311.736105 Y53.636737 Z-0.100000 I0.122482 J0.804288
G02 X311.599170 Y53.736860 Z-0.100000 I0.185004 J0.396726
G02 X311.511708 Y53.881510 Z-0.100000 I0.338864 J0.303659
G02 X311.480310 Y54.055540 Z-0.100000 I0.466599 J0.174030
G02 X311.523863 Y54.260334 Z-0.100000 I0.503266 J-0.000000
G02 X311.649130 Y54.434500 Z-0.100000 I0.482658 J-0.215016
G02 X311.835097 Y54.545484 Z-0.100000 I0.360125 J-0.392135
G02 X312.096990 Y54.589530 Z-0.100000 I0.261893 J-0.756573
G02 X312.344730 Y54.546519 Z-0.100000 I0.000000 J-0.734984
G02 X312.515570 Y54.439670 Z-0.100000 I-0.159098 J-0.444382
G02 X312.626517 Y54.273556 Z-0.100000 I-0.327265 J-0.338686
G02 X312.668880 Y54.050370 Z-0.100000 I-0.566735 J-0.223186
G02 X312.650696 Y53.905339 Z-0.100000 I-0.587447 J0.000000
G02 X312.599980 Y53.779930 Z-0.100000 I-0.487590 J0.124223
G02 X312.520702 Y53.670754 Z-0.100000 I-0.493793 J0.275194
G02 X312.424280 Y53.590450 Z-0.100000 I-0.358541 J0.332466
G01 X312.462180 Y53.299330 Z-0.100000
G01 X313.759270 Y53.543940 Z-0.100000
G01 X313.759270 Y54.799680 Z-0.100000
G01 X313.462990 Y54.799680 Z-0.100000
G01 X313.462990 Y53.791990 Z-0.100000
G01 X312.784300 Y53.655900 Z-0.100000
G03 X312.904339 Y53.895355 Z-0.100000 I-0.765598 J0.533609
G03 X312.942780 Y54.133050 Z-0.100000 I-0.715650 J0.237695
G03 X312.882492 Y54.438675 Z-0.100000 I-0.804820 J-0.000000
G03 X312.713680 Y54.691160 Z-0.100000 I-0.707745 J-0.290524
G03 X312.458918 Y54.856254 Z-0.100000 I-0.521151 J-0.525093
G03 X312.124560 Y54.918540 Z-0.100000 I-0.334358 J-0.866289
G03 X311.800425 Y54.865360 Z-0.100000 I0.000000 J-1.014393
G03 X311.532000 Y54.718720 Z-0.100000 I0.281064 J-0.833487
G03 X311.308958 Y54.435428 Z-0.100000 I0.482979 J-0.609709
G03 X311.225390 Y54.055540 Z-0.100000 I0.821676 J-0.379888
G03 X311.279355 Y53.731425 Z-0.100000 I1.000301 J0.000000
G03 X311.418310 Y53.492260 Z-0.100000 I0.670631 J0.229687
G03 X311.637334 Y53.326517 Z-0.100000 I0.526152 J0.467704
G03 X311.929910 Y53.244210 Z-0.100000 I0.376062 J0.775623
G01 X311.929860 Y53.244210 Z-0.100000
G00 Z2.000000

(End cutting path id: path58507)


(Start cutting path id: path58505)
(Change tool to Cylindrical cutter)

G00 Z2.000000
G00 X311.268400 Y52.276130

G01 Z-0.100000 F100.0(Penetrate)
G01 X311.873020 Y52.276130 Z-0.100000 F150.000000
G01 X311.873020 Y51.180590 Z-0.100000
G01 X312.157240 Y51.180590 Z-0.100000
G01 X313.793670 Y52.332980 Z-0.100000
G01 X313.793670 Y52.586190 Z-0.100000
G01 X312.157240 Y52.586190 Z-0.100000
G01 X312.157240 Y52.927260 Z-0.100000
G01 X311.873020 Y52.927260 Z-0.100000
G01 X311.873020 Y52.586190 Z-0.100000
G01 X311.268400 Y52.586190 Z-0.100000
G01 X311.268400 Y52.276130 Z-0.100000
G00 Z2.000000

(End cutting path id: path58505)


(Start cutting path id: path58505)
(Change tool to Cylindrical cutter)

G00 Z2.000000
G00 X312.157240 Y52.276130

G01 Z-0.100000 F100.0(Penetrate)
G01 X313.295850 Y52.276130 Z-0.100000 F150.000000
G01 X312.157240 Y51.485480 Z-0.100000
G01 X312.157240 Y52.276130 Z-0.100000
G00 Z2.000000

(End cutting path id: path58505)


(Start cutting path id: path58502)
(Change tool to Cylindrical cutter)

G00 Z2.000000
G00 X302.952590 Y69.451280

G01 Z-0.100000 F100.0(Penetrate)
G03 X303.135632 Y69.487611 Z-0.100000 I0.000000 J0.479268 F150.000000
G03 X303.290210 Y69.590800 Z-0.100000 I-0.181560 J0.439351
G03 X303.393691 Y69.746848 Z-0.100000 I-0.346055 J0.341817
G03 X303.429730 Y69.928420 Z-0.100000 I-0.439381 J0.181572
G03 X303.393242 Y70.113127 Z-0.100000 I-0.485745 J0.000000
G03 X303.290210 Y70.267770 Z-0.100000 I-0.437623 J-0.179924
G03 X303.135630 Y70.370967 Z-0.100000 I-0.336151 J-0.336151
G03 X302.952590 Y70.407300 Z-0.100000 I-0.183040 J-0.442902
G03 X302.769632 Y70.370743 Z-0.100000 I-0.000000 J-0.476109
G03 X302.613240 Y70.266050 Z-0.100000 I0.186160 J-0.447246
G03 X302.510044 Y70.111470 Z-0.100000 I0.336142 J-0.336142
G03 X302.473710 Y69.928420 Z-0.100000 I0.442938 J-0.183050
G03 X302.509751 Y69.746850 Z-0.100000 I0.475386 J-0.000000
G03 X302.613240 Y69.590800 Z-0.100000 I0.449533 J0.185781
G03 X302.767883 Y69.487768 Z-0.100000 I0.334567 J0.334591
G03 X302.952590 Y69.451280 Z-0.100000 I0.184707 J0.449256
G01 X302.952590 Y69.451280 Z-0.100000
G00 Z2.000000

(End cutting path id: path58502)


(Start cutting path id: path58502)
(Change tool to Cylindrical cutter)

G00 Z2.000000
G00 X302.952590 Y69.639030

G01 Z-0.100000 F100.0(Penetrate)
G02 X302.840956 Y69.660942 Z-0.100000 I0.000000 J0.295322 F150.000000
G02 X302.745880 Y69.723430 Z-0.100000 I0.111651 J0.273453
G02 X302.683397 Y69.818481 Z-0.100000 I0.210791 J0.206629
G02 X302.661480 Y69.930140 Z-0.100000 I0.273473 J0.111659
G02 X302.683367 Y70.039925 Z-0.100000 I0.286281 J-0.000000
G02 X302.745880 Y70.133400 Z-0.100000 I0.266793 J-0.110781
G02 X302.841205 Y70.197230 Z-0.100000 I0.208940 J-0.208940
G02 X302.952590 Y70.219500 Z-0.100000 I0.111385 J-0.267416
G02 X303.063760 Y70.197100 Z-0.100000 I0.000000 J-0.287066
G02 X303.157570 Y70.133400 Z-0.100000 I-0.111147 J-0.264609
G02 X303.221431 Y70.039658 Z-0.100000 I-0.202487 J-0.206566
G02 X303.243670 Y69.930140 Z-0.100000 I-0.258544 J-0.109518
G02 X303.221405 Y69.818780 Z-0.100000 I-0.289619 J-0.000000
G02 X303.157570 Y69.723430 Z-0.100000 I-0.272948 J0.113690
G02 X303.064038 Y69.661076 Z-0.100000 I-0.202644 J0.202644
G02 X302.952590 Y69.639030 Z-0.100000 I-0.111448 J0.270671
G01 X302.952590 Y69.639030 Z-0.100000
G00 Z2.000000

(End cutting path id: path58502)


(Start cutting path id: path58500)
(Change tool to Cylindrical cutter)

G00 Z2.000000
G00 X302.106810 Y67.415210

G01 Z-0.100000 F100.0(Penetrate)
G03 X302.550110 Y67.443203 Z-0.100000 I-0.000000 J3.524041 F150.000000
G03 X302.826840 Y67.506510 Z-0.100000 I-0.181068 J1.427976
G03 X303.080084 Y67.629306 Z-0.100000 I-0.365372 J1.076039
G03 X303.248870 Y67.780390 Z-0.100000 I-0.400755 J0.617536
G03 X303.355865 Y67.977581 Z-0.100000 I-0.474993 J0.385353
G03 X303.397010 Y68.238590 Z-0.100000 I-0.807306 J0.261009
G03 X303.374400 Y68.436150 Z-0.100000 I-0.874412 J-0.000000
G03 X303.314310 Y68.595160 Z-0.100000 I-0.622457 J-0.144368
G03 X303.216352 Y68.732919 Z-0.100000 I-0.567501 J-0.299834
G03 X303.078320 Y68.848380 Z-0.100000 I-0.532162 J-0.495952
G03 X302.918310 Y68.933008 Z-0.100000 I-0.543455 J-0.833950
G03 X302.702810 Y69.005130 Z-0.100000 I-0.604349 J-1.447778
G03 X302.480071 Y69.044184 Z-0.100000 I-0.359430 J-1.395257
G03 X302.106800 Y69.061930 Z-0.100000 I-0.373271 J-3.916782
G03 X301.666899 Y69.034085 Z-0.100000 I-0.000000 J-3.488803
G03 X301.388490 Y68.970630 Z-0.100000 I0.184616 J-1.452477
G03 X301.137050 Y68.849276 Z-0.100000 I0.353319 J-1.053224
G03 X300.966470 Y68.696750 Z-0.100000 I0.406242 J-0.625976
G03 X300.859717 Y68.501094 Z-0.100000 I0.464294 J-0.380276
G03 X300.818330 Y68.238540 Z-0.100000 I0.812103 J-0.262554
G03 X300.890198 Y67.908008 Z-0.100000 I0.796017 J0.000000
G03 X301.080150 Y67.664930 Z-0.100000 I0.602326 J0.274927
G03 X301.423886 Y67.497038 Z-0.100000 I0.554990 J0.700442
G03 X302.106800 Y67.415160 Z-0.100000 I0.682914 J2.807038
G01 X302.106810 Y67.415210 Z-0.100000
G00 Z2.000000

(End cutting path id: path58500)


(Start cutting path id: path58500)
(Change tool to Cylindrical cutter)

G00 Z2.000000
G00 X302.106810 Y67.733890

G01 Z-0.100000 F100.0(Penetrate)
G02 X301.501504 Y67.786345 Z-0.100000 I-0.000000 J3.518665 F150.000000
G02 X301.278260 Y67.878580 Z-0.100000 I0.095671 J0.547851
G02 X301.123037 Y68.050611 Z-0.100000 I0.313522 J0.438935
G02 X301.073270 Y68.238590 Z-0.100000 I0.330135 J0.187979
G02 X301.123468 Y68.426054 Z-0.100000 I0.375139 J-0.000000
G02 X301.279980 Y68.596890 Z-0.100000 I0.463138 J-0.267193
G02 X301.503558 Y68.690302 Z-0.100000 I0.320159 J-0.452019
G02 X302.106810 Y68.743300 Z-0.100000 I0.603252 J-3.406783
G02 X302.713339 Y68.690123 Z-0.100000 I0.000000 J-3.485590
G02 X302.935360 Y68.596890 Z-0.100000 I-0.094873 J-0.536898
G02 X303.090006 Y68.426104 Z-0.100000 I-0.304032 J-0.430709
G02 X303.140350 Y68.235150 Z-0.100000 I-0.336971 J-0.190954
G02 X303.093289 Y68.045957 Z-0.100000 I-0.403825 J-0.000000
G02 X302.959480 Y67.894080 Z-0.100000 I-0.384576 J0.203941
G02 X302.711039 Y67.790156 Z-0.100000 I-0.367435 J0.529465
G02 X302.106810 Y67.733890 Z-0.100000 I-0.604229 J3.216231
G01 X302.106810 Y67.733890 Z-0.100000
G00 Z2.000000

(End cutting path id: path58500)


(Start cutting path id: path58498)
(Change tool to Cylindrical cutter)

G00 Z2.000000
G00 X301.528030 Y65.454940

G01 Z-0.100000 F100.0(Penetrate)
G01 X301.569330 Y65.765000 Z-0.100000 F150.000000
G02 X301.322140 Y65.847391 Z-0.100000 I0.212901 J1.050751
G02 X301.188650 Y65.945870 Z-0.100000 I0.186486 J0.392500
G02 X301.103988 Y66.086799 Z-0.100000 I0.327652 J0.292729
G02 X301.073230 Y66.259370 Z-0.100000 I0.468733 J0.172571
G02 X301.113161 Y66.461466 Z-0.100000 I0.531378 J-0.000000
G02 X301.224820 Y66.628000 Z-0.100000 I0.465556 J-0.191449
G02 X301.393084 Y66.739335 Z-0.100000 I0.357540 J-0.357540
G02 X301.600340 Y66.779590 Z-0.100000 I0.207256 J-0.513416
G02 X301.798123 Y66.741760 Z-0.100000 I-0.000000 J-0.535937
G02 X301.951740 Y66.640060 Z-0.100000 I-0.165552 J-0.416935
G02 X302.053429 Y66.484856 Z-0.100000 I-0.321674 J-0.321674
G02 X302.091270 Y66.285210 Z-0.100000 I-0.507735 J-0.199646
G02 X302.084470 Y66.198189 Z-0.100000 I-0.560194 J0.000000
G02 X302.056870 Y66.066450 Z-0.100000 I-1.315904 J0.206926
G01 X302.329030 Y66.100950 Z-0.100000
G02 X302.326597 Y66.131977 Z-0.100000 I0.850485 J0.082305
G02 X302.326030 Y66.150850 Z-0.100000 I0.313915 J0.018873
G02 X302.353023 Y66.340925 Z-0.100000 I0.682712 J-0.000000
G02 X302.429390 Y66.507420 Z-0.100000 I0.596925 J-0.173032
G02 X302.557049 Y66.621025 Z-0.100000 I0.272550 J-0.177739
G02 X302.748060 Y66.665900 Z-0.100000 I0.191011 J-0.384082
G02 X302.905516 Y66.634978 Z-0.100000 I-0.000000 J-0.416342
G02 X303.030560 Y66.550490 Z-0.100000 I-0.139267 J-0.340898
G02 X303.111634 Y66.422555 Z-0.100000 I-0.266451 J-0.258508
G02 X303.142530 Y66.252480 Z-0.100000 I-0.452658 J-0.170075
G02 X303.111783 Y66.083829 Z-0.100000 I-0.477911 J-0.000000
G02 X303.028840 Y65.951040 Z-0.100000 I-0.372975 J0.140670
G02 X302.900174 Y65.859046 Z-0.100000 I-0.298340 J0.281293
G02 X302.687770 Y65.796010 Z-0.100000 I-0.332926 J0.732446
G01 X302.742870 Y65.485950 Z-0.100000
G03 X303.029593 Y65.586085 Z-0.100000 I-0.175391 J0.962766
G03 X303.225190 Y65.744330 Z-0.100000 I-0.317136 J0.592000
G03 X303.350294 Y65.963277 Z-0.100000 I-0.512536 J0.438074
G03 X303.397450 Y66.245590 Z-0.100000 I-0.821505 J0.282313
G03 X303.374109 Y66.446643 Z-0.100000 I-0.877568 J0.000000
G03 X303.307850 Y66.626280 Z-0.100000 I-0.764415 J-0.179914
G03 X303.200556 Y66.782168 Z-0.100000 I-0.627535 J-0.317050
G03 X303.066700 Y66.891550 Z-0.100000 I-0.434083 J-0.394613
G03 X302.906900 Y66.961338 Z-0.100000 I-0.339698 J-0.559990
G03 X302.741130 Y66.984550 Z-0.100000 I-0.165770 J-0.580320
G03 X302.584229 Y66.961917 Z-0.100000 I-0.000000 J-0.555166
G03 X302.443130 Y66.896750 Z-0.100000 I0.150817 J-0.511886
G03 X302.327332 Y66.792851 Z-0.100000 I0.281331 J-0.430030
G03 X302.229530 Y66.636650 Z-0.100000 I0.557265 J-0.457638
G03 X302.145865 Y66.839885 Z-0.100000 I-0.657327 J-0.151761
G03 X302.014210 Y66.984600 Z-0.100000 I-0.454557 J-0.281291
G03 X301.840518 Y67.073902 Z-0.100000 I-0.333956 J-0.435976
G03 X301.607690 Y67.108630 Z-0.100000 I-0.232828 J-0.763115
G03 X301.303662 Y67.046109 Z-0.100000 I0.000000 J-0.770474
G03 X301.046130 Y66.867470 Z-0.100000 I0.310001 J-0.721862
G03 X300.879464 Y66.601382 Z-0.100000 I0.572369 J-0.543746
G03 X300.817030 Y66.257680 Z-0.100000 I0.914822 J-0.343702
G03 X300.871180 Y65.945983 Z-0.100000 I0.924165 J-0.000000
G03 X301.015130 Y65.704740 Z-0.100000 I0.686013 J0.245776
G03 X301.238826 Y65.536829 Z-0.100000 I0.545940 J0.494356
G03 X301.528450 Y65.454970 Z-0.100000 I0.373109 J0.766803
G01 X301.528030 Y65.454940 Z-0.100000
G00 Z2.000000

(End cutting path id: path58498)


(Start cutting path id: path58495)
(Change tool to Cylindrical cutter)

G00 Z2.000000
G00 X296.426590 Y85.150280

G01 Z-0.100000 F100.0(Penetrate)
G03 X296.609632 Y85.186611 Z-0.100000 I-0.000000 J0.479268 F150.000000
G03 X296.764210 Y85.289800 Z-0.100000 I-0.181560 J0.439351
G03 X296.867691 Y85.445848 Z-0.100000 I-0.346055 J0.341817
G03 X296.903730 Y85.627420 Z-0.100000 I-0.439381 J0.181572
G03 X296.867242 Y85.812127 Z-0.100000 I-0.485745 J0.000000
G03 X296.764210 Y85.966770 Z-0.100000 I-0.437623 J-0.179924
G03 X296.609630 Y86.069967 Z-0.100000 I-0.336151 J-0.336151
G03 X296.426590 Y86.106300 Z-0.100000 I-0.183040 J-0.442902
G03 X296.243632 Y86.069743 Z-0.100000 I-0.000000 J-0.476109
G03 X296.087240 Y85.965050 Z-0.100000 I0.186160 J-0.447246
G03 X295.984044 Y85.810470 Z-0.100000 I0.336142 J-0.336142
G03 X295.947710 Y85.627420 Z-0.100000 I0.442938 J-0.183050
G03 X295.983751 Y85.445850 Z-0.100000 I0.475386 J-0.000000
G03 X296.087240 Y85.289800 Z-0.100000 I0.449533 J0.185781
G03 X296.241883 Y85.186768 Z-0.100000 I0.334567 J0.334591
G03 X296.426590 Y85.150280 Z-0.100000 I0.184707 J0.449256
G01 X296.426590 Y85.150280 Z-0.100000
G00 Z2.000000

(End cutting path id: path58495)


(Start cutting path id: path58495)
(Change tool to Cylindrical cutter)

G00 Z2.000000
G00 X296.426590 Y85.338030

G01 Z-0.100000 F100.0(Penetrate)
G02 X296.314956 Y85.359942 Z-0.100000 I0.000000 J0.295322 F150.000000
G02 X296.219880 Y85.422430 Z-0.100000 I0.111651 J0.273453
G02 X296.157397 Y85.517481 Z-0.100000 I0.210791 J0.206629
G02 X296.135480 Y85.629140 Z-0.100000 I0.273473 J0.111659
G02 X296.157367 Y85.738925 Z-0.100000 I0.286281 J-0.000000
G02 X296.219880 Y85.832400 Z-0.100000 I0.266793 J-0.110781
G02 X296.315205 Y85.896230 Z-0.100000 I0.208940 J-0.208940
G02 X296.426590 Y85.918500 Z-0.100000 I0.111385 J-0.267416
G02 X296.537760 Y85.896100 Z-0.100000 I0.000000 J-0.287066
G02 X296.631570 Y85.832400 Z-0.100000 I-0.111147 J-0.264609
G02 X296.695431 Y85.738658 Z-0.100000 I-0.202487 J-0.206566
G02 X296.717670 Y85.629140 Z-0.100000 I-0.258544 J-0.109518
G02 X296.695405 Y85.517780 Z-0.100000 I-0.289619 J-0.000000
G02 X296.631570 Y85.422430 Z-0.100000 I-0.272948 J0.113690
G02 X296.538038 Y85.360076 Z-0.100000 I-0.202644 J0.202644
G02 X296.426590 Y85.338030 Z-0.100000 I-0.111448 J0.270671
G01 X296.426590 Y85.338030 Z-0.100000
G00 Z2.000000

(End cutting path id: path58495)


(Start cutting path id: path58493)
(Change tool to Cylindrical cutter)

G00 Z2.000000
G00 X294.996860 Y83.114210

G01 Z-0.100000 F100.0(Penetrate)
G01 X295.024460 Y83.439780 Z-0.100000 F150.000000
G02 X294.803105 Y83.506737 Z-0.100000 I0.122482 J0.804288
G02 X294.666170 Y83.606860 Z-0.100000 I0.185004 J0.396726
G02 X294.578708 Y83.751510 Z-0.100000 I0.338864 J0.303659
G02 X294.547310 Y83.925540 Z-0.100000 I0.466599 J0.174030
G02 X294.590863 Y84.130334 Z-0.100000 I0.503266 J-0.000000
G02 X294.716130 Y84.304500 Z-0.100000 I0.482658 J-0.215016
G02 X294.902097 Y84.415484 Z-0.100000 I0.360125 J-0.392135
G02 X295.163990 Y84.459530 Z-0.100000 I0.261893 J-0.756573
G02 X295.411730 Y84.416519 Z-0.100000 I0.000000 J-0.734984
G02 X295.582570 Y84.309670 Z-0.100000 I-0.159098 J-0.444382
G02 X295.693517 Y84.143556 Z-0.100000 I-0.327265 J-0.338686
G02 X295.735880 Y83.920370 Z-0.100000 I-0.566735 J-0.223186
G02 X295.717696 Y83.775339 Z-0.100000 I-0.587447 J0.000000
G02 X295.666980 Y83.649930 Z-0.100000 I-0.487590 J0.124223
G02 X295.587702 Y83.540754 Z-0.100000 I-0.493793 J0.275194
G02 X295.491280 Y83.460450 Z-0.100000 I-0.358541 J0.332466
G01 X295.529180 Y83.169330 Z-0.100000
G01 X296.826270 Y83.413940 Z-0.100000
G01 X296.826270 Y84.669680 Z-0.100000
G01 X296.529990 Y84.669680 Z-0.100000
G01 X296.529990 Y83.661990 Z-0.100000
G01 X295.851300 Y83.525900 Z-0.100000
G03 X295.971339 Y83.765355 Z-0.100000 I-0.765598 J0.533609
G03 X296.009780 Y84.003050 Z-0.100000 I-0.715650 J0.237695
G03 X295.949492 Y84.308675 Z-0.100000 I-0.804820 J-0.000000
G03 X295.780680 Y84.561160 Z-0.100000 I-0.707745 J-0.290524
G03 X295.525918 Y84.726254 Z-0.100000 I-0.521151 J-0.525093
G03 X295.191560 Y84.788540 Z-0.100000 I-0.334358 J-0.866289
G03 X294.867425 Y84.735360 Z-0.100000 I0.000000 J-1.014393
G03 X294.599000 Y84.588720 Z-0.100000 I0.281064 J-0.833487
G03 X294.375958 Y84.305428 Z-0.100000 I0.482979 J-0.609709
G03 X294.292390 Y83.925540 Z-0.100000 I0.821676 J-0.379888
G03 X294.346355 Y83.601425 Z-0.100000 I1.000301 J0.000000
G03 X294.485310 Y83.362260 Z-0.100000 I0.670631 J0.229687
G03 X294.704334 Y83.196517 Z-0.100000 I0.526152 J0.467704
G03 X294.996910 Y83.114210 Z-0.100000 I0.376062 J0.775623
G01 X294.996860 Y83.114210 Z-0.100000
G00 Z2.000000

(End cutting path id: path58493)


(Start cutting path id: path58491)
(Change tool to Cylindrical cutter)

G00 Z2.000000
G00 X294.335400 Y82.320110

G01 Z-0.100000 F100.0(Penetrate)
G01 X294.335400 Y82.010050 Z-0.100000 F150.000000
G01 X296.311170 Y82.010050 Z-0.100000
G03 X296.212688 Y81.891833 Z-0.100000 I0.829129 J-0.790842
G03 X296.097580 Y81.715490 Z-0.100000 I1.737625 J-1.259979
G03 X295.998009 Y81.531196 Z-0.100000 I2.369951 J-1.399485
G03 X295.937380 Y81.389930 Z-0.100000 I1.330023 J-0.654471
G01 X296.237100 Y81.389930 Z-0.100000
G02 X296.375972 Y81.639083 Z-0.100000 I1.873464 J-0.880948
G02 X296.533380 Y81.844690 Z-0.100000 I1.429481 J-0.931319
G02 X296.719820 Y82.022963 Z-0.100000 I1.227793 J-1.097413
G02 X296.871010 Y82.120300 Z-0.100000 I0.505998 J-0.619862
G01 X296.871010 Y82.320110 Z-0.100000
G01 X294.335400 Y82.320110 Z-0.100000
G00 Z2.000000

(End cutting path id: path58491)


(Start cutting path id: line33719)
(Change tool to Cylindrical cutter)

G00 Z2.000000
G00 X361.318300 Y10.528890

G01 Z-0.100000 F100.0(Penetrate)
G01 X361.318300 Y22.028890 Z-0.100000 F150.000000
G00 Z2.000000

(End cutting path id: line33719)


(Start cutting path id: line33717)
(Change tool to Cylindrical cutter)

G00 Z2.000000
G00 X273.818300 Y100.528890

G01 Z-0.100000 F100.0(Penetrate)
G01 X282.818300 Y100.528890 Z-0.100000 F150.000000
G00 Z2.000000

(End cutting path id: line33717)


(Start cutting path id: line33715)
(Change tool to Cylindrical cutter)

G00 Z2.000000
G00 X359.791290 Y13.042000

G01 Z-0.100000 F100.0(Penetrate)
G01 X359.861090 Y17.041410 Z-0.100000 F150.000000
G00 Z2.000000

(End cutting path id: line33715)


(Start cutting path id: line33713)
(Change tool to Cylindrical cutter)

G00 Z2.000000
G00 X358.264310 Y13.082410

G01 Z-0.100000 F100.0(Penetrate)
G01 X358.403810 Y17.078900 Z-0.100000 F150.000000
G00 Z2.000000

(End cutting path id: line33713)


(Start cutting path id: line33711)
(Change tool to Cylindrical cutter)

G00 Z2.000000
G00 X356.738710 Y13.149000

G01 Z-0.100000 F100.0(Penetrate)
G01 X356.947900 Y17.141400 Z-0.100000 F150.000000
G00 Z2.000000

(End cutting path id: line33711)


(Start cutting path id: line33709)
(Change tool to Cylindrical cutter)

G00 Z2.000000
G00 X355.214600 Y13.242300

G01 Z-0.100000 F100.0(Penetrate)
G01 X355.493310 Y17.229000 Z-0.100000 F150.000000
G00 Z2.000000

(End cutting path id: line33709)


(Start cutting path id: line33707)
(Change tool to Cylindrical cutter)

G00 Z2.000000
G00 X353.691800 Y13.361800

G01 Z-0.100000 F100.0(Penetrate)
G01 X354.475800 Y22.322990 Z-0.100000 F150.000000
G00 Z2.000000

(End cutting path id: line33707)


(Start cutting path id: line33705)
(Change tool to Cylindrical cutter)

G00 Z2.000000
G00 X352.172000 Y13.508010

G01 Z-0.100000 F100.0(Penetrate)
G01 X352.589410 Y17.479700 Z-0.100000 F150.000000
G00 Z2.000000

(End cutting path id: line33705)


(Start cutting path id: line33703)
(Change tool to Cylindrical cutter)

G00 Z2.000000
G00 X350.655090 Y13.680990

G01 Z-0.100000 F100.0(Penetrate)
G01 X351.141510 Y17.642890 Z-0.100000 F150.000000
G00 Z2.000000

(End cutting path id: line33703)


(Start cutting path id: line33701)
(Change tool to Cylindrical cutter)

G00 Z2.000000
G00 X349.140990 Y13.880700

G01 Z-0.100000 F100.0(Penetrate)
G01 X349.696100 Y17.831290 Z-0.100000 F150.000000
G00 Z2.000000

(End cutting path id: line33701)


(Start cutting path id: line33699)
(Change tool to Cylindrical cutter)

G00 Z2.000000
G00 X347.630490 Y14.105910

G01 Z-0.100000 F100.0(Penetrate)
G01 X348.254300 Y18.044900 Z-0.100000 F150.000000
G00 Z2.000000

(End cutting path id: line33699)


(Start cutting path id: line33697)
(Change tool to Cylindrical cutter)

G00 Z2.000000
G00 X346.124390 Y14.358500

G01 Z-0.100000 F100.0(Penetrate)
G01 X347.684810 Y23.208600 Z-0.100000 F150.000000
G00 Z2.000000

(End cutting path id: line33697)


(Start cutting path id: line33695)
(Change tool to Cylindrical cutter)

G00 Z2.000000
G00 X344.622500 Y14.636500

G01 Z-0.100000 F100.0(Penetrate)
G01 X345.382690 Y18.547800 Z-0.100000 F150.000000
G00 Z2.000000

(End cutting path id: line33695)


(Start cutting path id: line33693)
(Change tool to Cylindrical cutter)

G00 Z2.000000
G00 X343.953790 Y18.837000

G01 Z-0.100000 F100.0(Penetrate)
G01 X343.125700 Y14.940700 Z-0.100000 F150.000000
G00 Z2.000000

(End cutting path id: line33693)


(Start cutting path id: line33691)
(Change tool to Cylindrical cutter)

G00 Z2.000000
G00 X342.530910 Y19.151000

G01 Z-0.100000 F100.0(Penetrate)
G01 X341.635310 Y15.271600 Z-0.100000 F150.000000
G00 Z2.000000

(End cutting path id: line33691)


(Start cutting path id: line33689)
(Change tool to Cylindrical cutter)

G00 Z2.000000
G00 X340.149990 Y15.628000

G01 Z-0.100000 F100.0(Penetrate)
G01 X341.112910 Y19.490200 Z-0.100000 F150.000000
G00 Z2.000000

(End cutting path id: line33689)


(Start cutting path id: line33687)
(Change tool to Cylindrical cutter)

G00 Z2.000000
G00 X338.666200 Y15.989400

G01 Z-0.100000 F100.0(Penetrate)
G01 X342.849790 Y31.603200 Z-0.100000 F150.000000
G00 Z2.000000

(End cutting path id: line33687)


(Start cutting path id: line33685)
(Change tool to Cylindrical cutter)

G00 Z2.000000
G00 X337.200190 Y16.418500

G01 Z-0.100000 F100.0(Penetrate)
G01 X338.296690 Y20.242900 Z-0.100000 F150.000000
G00 Z2.000000

(End cutting path id: line33685)


(Start cutting path id: line33683)
(Change tool to Cylindrical cutter)

G00 Z2.000000
G00 X334.279200 Y17.311400

G01 Z-0.100000 F100.0(Penetrate)
G01 X335.508300 Y21.094290 Z-0.100000 F150.000000
G00 Z2.000000

(End cutting path id: line33683)


(Start cutting path id: line33681)
(Change tool to Cylindrical cutter)

G00 Z2.000000
G00 X335.735810 Y16.852500

G01 Z-0.100000 F100.0(Penetrate)
G01 X336.898710 Y20.656310 Z-0.100000 F150.000000
G00 Z2.000000

(End cutting path id: line33681)


(Start cutting path id: line33679)
(Change tool to Cylindrical cutter)

G00 Z2.000000
G00 X332.831300 Y17.796300

G01 Z-0.100000 F100.0(Penetrate)
G01 X334.126010 Y21.556600 Z-0.100000 F150.000000
G00 Z2.000000

(End cutting path id: line33679)


(Start cutting path id: line33677)
(Change tool to Cylindrical cutter)

G00 Z2.000000
G00 X331.391200 Y18.306100

G01 Z-0.100000 F100.0(Penetrate)
G01 X334.462000 Y26.743200 Z-0.100000 F150.000000
G00 Z2.000000

(End cutting path id: line33677)


(Start cutting path id: line33675)
(Change tool to Cylindrical cutter)

G00 Z2.000000
G00 X329.961300 Y18.840690

G01 Z-0.100000 F100.0(Penetrate)
G01 X331.386590 Y22.553900 Z-0.100000 F150.000000
G00 Z2.000000

(End cutting path id: line33675)


(Start cutting path id: line33673)
(Change tool to Cylindrical cutter)

G00 Z2.000000
G00 X328.540010 Y19.400100

G01 Z-0.100000 F100.0(Penetrate)
G01 X330.030210 Y23.088600 Z-0.100000 F150.000000
G00 Z2.000000

(End cutting path id: line33673)


(Start cutting path id: line33671)
(Change tool to Cylindrical cutter)

G00 Z2.000000
G00 X327.129390 Y19.984900

G01 Z-0.100000 F100.0(Penetrate)
G01 X328.683810 Y23.647000 Z-0.100000 F150.000000
G00 Z2.000000

(End cutting path id: line33671)


(Start cutting path id: line33669)
(Change tool to Cylindrical cutter)

G00 Z2.000000
G00 X325.728900 Y20.593900

G01 Z-0.100000 F100.0(Penetrate)
G01 X327.347200 Y24.228910 Z-0.100000 F150.000000
G00 Z2.000000

(End cutting path id: line33669)


(Start cutting path id: line33667)
(Change tool to Cylindrical cutter)

G00 Z2.000000
G00 X324.339090 Y21.227000

G01 Z-0.100000 F100.0(Penetrate)
G01 X328.134700 Y29.366910 Z-0.100000 F150.000000
G00 Z2.000000

(End cutting path id: line33667)


(Start cutting path id: line33665)
(Change tool to Cylindrical cutter)

G00 Z2.000000
G00 X322.961000 Y21.884300

G01 Z-0.100000 F100.0(Penetrate)
G01 X324.706210 Y25.462600 Z-0.100000 F150.000000
G00 Z2.000000

(End cutting path id: line33665)


(Start cutting path id: line33663)
(Change tool to Cylindrical cutter)

G00 Z2.000000
G00 X321.594300 Y22.565810

G01 Z-0.100000 F100.0(Penetrate)
G01 X323.402100 Y26.113990 Z-0.100000 F150.000000
G00 Z2.000000

(End cutting path id: line33663)


(Start cutting path id: line33661)
(Change tool to Cylindrical cutter)

G00 Z2.000000
G00 X320.239900 Y23.270700

G01 Z-0.100000 F100.0(Penetrate)
G01 X322.110000 Y26.788000 Z-0.100000 F150.000000
G00 Z2.000000

(End cutting path id: line33661)


(Start cutting path id: line33659)
(Change tool to Cylindrical cutter)

G00 Z2.000000
G00 X318.897600 Y23.999800

G01 Z-0.100000 F100.0(Penetrate)
G01 X320.829300 Y27.484800 Z-0.100000 F150.000000
G00 Z2.000000

(End cutting path id: line33659)


(Start cutting path id: line33657)
(Change tool to Cylindrical cutter)

G00 Z2.000000
G00 X317.561000 Y24.739100

G01 Z-0.100000 F100.0(Penetrate)
G01 X325.649000 Y38.748500 Z-0.100000 F150.000000
G00 Z2.000000

(End cutting path id: line33657)


(Start cutting path id: line33655)
(Change tool to Cylindrical cutter)

G00 Z2.000000
G00 X316.252700 Y25.526500

G01 Z-0.100000 F100.0(Penetrate)
G01 X318.306390 Y28.944610 Z-0.100000 F150.000000
G00 Z2.000000

(End cutting path id: line33655)


(Start cutting path id: line33653)
(Change tool to Cylindrical cutter)

G00 Z2.000000
G00 X314.950700 Y26.324790

G01 Z-0.100000 F100.0(Penetrate)
G01 X317.064300 Y29.707410 Z-0.100000 F150.000000
G00 Z2.000000

(End cutting path id: line33653)


(Start cutting path id: line33651)
(Change tool to Cylindrical cutter)

G00 Z2.000000
G00 X313.662310 Y27.145200

G01 Z-0.100000 F100.0(Penetrate)
G01 X315.835490 Y30.491800 Z-0.100000 F150.000000
G00 Z2.000000

(End cutting path id: line33651)


(Start cutting path id: line33649)
(Change tool to Cylindrical cutter)

G00 Z2.000000
G00 X312.389100 Y27.987890

G01 Z-0.100000 F100.0(Penetrate)
G01 X314.621110 Y31.297210 Z-0.100000 F150.000000
G00 Z2.000000

(End cutting path id: line33649)


(Start cutting path id: line33647)
(Change tool to Cylindrical cutter)

G00 Z2.000000
G00 X311.130090 Y28.853490

G01 Z-0.100000 F100.0(Penetrate)
G01 X316.288300 Y36.220300 Z-0.100000 F150.000000
G00 Z2.000000

(End cutting path id: line33647)


(Start cutting path id: line33645)
(Change tool to Cylindrical cutter)

G00 Z2.000000
G00 X309.887210 Y29.739800

G01 Z-0.100000 F100.0(Penetrate)
G01 X312.234800 Y32.971200 Z-0.100000 F150.000000
G00 Z2.000000

(End cutting path id: line33645)


(Start cutting path id: line33643)
(Change tool to Cylindrical cutter)

G00 Z2.000000
G00 X308.659300 Y30.648290

G01 Z-0.100000 F100.0(Penetrate)
G01 X311.063700 Y33.839200 Z-0.100000 F150.000000
G00 Z2.000000

(End cutting path id: line33643)


(Start cutting path id: line33641)
(Change tool to Cylindrical cutter)

G00 Z2.000000
G00 X307.447900 Y31.577800

G01 Z-0.100000 F100.0(Penetrate)
G01 X309.908290 Y34.727110 Z-0.100000 F150.000000
G00 Z2.000000

(End cutting path id: line33641)


(Start cutting path id: line33639)
(Change tool to Cylindrical cutter)

G00 Z2.000000
G00 X306.253000 Y32.528800

G01 Z-0.100000 F100.0(Penetrate)
G01 X308.768290 Y35.635100 Z-0.100000 F150.000000
G00 Z2.000000

(End cutting path id: line33639)


(Start cutting path id: line33637)
(Change tool to Cylindrical cutter)

G00 Z2.000000
G00 X305.074600 Y33.500190

G01 Z-0.100000 F100.0(Penetrate)
G01 X310.858310 Y40.393110 Z-0.100000 F150.000000
G00 Z2.000000

(End cutting path id: line33637)


(Start cutting path id: line33635)
(Change tool to Cylindrical cutter)

G00 Z2.000000
G00 X303.912900 Y34.491500

G01 Z-0.100000 F100.0(Penetrate)
G01 X306.536500 Y37.509700 Z-0.100000 F150.000000
G00 Z2.000000

(End cutting path id: line33635)


(Start cutting path id: line33633)
(Change tool to Cylindrical cutter)

G00 Z2.000000
G00 X302.769000 Y35.503900

G01 Z-0.100000 F100.0(Penetrate)
G01 X305.445100 Y38.476100 Z-0.100000 F150.000000
G00 Z2.000000

(End cutting path id: line33633)


(Start cutting path id: line33631)
(Change tool to Cylindrical cutter)

G00 Z2.000000
G00 X301.643200 Y36.535200

G01 Z-0.100000 F100.0(Penetrate)
G01 X304.371200 Y39.460700 Z-0.100000 F150.000000
G00 Z2.000000

(End cutting path id: line33631)


(Start cutting path id: line33629)
(Change tool to Cylindrical cutter)

G00 Z2.000000
G00 X300.535990 Y37.586690

G01 Z-0.100000 F100.0(Penetrate)
G01 X303.314300 Y40.463910 Z-0.100000 F150.000000
G00 Z2.000000

(End cutting path id: line33629)


(Start cutting path id: line33627)
(Change tool to Cylindrical cutter)

G00 Z2.000000
G00 X299.446200 Y38.657300

G01 Z-0.100000 F100.0(Penetrate)
G01 X310.901590 Y50.112700 Z-0.100000 F150.000000
G00 Z2.000000

(End cutting path id: line33627)


(Start cutting path id: line33625)
(Change tool to Cylindrical cutter)

G00 Z2.000000
G00 X298.376400 Y39.746610

G01 Z-0.100000 F100.0(Penetrate)
G01 X301.253290 Y42.524900 Z-0.100000 F150.000000
G00 Z2.000000

(End cutting path id: line33625)


(Start cutting path id: line33623)
(Change tool to Cylindrical cutter)

G00 Z2.000000
G00 X297.324600 Y40.854200

G01 Z-0.100000 F100.0(Penetrate)
G01 X300.249800 Y43.582100 Z-0.100000 F150.000000
G00 Z2.000000

(End cutting path id: line33623)


(Start cutting path id: line33621)
(Change tool to Cylindrical cutter)

G00 Z2.000000
G00 X296.292910 Y41.980200

G01 Z-0.100000 F100.0(Penetrate)
G01 X299.264910 Y44.656310 Z-0.100000 F150.000000
G00 Z2.000000

(End cutting path id: line33621)


(Start cutting path id: line33619)
(Change tool to Cylindrical cutter)

G00 Z2.000000
G00 X295.281400 Y43.123700

G01 Z-0.100000 F100.0(Penetrate)
G01 X298.299100 Y45.747100 Z-0.100000 F150.000000
G00 Z2.000000

(End cutting path id: line33619)


(Start cutting path id: line33617)
(Change tool to Cylindrical cutter)

G00 Z2.000000
G00 X294.289110 Y44.285000

G01 Z-0.100000 F100.0(Penetrate)
G01 X301.182200 Y50.069100 Z-0.100000 F150.000000
G00 Z2.000000

(End cutting path id: line33617)


(Start cutting path id: line33615)
(Change tool to Cylindrical cutter)

G00 Z2.000000
G00 X293.317900 Y45.463100

G01 Z-0.100000 F100.0(Penetrate)
G01 X296.424500 Y47.978910 Z-0.100000 F150.000000
G00 Z2.000000

(End cutting path id: line33615)


(Start cutting path id: line33613)
(Change tool to Cylindrical cutter)

G00 Z2.000000
G00 X292.367510 Y46.658790

G01 Z-0.100000 F100.0(Penetrate)
G01 X295.516400 Y49.119000 Z-0.100000 F150.000000
G00 Z2.000000

(End cutting path id: line33613)


(Start cutting path id: line33611)
(Change tool to Cylindrical cutter)

G00 Z2.000000
G00 X291.437890 Y47.870290

G01 Z-0.100000 F100.0(Penetrate)
G01 X294.628400 Y50.274610 Z-0.100000 F150.000000
G00 Z2.000000

(End cutting path id: line33611)


(Start cutting path id: line33609)
(Change tool to Cylindrical cutter)

G00 Z2.000000
G00 X290.529200 Y49.097410

G01 Z-0.100000 F100.0(Penetrate)
G01 X293.760600 Y51.445310 Z-0.100000 F150.000000
G00 Z2.000000

(End cutting path id: line33609)


(Start cutting path id: line33607)
(Change tool to Cylindrical cutter)

G00 Z2.000000
G00 X289.642700 Y50.341000

G01 Z-0.100000 F100.0(Penetrate)
G01 X297.009400 Y55.499290 Z-0.100000 F150.000000
G00 Z2.000000

(End cutting path id: line33607)


(Start cutting path id: line33605)
(Change tool to Cylindrical cutter)

G00 Z2.000000
G00 X288.777200 Y51.599300

G01 Z-0.100000 F100.0(Penetrate)
G01 X292.086610 Y53.831600 Z-0.100000 F150.000000
G00 Z2.000000

(End cutting path id: line33605)


(Start cutting path id: line33603)
(Change tool to Cylindrical cutter)

G00 Z2.000000
G00 X287.934600 Y52.872710

G01 Z-0.100000 F100.0(Penetrate)
G01 X291.281200 Y55.046110 Z-0.100000 F150.000000
G00 Z2.000000

(End cutting path id: line33603)


(Start cutting path id: line33601)
(Change tool to Cylindrical cutter)

G00 Z2.000000
G00 X287.114300 Y54.161200

G01 Z-0.100000 F100.0(Penetrate)
G01 X290.496700 Y56.274810 Z-0.100000 F150.000000
G00 Z2.000000

(End cutting path id: line33601)


(Start cutting path id: line33599)
(Change tool to Cylindrical cutter)

G00 Z2.000000
G00 X286.316210 Y55.463300

G01 Z-0.100000 F100.0(Penetrate)
G01 X289.733900 Y57.516990 Z-0.100000 F150.000000
G00 Z2.000000

(End cutting path id: line33599)


(Start cutting path id: line33597)
(Change tool to Cylindrical cutter)

G00 Z2.000000
G00 X285.528590 Y56.771300

G01 Z-0.100000 F100.0(Penetrate)
G01 X299.537790 Y64.859900 Z-0.100000 F150.000000
G00 Z2.000000

(End cutting path id: line33597)


(Start cutting path id: line33595)
(Change tool to Cylindrical cutter)

G00 Z2.000000
G00 X284.789200 Y58.108190

G01 Z-0.100000 F100.0(Penetrate)
G01 X288.274110 Y60.040000 Z-0.100000 F150.000000
G00 Z2.000000

(End cutting path id: line33595)


(Start cutting path id: line33593)
(Change tool to Cylindrical cutter)

G00 Z2.000000
G00 X284.060190 Y59.450100

G01 Z-0.100000 F100.0(Penetrate)
G01 X287.577500 Y61.320310 Z-0.100000 F150.000000
G00 Z2.000000

(End cutting path id: line33593)


(Start cutting path id: line33591)
(Change tool to Cylindrical cutter)

G00 Z2.000000
G00 X283.354990 Y60.804500

G01 Z-0.100000 F100.0(Penetrate)
G01 X286.903390 Y62.612600 Z-0.100000 F150.000000
G00 Z2.000000

(End cutting path id: line33591)


(Start cutting path id: line33589)
(Change tool to Cylindrical cutter)

G00 Z2.000000
G00 X282.674100 Y62.171300

G01 Z-0.100000 F100.0(Penetrate)
G01 X286.252000 Y63.916500 Z-0.100000 F150.000000
G00 Z2.000000

(End cutting path id: line33589)


(Start cutting path id: line33587)
(Change tool to Cylindrical cutter)

G00 Z2.000000
G00 X282.016100 Y63.549910

G01 Z-0.100000 F100.0(Penetrate)
G01 X290.156100 Y67.345610 Z-0.100000 F150.000000
G00 Z2.000000

(End cutting path id: line33587)


(Start cutting path id: line33585)
(Change tool to Cylindrical cutter)

G00 Z2.000000
G00 X281.382900 Y64.939490

G01 Z-0.100000 F100.0(Penetrate)
G01 X285.018100 Y66.558100 Z-0.100000 F150.000000
G00 Z2.000000

(End cutting path id: line33585)


(Start cutting path id: line33583)
(Change tool to Cylindrical cutter)

G00 Z2.000000
G00 X280.774000 Y66.340200

G01 Z-0.100000 F100.0(Penetrate)
G01 X284.436090 Y67.894690 Z-0.100000 F150.000000
G00 Z2.000000

(End cutting path id: line33583)


(Start cutting path id: line33581)
(Change tool to Cylindrical cutter)

G00 Z2.000000
G00 X280.189500 Y67.750800

G01 Z-0.100000 F100.0(Penetrate)
G01 X283.877900 Y69.241100 Z-0.100000 F150.000000
G00 Z2.000000

(End cutting path id: line33581)


(Start cutting path id: line33579)
(Change tool to Cylindrical cutter)

G00 Z2.000000
G00 X279.630200 Y69.171700

G01 Z-0.100000 F100.0(Penetrate)
G01 X283.343310 Y70.597100 Z-0.100000 F150.000000
G00 Z2.000000

(End cutting path id: line33579)


(Start cutting path id: line33577)
(Change tool to Cylindrical cutter)

G00 Z2.000000
G00 X279.095400 Y70.601890

G01 Z-0.100000 F100.0(Penetrate)
G01 X287.532390 Y73.672910 Z-0.100000 F150.000000
G00 Z2.000000

(End cutting path id: line33577)


(Start cutting path id: line33575)
(Change tool to Cylindrical cutter)

G00 Z2.000000
G00 X278.585600 Y72.041700

G01 Z-0.100000 F100.0(Penetrate)
G01 X282.346010 Y73.336600 Z-0.100000 F150.000000
G00 Z2.000000

(End cutting path id: line33575)


(Start cutting path id: line33573)
(Change tool to Cylindrical cutter)

G00 Z2.000000
G00 X278.101000 Y73.490110

G01 Z-0.100000 F100.0(Penetrate)
G01 X281.883500 Y74.719200 Z-0.100000 F150.000000
G00 Z2.000000

(End cutting path id: line33573)


(Start cutting path id: line33571)
(Change tool to Cylindrical cutter)

G00 Z2.000000
G00 X277.641600 Y74.946300

G01 Z-0.100000 F100.0(Penetrate)
G01 X281.445600 Y76.109400 Z-0.100000 F150.000000
G00 Z2.000000

(End cutting path id: line33571)


(Start cutting path id: line33569)
(Change tool to Cylindrical cutter)

G00 Z2.000000
G00 X277.208100 Y76.410300

G01 Z-0.100000 F100.0(Penetrate)
G01 X281.032300 Y77.507000 Z-0.100000 F150.000000
G00 Z2.000000

(End cutting path id: line33569)


(Start cutting path id: line33567)
(Change tool to Cylindrical cutter)

G00 Z2.000000
G00 X276.778700 Y77.876700

G01 Z-0.100000 F100.0(Penetrate)
G01 X292.393290 Y82.060690 Z-0.100000 F150.000000
G00 Z2.000000

(End cutting path id: line33567)


(Start cutting path id: line33565)
(Change tool to Cylindrical cutter)

G00 Z2.000000
G00 X276.417200 Y79.360610

G01 Z-0.100000 F100.0(Penetrate)
G01 X280.279490 Y80.323600 Z-0.100000 F150.000000
G00 Z2.000000

(End cutting path id: line33565)


(Start cutting path id: line33563)
(Change tool to Cylindrical cutter)

G00 Z2.000000
G00 X276.060700 Y80.845610

G01 Z-0.100000 F100.0(Penetrate)
G01 X279.940310 Y81.741300 Z-0.100000 F150.000000
G00 Z2.000000

(End cutting path id: line33563)


(Start cutting path id: line33561)
(Change tool to Cylindrical cutter)

G00 Z2.000000
G00 X275.730700 Y82.336400

G01 Z-0.100000 F100.0(Penetrate)
G01 X279.626200 Y83.164500 Z-0.100000 F150.000000
G00 Z2.000000

(End cutting path id: line33561)


(Start cutting path id: line33559)
(Change tool to Cylindrical cutter)

G00 Z2.000000
G00 X275.425790 Y83.833000

G01 Z-0.100000 F100.0(Penetrate)
G01 X279.337100 Y84.593300 Z-0.100000 F150.000000
G00 Z2.000000

(End cutting path id: line33559)


(Start cutting path id: line33557)
(Change tool to Cylindrical cutter)

G00 Z2.000000
G00 X275.147790 Y85.334890

G01 Z-0.100000 F100.0(Penetrate)
G01 X283.999600 Y86.886100 Z-0.100000 F150.000000
G00 Z2.000000

(End cutting path id: line33557)


(Start cutting path id: line33555)
(Change tool to Cylindrical cutter)

G00 Z2.000000
G00 X274.895310 Y86.840800

G01 Z-0.100000 F100.0(Penetrate)
G01 X278.834300 Y87.464700 Z-0.100000 F150.000000
G00 Z2.000000

(End cutting path id: line33555)


(Start cutting path id: line33553)
(Change tool to Cylindrical cutter)

G00 Z2.000000
G00 X274.669490 Y88.351210

G01 Z-0.100000 F100.0(Penetrate)
G01 X278.620600 Y88.906600 Z-0.100000 F150.000000
G00 Z2.000000

(End cutting path id: line33553)


(Start cutting path id: line33551)
(Change tool to Cylindrical cutter)

G00 Z2.000000
G00 X274.470400 Y89.865500

G01 Z-0.100000 F100.0(Penetrate)
G01 X278.432200 Y90.352000 Z-0.100000 F150.000000
G00 Z2.000000

(End cutting path id: line33551)


(Start cutting path id: line33549)
(Change tool to Cylindrical cutter)

G00 Z2.000000
G00 X274.297800 Y91.382390

G01 Z-0.100000 F100.0(Penetrate)
G01 X278.269000 Y91.799910 Z-0.100000 F150.000000
G00 Z2.000000

(End cutting path id: line33549)


(Start cutting path id: line33547)
(Change tool to Cylindrical cutter)

G00 Z2.000000
G00 X274.151300 Y92.902510

G01 Z-0.100000 F100.0(Penetrate)
G01 X283.112300 Y93.686590 Z-0.100000 F150.000000
G00 Z2.000000

(End cutting path id: line33547)


(Start cutting path id: line33545)
(Change tool to Cylindrical cutter)

G00 Z2.000000
G00 X274.031100 Y94.425300

G01 Z-0.100000 F100.0(Penetrate)
G01 X278.018200 Y94.704200 Z-0.100000 F150.000000
G00 Z2.000000

(End cutting path id: line33545)


(Start cutting path id: line33543)
(Change tool to Cylindrical cutter)

G00 Z2.000000
G00 X273.938400 Y95.949400

G01 Z-0.100000 F100.0(Penetrate)
G01 X277.930690 Y96.158700 Z-0.100000 F150.000000
G00 Z2.000000

(End cutting path id: line33543)


(Start cutting path id: line33541)
(Change tool to Cylindrical cutter)

G00 Z2.000000
G00 X273.871500 Y97.475500

G01 Z-0.100000 F100.0(Penetrate)
G01 X277.868100 Y97.615110 Z-0.100000 F150.000000
G00 Z2.000000

(End cutting path id: line33541)


(Start cutting path id: line33539)
(Change tool to Cylindrical cutter)

G00 Z2.000000
G00 X273.832000 Y99.001510

G01 Z-0.100000 F100.0(Penetrate)
G01 X277.830700 Y99.071410 Z-0.100000 F150.000000
G00 Z2.000000

(End cutting path id: line33539)


(Start cutting path id: path33537)
(Change tool to Cylindrical cutter)

G00 Z2.000000
G00 X361.318300 Y22.028900

G01 Z-0.100000 F100.0(Penetrate)
G02 X305.810689 Y45.020746 Z-0.100000 I0.000000 J78.500000 F150.000000
G02 X282.818300 Y100.528900 Z-0.100000 I55.507611 J55.508154
G00 Z2.000000

(End cutting path id: path33537)


(Start cutting path id: path33535)
(Change tool to Cylindrical cutter)

G00 Z2.000000
G00 X361.318300 Y17.028900

G01 Z-0.100000 F100.0(Penetrate)
G02 X302.275155 Y41.485212 Z-0.100000 I0.000000 J83.500000 F150.000000
G02 X277.818300 Y100.528900 Z-0.100000 I59.043145 J59.043688
G00 Z2.000000

(End cutting path id: path33535)


(Start cutting path id: path33533)
(Change tool to Cylindrical cutter)

G00 Z2.000000
G00 X361.318300 Y100.528900

G01 Z-0.100000 F100.0(Penetrate)
G01 X361.318300 Y13.028900 Z-0.100000 F150.000000
G02 X299.446728 Y38.656785 Z-0.100000 I-0.000000 J87.500000
G02 X273.818300 Y100.528900 Z-0.100000 I61.871572 J61.872115
G01 X361.318300 Y100.528900 Z-0.100000
G00 Z2.000000

(End cutting path id: path33533)


(Start cutting path id: path33527)
(Change tool to Cylindrical cutter)

G00 Z2.000000
G00 X361.318300 Y100.528900

G01 Z-0.100000 F100.0(Penetrate)
G01 X361.318300 Y10.528900 Z-0.100000 F150.000000
G02 X297.678961 Y36.889018 Z-0.100000 I-0.000000 J90.000000
G02 X271.318300 Y100.528900 Z-0.100000 I63.639339 J63.639882
G01 X361.318300 Y100.528900 Z-0.100000
G00 Z2.000000

(End cutting path id: path33527)


(Footer)
M5
G00 X0.0000 Y0.0000
M2
(Using default footer. To add your own footer create file "footer" in the output dir.)
(end)
%