%
(Header)
(Generated by gcodetools from Inkscape.)
(Using default header. To add your own header create file "header" in the output dir.)
M3
(Header end.)
G21 (All units in mm)

(Start cutting path id: circle33519)
(Change tool to Cylindrical cutter)

G00 Z2.000000
G00 X365.017219 Y100.529000

G01 Z-0.700000 F100.0(Penetrate)
G03 X363.933514 Y103.144514 Z-0.700000 I-3.700000 J-0.000781 F150.000000
G03 X361.318000 Y104.228219 Z-0.700000 I-2.616295 J-2.616295
G03 X358.702486 Y103.144514 Z-0.700000 I0.000781 J-3.700000
G03 X357.618781 Y100.529000 Z-0.700000 I2.616295 J-2.616295
G03 X358.702486 Y97.913486 Z-0.700000 I3.700000 J0.000781
G03 X361.318000 Y96.829781 Z-0.700000 I2.616295 J2.616295
G03 X363.933514 Y97.913486 Z-0.700000 I-0.000781 J3.700000
G03 X365.017219 Y100.529000 Z-0.700000 I-2.616295 J2.616295
G01 X365.017219 Y100.529000 Z-0.700000
G00 Z2.000000

(End cutting path id: circle33519)


(Start cutting path id: circle33519)
(Change tool to Cylindrical cutter)

G00 Z2.000000
G00 X365.017219 Y100.529000

G01 Z-1.400000 F100.0(Penetrate)
G03 X363.933514 Y103.144514 Z-1.400000 I-3.700000 J-0.000781 F150.000000
G03 X361.318000 Y104.228219 Z-1.400000 I-2.616295 J-2.616295
G03 X358.702486 Y103.144514 Z-1.400000 I0.000781 J-3.700000
G03 X357.618781 Y100.529000 Z-1.400000 I2.616295 J-2.616295
G03 X358.702486 Y97.913486 Z-1.400000 I3.700000 J0.000781
G03 X361.318000 Y96.829781 Z-1.400000 I2.616295 J2.616295
G03 X363.933514 Y97.913486 Z-1.400000 I-0.000781 J3.700000
G03 X365.017219 Y100.529000 Z-1.400000 I-2.616295 J2.616295
G01 X365.017219 Y100.529000 Z-1.400000
G00 Z2.000000

(End cutting path id: circle33519)


(Start cutting path id: circle33519)
(Change tool to Cylindrical cutter)

G00 Z2.000000
G00 X365.017219 Y100.529000

G01 Z-2.100000 F100.0(Penetrate)
G03 X363.933514 Y103.144514 Z-2.100000 I-3.700000 J-0.000781 F150.000000
G03 X361.318000 Y104.228219 Z-2.100000 I-2.616295 J-2.616295
G03 X358.702486 Y103.144514 Z-2.100000 I0.000781 J-3.700000
G03 X357.618781 Y100.529000 Z-2.100000 I2.616295 J-2.616295
G03 X358.702486 Y97.913486 Z-2.100000 I3.700000 J0.000781
G03 X361.318000 Y96.829781 Z-2.100000 I2.616295 J2.616295
G03 X363.933514 Y97.913486 Z-2.100000 I-0.000781 J3.700000
G03 X365.017219 Y100.529000 Z-2.100000 I-2.616295 J2.616295
G01 X365.017219 Y100.529000 Z-2.100000
G00 Z2.000000

(End cutting path id: circle33519)


(Start cutting path id: circle33519)
(Change tool to Cylindrical cutter)

G00 Z2.000000
G00 X365.017219 Y100.529000

G01 Z-2.800000 F100.0(Penetrate)
G03 X363.933514 Y103.144514 Z-2.800000 I-3.700000 J-0.000781 F150.000000
G03 X361.318000 Y104.228219 Z-2.800000 I-2.616295 J-2.616295
G03 X358.702486 Y103.144514 Z-2.800000 I0.000781 J-3.700000
G03 X357.618781 Y100.529000 Z-2.800000 I2.616295 J-2.616295
G03 X358.702486 Y97.913486 Z-2.800000 I3.700000 J0.000781
G03 X361.318000 Y96.829781 Z-2.800000 I2.616295 J2.616295
G03 X363.933514 Y97.913486 Z-2.800000 I-0.000781 J3.700000
G03 X365.017219 Y100.529000 Z-2.800000 I-2.616295 J2.616295
G01 X365.017219 Y100.529000 Z-2.800000
G00 Z2.000000

(End cutting path id: circle33519)


(Start cutting path id: circle33519)
(Change tool to Cylindrical cutter)

G00 Z2.000000
G00 X365.017219 Y100.529000

G01 Z-3.500000 F100.0(Penetrate)
G03 X363.933514 Y103.144514 Z-3.500000 I-3.700000 J-0.000781 F150.000000
G03 X361.318000 Y104.228219 Z-3.500000 I-2.616295 J-2.616295
G03 X358.702486 Y103.144514 Z-3.500000 I0.000781 J-3.700000
G03 X357.618781 Y100.529000 Z-3.500000 I2.616295 J-2.616295
G03 X358.702486 Y97.913486 Z-3.500000 I3.700000 J0.000781
G03 X361.318000 Y96.829781 Z-3.500000 I2.616295 J2.616295
G03 X363.933514 Y97.913486 Z-3.500000 I-0.000781 J3.700000
G03 X365.017219 Y100.529000 Z-3.500000 I-2.616295 J2.616295
G01 X365.017219 Y100.529000 Z-3.500000
G00 Z2.000000

(End cutting path id: circle33519)


(Start cutting path id: circle33519)
(Change tool to Cylindrical cutter)

G00 Z2.000000
G00 X365.017219 Y100.529000

G01 Z-4.200000 F100.0(Penetrate)
G03 X363.933514 Y103.144514 Z-4.200000 I-3.700000 J-0.000781 F150.000000
G03 X361.318000 Y104.228219 Z-4.200000 I-2.616295 J-2.616295
G03 X358.702486 Y103.144514 Z-4.200000 I0.000781 J-3.700000
G03 X357.618781 Y100.529000 Z-4.200000 I2.616295 J-2.616295
G03 X358.702486 Y97.913486 Z-4.200000 I3.700000 J0.000781
G03 X361.318000 Y96.829781 Z-4.200000 I2.616295 J2.616295
G03 X363.933514 Y97.913486 Z-4.200000 I-0.000781 J3.700000
G03 X365.017219 Y100.529000 Z-4.200000 I-2.616295 J2.616295
G01 X365.017219 Y100.529000 Z-4.200000
G00 Z2.000000

(End cutting path id: circle33519)


(Start cutting path id: circle33519)
(Change tool to Cylindrical cutter)

G00 Z2.000000
G00 X365.017219 Y100.529000

G01 Z-4.900000 F100.0(Penetrate)
G03 X363.933514 Y103.144514 Z-4.900000 I-3.700000 J-0.000781 F150.000000
G03 X361.318000 Y104.228219 Z-4.900000 I-2.616295 J-2.616295
G03 X358.702486 Y103.144514 Z-4.900000 I0.000781 J-3.700000
G03 X357.618781 Y100.529000 Z-4.900000 I2.616295 J-2.616295
G03 X358.702486 Y97.913486 Z-4.900000 I3.700000 J0.000781
G03 X361.318000 Y96.829781 Z-4.900000 I2.616295 J2.616295
G03 X363.933514 Y97.913486 Z-4.900000 I-0.000781 J3.700000
G03 X365.017219 Y100.529000 Z-4.900000 I-2.616295 J2.616295
G01 X365.017219 Y100.529000 Z-4.900000
G00 Z2.000000

(End cutting path id: circle33519)


(Start cutting path id: circle33519)
(Change tool to Cylindrical cutter)

G00 Z2.000000
G00 X365.017219 Y100.529000

G01 Z-5.000000 F100.0(Penetrate)
G03 X363.933514 Y103.144514 Z-5.000000 I-3.700000 J-0.000781 F150.000000
G03 X361.318000 Y104.228219 Z-5.000000 I-2.616295 J-2.616295
G03 X358.702486 Y103.144514 Z-5.000000 I0.000781 J-3.700000
G03 X357.618781 Y100.529000 Z-5.000000 I2.616295 J-2.616295
G03 X358.702486 Y97.913486 Z-5.000000 I3.700000 J0.000781
G03 X361.318000 Y96.829781 Z-5.000000 I2.616295 J2.616295
G03 X363.933514 Y97.913486 Z-5.000000 I-0.000781 J3.700000
G03 X365.017219 Y100.529000 Z-5.000000 I-2.616295 J2.616295
G01 X365.017219 Y100.529000 Z-5.000000
G00 Z2.000000

(End cutting path id: circle33519)


(Footer)
M5
G00 X0.0000 Y0.0000
M2
(Using default footer. To add your own footer create file "footer" in the output dir.)
(end)
%