%
(Header)
(Generated by gcodetools from Inkscape.)
(Using default header. To add your own header create file "header" in the output dir.)
M3
(Header end.)
G21 (All units in mm)

(Start cutting path id: polyline33755)
(Change tool to Cylindrical cutter)

G00 Z2.000000
G00 X0.767300 Y176.528700

G01 Z-0.700000 F100.0(Penetrate)
G01 X32.653000 Y176.528700 Z-0.700000 F150.000000
G01 X372.767300 Y138.528700 Z-0.700000
G00 Z2.000000

(End cutting path id: polyline33755)


(Start cutting path id: polyline33755)
(Change tool to Cylindrical cutter)

G00 Z2.000000
G00 X0.767300 Y176.528700

G01 Z-1.400000 F100.0(Penetrate)
G01 X32.653000 Y176.528700 Z-1.400000 F150.000000
G01 X372.767300 Y138.528700 Z-1.400000
G00 Z2.000000

(End cutting path id: polyline33755)


(Start cutting path id: polyline33755)
(Change tool to Cylindrical cutter)

G00 Z2.000000
G00 X0.767300 Y176.528700

G01 Z-2.100000 F100.0(Penetrate)
G01 X32.653000 Y176.528700 Z-2.100000 F150.000000
G01 X372.767300 Y138.528700 Z-2.100000
G00 Z2.000000

(End cutting path id: polyline33755)


(Start cutting path id: polyline33755)
(Change tool to Cylindrical cutter)

G00 Z2.000000
G00 X0.767300 Y176.528700

G01 Z-2.800000 F100.0(Penetrate)
G01 X32.653000 Y176.528700 Z-2.800000 F150.000000
G01 X372.767300 Y138.528700 Z-2.800000
G00 Z2.000000

(End cutting path id: polyline33755)


(Start cutting path id: polyline33755)
(Change tool to Cylindrical cutter)

G00 Z2.000000
G00 X0.767300 Y176.528700

G01 Z-3.500000 F100.0(Penetrate)
G01 X32.653000 Y176.528700 Z-3.500000 F150.000000
G01 X372.767300 Y138.528700 Z-3.500000
G00 Z2.000000

(End cutting path id: polyline33755)


(Start cutting path id: polyline33755)
(Change tool to Cylindrical cutter)

G00 Z2.000000
G00 X0.767300 Y176.528700

G01 Z-4.200000 F100.0(Penetrate)
G01 X32.653000 Y176.528700 Z-4.200000 F150.000000
G01 X372.767300 Y138.528700 Z-4.200000
G00 Z2.000000

(End cutting path id: polyline33755)


(Start cutting path id: polyline33755)
(Change tool to Cylindrical cutter)

G00 Z2.000000
G00 X0.767300 Y176.528700

G01 Z-4.900000 F100.0(Penetrate)
G01 X32.653000 Y176.528700 Z-4.900000 F150.000000
G01 X372.767300 Y138.528700 Z-4.900000
G00 Z2.000000

(End cutting path id: polyline33755)


(Start cutting path id: polyline33755)
(Change tool to Cylindrical cutter)

G00 Z2.000000
G00 X0.767300 Y176.528700

G01 Z-5.000000 F100.0(Penetrate)
G01 X32.653000 Y176.528700 Z-5.000000 F150.000000
G01 X372.767300 Y138.528700 Z-5.000000
G00 Z2.000000

(End cutting path id: polyline33755)


(Start cutting path id: line33753)
(Change tool to Cylindrical cutter)

G00 Z2.000000
G00 X0.767302 Y24.528700

G01 Z-0.700000 F100.0(Penetrate)
G01 X0.767302 Y176.528700 Z-0.700000 F150.000000
G00 Z2.000000

(End cutting path id: line33753)


(Start cutting path id: line33753)
(Change tool to Cylindrical cutter)

G00 Z2.000000
G00 X0.767302 Y24.528700

G01 Z-1.400000 F100.0(Penetrate)
G01 X0.767302 Y176.528700 Z-1.400000 F150.000000
G00 Z2.000000

(End cutting path id: line33753)


(Start cutting path id: line33753)
(Change tool to Cylindrical cutter)

G00 Z2.000000
G00 X0.767302 Y24.528700

G01 Z-2.100000 F100.0(Penetrate)
G01 X0.767302 Y176.528700 Z-2.100000 F150.000000
G00 Z2.000000

(End cutting path id: line33753)


(Start cutting path id: line33753)
(Change tool to Cylindrical cutter)

G00 Z2.000000
G00 X0.767302 Y24.528700

G01 Z-2.800000 F100.0(Penetrate)
G01 X0.767302 Y176.528700 Z-2.800000 F150.000000
G00 Z2.000000

(End cutting path id: line33753)


(Start cutting path id: line33753)
(Change tool to Cylindrical cutter)

G00 Z2.000000
G00 X0.767302 Y24.528700

G01 Z-3.500000 F100.0(Penetrate)
G01 X0.767302 Y176.528700 Z-3.500000 F150.000000
G00 Z2.000000

(End cutting path id: line33753)


(Start cutting path id: line33753)
(Change tool to Cylindrical cutter)

G00 Z2.000000
G00 X0.767302 Y24.528700

G01 Z-4.200000 F100.0(Penetrate)
G01 X0.767302 Y176.528700 Z-4.200000 F150.000000
G00 Z2.000000

(End cutting path id: line33753)


(Start cutting path id: line33753)
(Change tool to Cylindrical cutter)

G00 Z2.000000
G00 X0.767302 Y24.528700

G01 Z-4.900000 F100.0(Penetrate)
G01 X0.767302 Y176.528700 Z-4.900000 F150.000000
G00 Z2.000000

(End cutting path id: line33753)


(Start cutting path id: line33753)
(Change tool to Cylindrical cutter)

G00 Z2.000000
G00 X0.767302 Y24.528700

G01 Z-5.000000 F100.0(Penetrate)
G01 X0.767302 Y176.528700 Z-5.000000 F150.000000
G00 Z2.000000

(End cutting path id: line33753)


(Start cutting path id: polyline33751)
(Change tool to Cylindrical cutter)

G00 Z2.000000
G00 X0.767300 Y24.528700

G01 Z-0.700000 F100.0(Penetrate)
G01 X32.653000 Y24.528700 Z-0.700000 F150.000000
G01 X40.006800 Y25.350400 Z-0.700000
G00 Z2.000000

(End cutting path id: polyline33751)


(Start cutting path id: polyline33751)
(Change tool to Cylindrical cutter)

G00 Z2.000000
G00 X0.767300 Y24.528700

G01 Z-1.400000 F100.0(Penetrate)
G01 X32.653000 Y24.528700 Z-1.400000 F150.000000
G01 X40.006800 Y25.350400 Z-1.400000
G00 Z2.000000

(End cutting path id: polyline33751)


(Start cutting path id: polyline33751)
(Change tool to Cylindrical cutter)

G00 Z2.000000
G00 X0.767300 Y24.528700

G01 Z-2.100000 F100.0(Penetrate)
G01 X32.653000 Y24.528700 Z-2.100000 F150.000000
G01 X40.006800 Y25.350400 Z-2.100000
G00 Z2.000000

(End cutting path id: polyline33751)


(Start cutting path id: polyline33751)
(Change tool to Cylindrical cutter)

G00 Z2.000000
G00 X0.767300 Y24.528700

G01 Z-2.800000 F100.0(Penetrate)
G01 X32.653000 Y24.528700 Z-2.800000 F150.000000
G01 X40.006800 Y25.350400 Z-2.800000
G00 Z2.000000

(End cutting path id: polyline33751)


(Start cutting path id: polyline33751)
(Change tool to Cylindrical cutter)

G00 Z2.000000
G00 X0.767300 Y24.528700

G01 Z-3.500000 F100.0(Penetrate)
G01 X32.653000 Y24.528700 Z-3.500000 F150.000000
G01 X40.006800 Y25.350400 Z-3.500000
G00 Z2.000000

(End cutting path id: polyline33751)


(Start cutting path id: polyline33751)
(Change tool to Cylindrical cutter)

G00 Z2.000000
G00 X0.767300 Y24.528700

G01 Z-4.200000 F100.0(Penetrate)
G01 X32.653000 Y24.528700 Z-4.200000 F150.000000
G01 X40.006800 Y25.350400 Z-4.200000
G00 Z2.000000

(End cutting path id: polyline33751)


(Start cutting path id: polyline33751)
(Change tool to Cylindrical cutter)

G00 Z2.000000
G00 X0.767300 Y24.528700

G01 Z-4.900000 F100.0(Penetrate)
G01 X32.653000 Y24.528700 Z-4.900000 F150.000000
G01 X40.006800 Y25.350400 Z-4.900000
G00 Z2.000000

(End cutting path id: polyline33751)


(Start cutting path id: polyline33751)
(Change tool to Cylindrical cutter)

G00 Z2.000000
G00 X0.767300 Y24.528700

G01 Z-5.000000 F100.0(Penetrate)
G01 X32.653000 Y24.528700 Z-5.000000 F150.000000
G01 X40.006800 Y25.350400 Z-5.000000
G00 Z2.000000

(End cutting path id: polyline33751)


(Start cutting path id: line33749)
(Change tool to Cylindrical cutter)

G00 Z2.000000
G00 X274.153900 Y51.514700

G01 Z-0.700000 F100.0(Penetrate)
G01 X130.326799 Y35.383200 Z-0.700000 F150.000000
G00 Z2.000000

(End cutting path id: line33749)


(Start cutting path id: line33749)
(Change tool to Cylindrical cutter)

G00 Z2.000000
G00 X274.153900 Y51.514700

G01 Z-1.400000 F100.0(Penetrate)
G01 X130.326799 Y35.383200 Z-1.400000 F150.000000
G00 Z2.000000

(End cutting path id: line33749)


(Start cutting path id: line33749)
(Change tool to Cylindrical cutter)

G00 Z2.000000
G00 X274.153900 Y51.514700

G01 Z-2.100000 F100.0(Penetrate)
G01 X130.326799 Y35.383200 Z-2.100000 F150.000000
G00 Z2.000000

(End cutting path id: line33749)


(Start cutting path id: line33749)
(Change tool to Cylindrical cutter)

G00 Z2.000000
G00 X274.153900 Y51.514700

G01 Z-2.800000 F100.0(Penetrate)
G01 X130.326799 Y35.383200 Z-2.800000 F150.000000
G00 Z2.000000

(End cutting path id: line33749)


(Start cutting path id: line33749)
(Change tool to Cylindrical cutter)

G00 Z2.000000
G00 X274.153900 Y51.514700

G01 Z-3.500000 F100.0(Penetrate)
G01 X130.326799 Y35.383200 Z-3.500000 F150.000000
G00 Z2.000000

(End cutting path id: line33749)


(Start cutting path id: line33749)
(Change tool to Cylindrical cutter)

G00 Z2.000000
G00 X274.153900 Y51.514700

G01 Z-4.200000 F100.0(Penetrate)
G01 X130.326799 Y35.383200 Z-4.200000 F150.000000
G00 Z2.000000

(End cutting path id: line33749)


(Start cutting path id: line33749)
(Change tool to Cylindrical cutter)

G00 Z2.000000
G00 X274.153900 Y51.514700

G01 Z-4.900000 F100.0(Penetrate)
G01 X130.326799 Y35.383200 Z-4.900000 F150.000000
G00 Z2.000000

(End cutting path id: line33749)


(Start cutting path id: line33749)
(Change tool to Cylindrical cutter)

G00 Z2.000000
G00 X274.153900 Y51.514700

G01 Z-5.000000 F100.0(Penetrate)
G01 X130.326799 Y35.383200 Z-5.000000 F150.000000
G00 Z2.000000

(End cutting path id: line33749)


(Start cutting path id: path33531)
(Change tool to Cylindrical cutter)

G00 Z2.000000
G00 X372.725100 Y1.181600

G01 Z-0.700000 F100.0(Penetrate)
G02 X367.030891 Y0.692162 Z-0.700000 I-11.401510 J99.278865 F150.000000
G02 X361.318300 Y0.528900 Z-0.700000 I-5.712591 J99.860775
G02 X310.828011 Y14.211420 Z-0.700000 I0.000000 J99.999148
G02 X274.153900 Y51.514700 Z-0.700000 I50.492343 J86.320140
G00 Z2.000000

(End cutting path id: path33531)


(Start cutting path id: path33531)
(Change tool to Cylindrical cutter)

G00 Z2.000000
G00 X372.725100 Y1.181600

G01 Z-1.400000 F100.0(Penetrate)
G02 X367.030891 Y0.692162 Z-1.400000 I-11.401510 J99.278865 F150.000000
G02 X361.318300 Y0.528900 Z-1.400000 I-5.712591 J99.860775
G02 X310.828011 Y14.211420 Z-1.400000 I0.000000 J99.999148
G02 X274.153900 Y51.514700 Z-1.400000 I50.492343 J86.320140
G00 Z2.000000

(End cutting path id: path33531)


(Start cutting path id: path33531)
(Change tool to Cylindrical cutter)

G00 Z2.000000
G00 X372.725100 Y1.181600

G01 Z-2.100000 F100.0(Penetrate)
G02 X367.030891 Y0.692162 Z-2.100000 I-11.401510 J99.278865 F150.000000
G02 X361.318300 Y0.528900 Z-2.100000 I-5.712591 J99.860775
G02 X310.828011 Y14.211420 Z-2.100000 I0.000000 J99.999148
G02 X274.153900 Y51.514700 Z-2.100000 I50.492343 J86.320140
G00 Z2.000000

(End cutting path id: path33531)


(Start cutting path id: path33531)
(Change tool to Cylindrical cutter)

G00 Z2.000000
G00 X372.725100 Y1.181600

G01 Z-2.800000 F100.0(Penetrate)
G02 X367.030891 Y0.692162 Z-2.800000 I-11.401510 J99.278865 F150.000000
G02 X361.318300 Y0.528900 Z-2.800000 I-5.712591 J99.860775
G02 X310.828011 Y14.211420 Z-2.800000 I0.000000 J99.999148
G02 X274.153900 Y51.514700 Z-2.800000 I50.492343 J86.320140
G00 Z2.000000

(End cutting path id: path33531)


(Start cutting path id: path33531)
(Change tool to Cylindrical cutter)

G00 Z2.000000
G00 X372.725100 Y1.181600

G01 Z-3.500000 F100.0(Penetrate)
G02 X367.030891 Y0.692162 Z-3.500000 I-11.401510 J99.278865 F150.000000
G02 X361.318300 Y0.528900 Z-3.500000 I-5.712591 J99.860775
G02 X310.828011 Y14.211420 Z-3.500000 I0.000000 J99.999148
G02 X274.153900 Y51.514700 Z-3.500000 I50.492343 J86.320140
G00 Z2.000000

(End cutting path id: path33531)


(Start cutting path id: path33531)
(Change tool to Cylindrical cutter)

G00 Z2.000000
G00 X372.725100 Y1.181600

G01 Z-4.200000 F100.0(Penetrate)
G02 X367.030891 Y0.692162 Z-4.200000 I-11.401510 J99.278865 F150.000000
G02 X361.318300 Y0.528900 Z-4.200000 I-5.712591 J99.860775
G02 X310.828011 Y14.211420 Z-4.200000 I0.000000 J99.999148
G02 X274.153900 Y51.514700 Z-4.200000 I50.492343 J86.320140
G00 Z2.000000

(End cutting path id: path33531)


(Start cutting path id: path33531)
(Change tool to Cylindrical cutter)

G00 Z2.000000
G00 X372.725100 Y1.181600

G01 Z-4.900000 F100.0(Penetrate)
G02 X367.030891 Y0.692162 Z-4.900000 I-11.401510 J99.278865 F150.000000
G02 X361.318300 Y0.528900 Z-4.900000 I-5.712591 J99.860775
G02 X310.828011 Y14.211420 Z-4.900000 I0.000000 J99.999148
G02 X274.153900 Y51.514700 Z-4.900000 I50.492343 J86.320140
G00 Z2.000000

(End cutting path id: path33531)


(Start cutting path id: path33531)
(Change tool to Cylindrical cutter)

G00 Z2.000000
G00 X372.725100 Y1.181600

G01 Z-5.000000 F100.0(Penetrate)
G02 X367.030891 Y0.692162 Z-5.000000 I-11.401510 J99.278865 F150.000000
G02 X361.318300 Y0.528900 Z-5.000000 I-5.712591 J99.860775
G02 X310.828011 Y14.211420 Z-5.000000 I0.000000 J99.999148
G02 X274.153900 Y51.514700 Z-5.000000 I50.492343 J86.320140
G00 Z2.000000

(End cutting path id: path33531)


(Start cutting path id: line33529)
(Change tool to Cylindrical cutter)

G00 Z2.000000
G00 X372.767300 Y138.528696

G01 Z-0.700000 F100.0(Penetrate)
G01 X372.767300 Y1.087200 Z-0.700000 F150.000000
G00 Z2.000000

(End cutting path id: line33529)


(Start cutting path id: line33529)
(Change tool to Cylindrical cutter)

G00 Z2.000000
G00 X372.767300 Y138.528696

G01 Z-1.400000 F100.0(Penetrate)
G01 X372.767300 Y1.087200 Z-1.400000 F150.000000
G00 Z2.000000

(End cutting path id: line33529)


(Start cutting path id: line33529)
(Change tool to Cylindrical cutter)

G00 Z2.000000
G00 X372.767300 Y138.528696

G01 Z-2.100000 F100.0(Penetrate)
G01 X372.767300 Y1.087200 Z-2.100000 F150.000000
G00 Z2.000000

(End cutting path id: line33529)


(Start cutting path id: line33529)
(Change tool to Cylindrical cutter)

G00 Z2.000000
G00 X372.767300 Y138.528696

G01 Z-2.800000 F100.0(Penetrate)
G01 X372.767300 Y1.087200 Z-2.800000 F150.000000
G00 Z2.000000

(End cutting path id: line33529)


(Start cutting path id: line33529)
(Change tool to Cylindrical cutter)

G00 Z2.000000
G00 X372.767300 Y138.528696

G01 Z-3.500000 F100.0(Penetrate)
G01 X372.767300 Y1.087200 Z-3.500000 F150.000000
G00 Z2.000000

(End cutting path id: line33529)


(Start cutting path id: line33529)
(Change tool to Cylindrical cutter)

G00 Z2.000000
G00 X372.767300 Y138.528696

G01 Z-4.200000 F100.0(Penetrate)
G01 X372.767300 Y1.087200 Z-4.200000 F150.000000
G00 Z2.000000

(End cutting path id: line33529)


(Start cutting path id: line33529)
(Change tool to Cylindrical cutter)

G00 Z2.000000
G00 X372.767300 Y138.528696

G01 Z-4.900000 F100.0(Penetrate)
G01 X372.767300 Y1.087200 Z-4.900000 F150.000000
G00 Z2.000000

(End cutting path id: line33529)


(Start cutting path id: line33529)
(Change tool to Cylindrical cutter)

G00 Z2.000000
G00 X372.767300 Y138.528696

G01 Z-5.000000 F100.0(Penetrate)
G01 X372.767300 Y1.087200 Z-5.000000 F150.000000
G00 Z2.000000

(End cutting path id: line33529)


(Start cutting path id: rect33525)
(Change tool to Cylindrical cutter)

G00 Z2.000000
G00 X121.404000 Y94.247000

G01 Z-0.700000 F100.0(Penetrate)
G01 X121.404000 Y94.217500 Z-0.700000 F150.000000
G01 X31.404000 Y94.217500 Z-0.700000
G01 X31.404000 Y94.247000 Z-0.700000
G01 X121.404000 Y94.247000 Z-0.700000
G00 Z2.000000

(End cutting path id: rect33525)


(Start cutting path id: rect33525)
(Change tool to Cylindrical cutter)

G00 Z2.000000
G00 X121.404000 Y94.247000

G01 Z-1.400000 F100.0(Penetrate)
G01 X121.404000 Y94.217500 Z-1.400000 F150.000000
G01 X31.404000 Y94.217500 Z-1.400000
G01 X31.404000 Y94.247000 Z-1.400000
G01 X121.404000 Y94.247000 Z-1.400000
G00 Z2.000000

(End cutting path id: rect33525)


(Start cutting path id: rect33525)
(Change tool to Cylindrical cutter)

G00 Z2.000000
G00 X121.404000 Y94.247000

G01 Z-2.100000 F100.0(Penetrate)
G01 X121.404000 Y94.217500 Z-2.100000 F150.000000
G01 X31.404000 Y94.217500 Z-2.100000
G01 X31.404000 Y94.247000 Z-2.100000
G01 X121.404000 Y94.247000 Z-2.100000
G00 Z2.000000

(End cutting path id: rect33525)


(Start cutting path id: rect33525)
(Change tool to Cylindrical cutter)

G00 Z2.000000
G00 X121.404000 Y94.247000

G01 Z-2.800000 F100.0(Penetrate)
G01 X121.404000 Y94.217500 Z-2.800000 F150.000000
G01 X31.404000 Y94.217500 Z-2.800000
G01 X31.404000 Y94.247000 Z-2.800000
G01 X121.404000 Y94.247000 Z-2.800000
G00 Z2.000000

(End cutting path id: rect33525)


(Start cutting path id: rect33525)
(Change tool to Cylindrical cutter)

G00 Z2.000000
G00 X121.404000 Y94.247000

G01 Z-3.500000 F100.0(Penetrate)
G01 X121.404000 Y94.217500 Z-3.500000 F150.000000
G01 X31.404000 Y94.217500 Z-3.500000
G01 X31.404000 Y94.247000 Z-3.500000
G01 X121.404000 Y94.247000 Z-3.500000
G00 Z2.000000

(End cutting path id: rect33525)


(Start cutting path id: rect33525)
(Change tool to Cylindrical cutter)

G00 Z2.000000
G00 X121.404000 Y94.247000

G01 Z-4.200000 F100.0(Penetrate)
G01 X121.404000 Y94.217500 Z-4.200000 F150.000000
G01 X31.404000 Y94.217500 Z-4.200000
G01 X31.404000 Y94.247000 Z-4.200000
G01 X121.404000 Y94.247000 Z-4.200000
G00 Z2.000000

(End cutting path id: rect33525)


(Start cutting path id: rect33525)
(Change tool to Cylindrical cutter)

G00 Z2.000000
G00 X121.404000 Y94.247000

G01 Z-4.900000 F100.0(Penetrate)
G01 X121.404000 Y94.217500 Z-4.900000 F150.000000
G01 X31.404000 Y94.217500 Z-4.900000
G01 X31.404000 Y94.247000 Z-4.900000
G01 X121.404000 Y94.247000 Z-4.900000
G00 Z2.000000

(End cutting path id: rect33525)


(Start cutting path id: rect33525)
(Change tool to Cylindrical cutter)

G00 Z2.000000
G00 X121.404000 Y94.247000

G01 Z-5.000000 F100.0(Penetrate)
G01 X121.404000 Y94.217500 Z-5.000000 F150.000000
G01 X31.404000 Y94.217500 Z-5.000000
G01 X31.404000 Y94.247000 Z-5.000000
G01 X121.404000 Y94.247000 Z-5.000000
G00 Z2.000000

(End cutting path id: rect33525)


(Start cutting path id: path33523)
(Change tool to Cylindrical cutter)

G00 Z2.000000
G00 X39.968600 Y25.453900

G01 Z-0.700000 F100.0(Penetrate)
G02 X33.863089 Y59.597549 Z-0.700000 I321.288269 J75.069949 F150.000000
G02 X31.375700 Y94.193400 Z-0.700000 I327.396816 J40.926680
G00 Z2.000000

(End cutting path id: path33523)


(Start cutting path id: path33523)
(Change tool to Cylindrical cutter)

G00 Z2.000000
G00 X39.968600 Y25.453900

G01 Z-1.400000 F100.0(Penetrate)
G02 X33.863089 Y59.597549 Z-1.400000 I321.288269 J75.069949 F150.000000
G02 X31.375700 Y94.193400 Z-1.400000 I327.396816 J40.926680
G00 Z2.000000

(End cutting path id: path33523)


(Start cutting path id: path33523)
(Change tool to Cylindrical cutter)

G00 Z2.000000
G00 X39.968600 Y25.453900

G01 Z-2.100000 F100.0(Penetrate)
G02 X33.863089 Y59.597549 Z-2.100000 I321.288269 J75.069949 F150.000000
G02 X31.375700 Y94.193400 Z-2.100000 I327.396816 J40.926680
G00 Z2.000000

(End cutting path id: path33523)


(Start cutting path id: path33523)
(Change tool to Cylindrical cutter)

G00 Z2.000000
G00 X39.968600 Y25.453900

G01 Z-2.800000 F100.0(Penetrate)
G02 X33.863089 Y59.597549 Z-2.800000 I321.288269 J75.069949 F150.000000
G02 X31.375700 Y94.193400 Z-2.800000 I327.396816 J40.926680
G00 Z2.000000

(End cutting path id: path33523)


(Start cutting path id: path33523)
(Change tool to Cylindrical cutter)

G00 Z2.000000
G00 X39.968600 Y25.453900

G01 Z-3.500000 F100.0(Penetrate)
G02 X33.863089 Y59.597549 Z-3.500000 I321.288269 J75.069949 F150.000000
G02 X31.375700 Y94.193400 Z-3.500000 I327.396816 J40.926680
G00 Z2.000000

(End cutting path id: path33523)


(Start cutting path id: path33523)
(Change tool to Cylindrical cutter)

G00 Z2.000000
G00 X39.968600 Y25.453900

G01 Z-4.200000 F100.0(Penetrate)
G02 X33.863089 Y59.597549 Z-4.200000 I321.288269 J75.069949 F150.000000
G02 X31.375700 Y94.193400 Z-4.200000 I327.396816 J40.926680
G00 Z2.000000

(End cutting path id: path33523)


(Start cutting path id: path33523)
(Change tool to Cylindrical cutter)

G00 Z2.000000
G00 X39.968600 Y25.453900

G01 Z-4.900000 F100.0(Penetrate)
G02 X33.863089 Y59.597549 Z-4.900000 I321.288269 J75.069949 F150.000000
G02 X31.375700 Y94.193400 Z-4.900000 I327.396816 J40.926680
G00 Z2.000000

(End cutting path id: path33523)


(Start cutting path id: path33523)
(Change tool to Cylindrical cutter)

G00 Z2.000000
G00 X39.968600 Y25.453900

G01 Z-5.000000 F100.0(Penetrate)
G02 X33.863089 Y59.597549 Z-5.000000 I321.288269 J75.069949 F150.000000
G02 X31.375700 Y94.193400 Z-5.000000 I327.396816 J40.926680
G00 Z2.000000

(End cutting path id: path33523)


(Start cutting path id: path33521)
(Change tool to Cylindrical cutter)

G00 Z2.000000
G00 X130.326800 Y35.383200

G01 Z-0.700000 F100.0(Penetrate)
G02 X124.029818 Y64.536366 Z-0.700000 I230.968695 J65.145078 F150.000000
G02 X121.397700 Y94.246300 Z-0.700000 I237.264610 J35.991750
G00 Z2.000000

(End cutting path id: path33521)


(Start cutting path id: path33521)
(Change tool to Cylindrical cutter)

G00 Z2.000000
G00 X130.326800 Y35.383200

G01 Z-1.400000 F100.0(Penetrate)
G02 X124.029818 Y64.536366 Z-1.400000 I230.968695 J65.145078 F150.000000
G02 X121.397700 Y94.246300 Z-1.400000 I237.264610 J35.991750
G00 Z2.000000

(End cutting path id: path33521)


(Start cutting path id: path33521)
(Change tool to Cylindrical cutter)

G00 Z2.000000
G00 X130.326800 Y35.383200

G01 Z-2.100000 F100.0(Penetrate)
G02 X124.029818 Y64.536366 Z-2.100000 I230.968695 J65.145078 F150.000000
G02 X121.397700 Y94.246300 Z-2.100000 I237.264610 J35.991750
G00 Z2.000000

(End cutting path id: path33521)


(Start cutting path id: path33521)
(Change tool to Cylindrical cutter)

G00 Z2.000000
G00 X130.326800 Y35.383200

G01 Z-2.800000 F100.0(Penetrate)
G02 X124.029818 Y64.536366 Z-2.800000 I230.968695 J65.145078 F150.000000
G02 X121.397700 Y94.246300 Z-2.800000 I237.264610 J35.991750
G00 Z2.000000

(End cutting path id: path33521)


(Start cutting path id: path33521)
(Change tool to Cylindrical cutter)

G00 Z2.000000
G00 X130.326800 Y35.383200

G01 Z-3.500000 F100.0(Penetrate)
G02 X124.029818 Y64.536366 Z-3.500000 I230.968695 J65.145078 F150.000000
G02 X121.397700 Y94.246300 Z-3.500000 I237.264610 J35.991750
G00 Z2.000000

(End cutting path id: path33521)


(Start cutting path id: path33521)
(Change tool to Cylindrical cutter)

G00 Z2.000000
G00 X130.326800 Y35.383200

G01 Z-4.200000 F100.0(Penetrate)
G02 X124.029818 Y64.536366 Z-4.200000 I230.968695 J65.145078 F150.000000
G02 X121.397700 Y94.246300 Z-4.200000 I237.264610 J35.991750
G00 Z2.000000

(End cutting path id: path33521)


(Start cutting path id: path33521)
(Change tool to Cylindrical cutter)

G00 Z2.000000
G00 X130.326800 Y35.383200

G01 Z-4.900000 F100.0(Penetrate)
G02 X124.029818 Y64.536366 Z-4.900000 I230.968695 J65.145078 F150.000000
G02 X121.397700 Y94.246300 Z-4.900000 I237.264610 J35.991750
G00 Z2.000000

(End cutting path id: path33521)


(Start cutting path id: path33521)
(Change tool to Cylindrical cutter)

G00 Z2.000000
G00 X130.326800 Y35.383200

G01 Z-5.000000 F100.0(Penetrate)
G02 X124.029818 Y64.536366 Z-5.000000 I230.968695 J65.145078 F150.000000
G02 X121.397700 Y94.246300 Z-5.000000 I237.264610 J35.991750
G00 Z2.000000

(End cutting path id: path33521)


(Footer)
M5
G00 X0.0000 Y0.0000
M2
(Using default footer. To add your own footer create file "footer" in the output dir.)
(end)
%