%
(Header)
(Generated by gcodetools from Inkscape.)
(Using default header. To add your own header create file "header" in the output dir.)
M3
(Header end.)
G21 (All units in mm)

(Start cutting path id: circle32)
(Change tool to Cylindrical cutter)

G00 Z2.000000
G00 X52.503498 Y4.171201

G01 Z-0.700000 F100.0(Penetrate)
G02 X52.465438 Y3.979859 Z-0.700000 I-0.500000 J-0.000000 F120.000000
G02 X52.357051 Y3.817648 Z-0.700000 I-0.461940 J0.191342
G02 X52.194840 Y3.709261 Z-0.700000 I-0.353553 J0.353553
G02 X52.003498 Y3.671201 Z-0.700000 I-0.191342 J0.461940
G02 X51.812156 Y3.709261 Z-0.700000 I0.000000 J0.500000
G02 X51.649945 Y3.817648 Z-0.700000 I0.191342 J0.461940
G02 X51.541558 Y3.979859 Z-0.700000 I0.353553 J0.353553
G02 X51.503498 Y4.171201 Z-0.700000 I0.461940 J0.191342
G02 X51.541558 Y4.362543 Z-0.700000 I0.500000 J0.000000
G02 X51.649945 Y4.524754 Z-0.700000 I0.461940 J-0.191342
G02 X51.812156 Y4.633141 Z-0.700000 I0.353553 J-0.353553
G02 X52.003498 Y4.671201 Z-0.700000 I0.191342 J-0.461940
G02 X52.194840 Y4.633141 Z-0.700000 I-0.000000 J-0.500000
G02 X52.357051 Y4.524754 Z-0.700000 I-0.191342 J-0.461940
G02 X52.465438 Y4.362543 Z-0.700000 I-0.353553 J-0.353553
G02 X52.503498 Y4.171201 Z-0.700000 I-0.461940 J-0.191342
G01 X52.503498 Y4.171201 Z-0.700000
G00 Z2.000000

(End cutting path id: circle32)


(Start cutting path id: circle32)
(Change tool to Cylindrical cutter)

G00 Z2.000000
G00 X52.503498 Y4.171201

G01 Z-1.400000 F100.0(Penetrate)
G02 X52.465438 Y3.979859 Z-1.400000 I-0.500000 J-0.000000 F120.000000
G02 X52.357051 Y3.817648 Z-1.400000 I-0.461940 J0.191342
G02 X52.194840 Y3.709261 Z-1.400000 I-0.353553 J0.353553
G02 X52.003498 Y3.671201 Z-1.400000 I-0.191342 J0.461940
G02 X51.812156 Y3.709261 Z-1.400000 I0.000000 J0.500000
G02 X51.649945 Y3.817648 Z-1.400000 I0.191342 J0.461940
G02 X51.541558 Y3.979859 Z-1.400000 I0.353553 J0.353553
G02 X51.503498 Y4.171201 Z-1.400000 I0.461940 J0.191342
G02 X51.541558 Y4.362543 Z-1.400000 I0.500000 J0.000000
G02 X51.649945 Y4.524754 Z-1.400000 I0.461940 J-0.191342
G02 X51.812156 Y4.633141 Z-1.400000 I0.353553 J-0.353553
G02 X52.003498 Y4.671201 Z-1.400000 I0.191342 J-0.461940
G02 X52.194840 Y4.633141 Z-1.400000 I-0.000000 J-0.500000
G02 X52.357051 Y4.524754 Z-1.400000 I-0.191342 J-0.461940
G02 X52.465438 Y4.362543 Z-1.400000 I-0.353553 J-0.353553
G02 X52.503498 Y4.171201 Z-1.400000 I-0.461940 J-0.191342
G01 X52.503498 Y4.171201 Z-1.400000
G00 Z2.000000

(End cutting path id: circle32)


(Start cutting path id: circle32)
(Change tool to Cylindrical cutter)

G00 Z2.000000
G00 X52.503498 Y4.171201

G01 Z-2.100000 F100.0(Penetrate)
G02 X52.465438 Y3.979859 Z-2.100000 I-0.500000 J-0.000000 F120.000000
G02 X52.357051 Y3.817648 Z-2.100000 I-0.461940 J0.191342
G02 X52.194840 Y3.709261 Z-2.100000 I-0.353553 J0.353553
G02 X52.003498 Y3.671201 Z-2.100000 I-0.191342 J0.461940
G02 X51.812156 Y3.709261 Z-2.100000 I0.000000 J0.500000
G02 X51.649945 Y3.817648 Z-2.100000 I0.191342 J0.461940
G02 X51.541558 Y3.979859 Z-2.100000 I0.353553 J0.353553
G02 X51.503498 Y4.171201 Z-2.100000 I0.461940 J0.191342
G02 X51.541558 Y4.362543 Z-2.100000 I0.500000 J0.000000
G02 X51.649945 Y4.524754 Z-2.100000 I0.461940 J-0.191342
G02 X51.812156 Y4.633141 Z-2.100000 I0.353553 J-0.353553
G02 X52.003498 Y4.671201 Z-2.100000 I0.191342 J-0.461940
G02 X52.194840 Y4.633141 Z-2.100000 I-0.000000 J-0.500000
G02 X52.357051 Y4.524754 Z-2.100000 I-0.191342 J-0.461940
G02 X52.465438 Y4.362543 Z-2.100000 I-0.353553 J-0.353553
G02 X52.503498 Y4.171201 Z-2.100000 I-0.461940 J-0.191342
G01 X52.503498 Y4.171201 Z-2.100000
G00 Z2.000000

(End cutting path id: circle32)


(Start cutting path id: circle32)
(Change tool to Cylindrical cutter)

G00 Z2.000000
G00 X52.503498 Y4.171201

G01 Z-2.800000 F100.0(Penetrate)
G02 X52.465438 Y3.979859 Z-2.800000 I-0.500000 J-0.000000 F120.000000
G02 X52.357051 Y3.817648 Z-2.800000 I-0.461940 J0.191342
G02 X52.194840 Y3.709261 Z-2.800000 I-0.353553 J0.353553
G02 X52.003498 Y3.671201 Z-2.800000 I-0.191342 J0.461940
G02 X51.812156 Y3.709261 Z-2.800000 I0.000000 J0.500000
G02 X51.649945 Y3.817648 Z-2.800000 I0.191342 J0.461940
G02 X51.541558 Y3.979859 Z-2.800000 I0.353553 J0.353553
G02 X51.503498 Y4.171201 Z-2.800000 I0.461940 J0.191342
G02 X51.541558 Y4.362543 Z-2.800000 I0.500000 J0.000000
G02 X51.649945 Y4.524754 Z-2.800000 I0.461940 J-0.191342
G02 X51.812156 Y4.633141 Z-2.800000 I0.353553 J-0.353553
G02 X52.003498 Y4.671201 Z-2.800000 I0.191342 J-0.461940
G02 X52.194840 Y4.633141 Z-2.800000 I-0.000000 J-0.500000
G02 X52.357051 Y4.524754 Z-2.800000 I-0.191342 J-0.461940
G02 X52.465438 Y4.362543 Z-2.800000 I-0.353553 J-0.353553
G02 X52.503498 Y4.171201 Z-2.800000 I-0.461940 J-0.191342
G01 X52.503498 Y4.171201 Z-2.800000
G00 Z2.000000

(End cutting path id: circle32)


(Start cutting path id: circle32)
(Change tool to Cylindrical cutter)

G00 Z2.000000
G00 X52.503498 Y4.171201

G01 Z-3.500000 F100.0(Penetrate)
G02 X52.465438 Y3.979859 Z-3.500000 I-0.500000 J-0.000000 F120.000000
G02 X52.357051 Y3.817648 Z-3.500000 I-0.461940 J0.191342
G02 X52.194840 Y3.709261 Z-3.500000 I-0.353553 J0.353553
G02 X52.003498 Y3.671201 Z-3.500000 I-0.191342 J0.461940
G02 X51.812156 Y3.709261 Z-3.500000 I0.000000 J0.500000
G02 X51.649945 Y3.817648 Z-3.500000 I0.191342 J0.461940
G02 X51.541558 Y3.979859 Z-3.500000 I0.353553 J0.353553
G02 X51.503498 Y4.171201 Z-3.500000 I0.461940 J0.191342
G02 X51.541558 Y4.362543 Z-3.500000 I0.500000 J0.000000
G02 X51.649945 Y4.524754 Z-3.500000 I0.461940 J-0.191342
G02 X51.812156 Y4.633141 Z-3.500000 I0.353553 J-0.353553
G02 X52.003498 Y4.671201 Z-3.500000 I0.191342 J-0.461940
G02 X52.194840 Y4.633141 Z-3.500000 I-0.000000 J-0.500000
G02 X52.357051 Y4.524754 Z-3.500000 I-0.191342 J-0.461940
G02 X52.465438 Y4.362543 Z-3.500000 I-0.353553 J-0.353553
G02 X52.503498 Y4.171201 Z-3.500000 I-0.461940 J-0.191342
G01 X52.503498 Y4.171201 Z-3.500000
G00 Z2.000000

(End cutting path id: circle32)


(Start cutting path id: circle32)
(Change tool to Cylindrical cutter)

G00 Z2.000000
G00 X52.503498 Y4.171201

G01 Z-4.200000 F100.0(Penetrate)
G02 X52.465438 Y3.979859 Z-4.200000 I-0.500000 J-0.000000 F120.000000
G02 X52.357051 Y3.817648 Z-4.200000 I-0.461940 J0.191342
G02 X52.194840 Y3.709261 Z-4.200000 I-0.353553 J0.353553
G02 X52.003498 Y3.671201 Z-4.200000 I-0.191342 J0.461940
G02 X51.812156 Y3.709261 Z-4.200000 I0.000000 J0.500000
G02 X51.649945 Y3.817648 Z-4.200000 I0.191342 J0.461940
G02 X51.541558 Y3.979859 Z-4.200000 I0.353553 J0.353553
G02 X51.503498 Y4.171201 Z-4.200000 I0.461940 J0.191342
G02 X51.541558 Y4.362543 Z-4.200000 I0.500000 J0.000000
G02 X51.649945 Y4.524754 Z-4.200000 I0.461940 J-0.191342
G02 X51.812156 Y4.633141 Z-4.200000 I0.353553 J-0.353553
G02 X52.003498 Y4.671201 Z-4.200000 I0.191342 J-0.461940
G02 X52.194840 Y4.633141 Z-4.200000 I-0.000000 J-0.500000
G02 X52.357051 Y4.524754 Z-4.200000 I-0.191342 J-0.461940
G02 X52.465438 Y4.362543 Z-4.200000 I-0.353553 J-0.353553
G02 X52.503498 Y4.171201 Z-4.200000 I-0.461940 J-0.191342
G01 X52.503498 Y4.171201 Z-4.200000
G00 Z2.000000

(End cutting path id: circle32)


(Start cutting path id: circle32)
(Change tool to Cylindrical cutter)

G00 Z2.000000
G00 X52.503498 Y4.171201

G01 Z-4.500000 F100.0(Penetrate)
G02 X52.465438 Y3.979859 Z-4.500000 I-0.500000 J-0.000000 F120.000000
G02 X52.357051 Y3.817648 Z-4.500000 I-0.461940 J0.191342
G02 X52.194840 Y3.709261 Z-4.500000 I-0.353553 J0.353553
G02 X52.003498 Y3.671201 Z-4.500000 I-0.191342 J0.461940
G02 X51.812156 Y3.709261 Z-4.500000 I0.000000 J0.500000
G02 X51.649945 Y3.817648 Z-4.500000 I0.191342 J0.461940
G02 X51.541558 Y3.979859 Z-4.500000 I0.353553 J0.353553
G02 X51.503498 Y4.171201 Z-4.500000 I0.461940 J0.191342
G02 X51.541558 Y4.362543 Z-4.500000 I0.500000 J0.000000
G02 X51.649945 Y4.524754 Z-4.500000 I0.461940 J-0.191342
G02 X51.812156 Y4.633141 Z-4.500000 I0.353553 J-0.353553
G02 X52.003498 Y4.671201 Z-4.500000 I0.191342 J-0.461940
G02 X52.194840 Y4.633141 Z-4.500000 I-0.000000 J-0.500000
G02 X52.357051 Y4.524754 Z-4.500000 I-0.191342 J-0.461940
G02 X52.465438 Y4.362543 Z-4.500000 I-0.353553 J-0.353553
G02 X52.503498 Y4.171201 Z-4.500000 I-0.461940 J-0.191342
G01 X52.503498 Y4.171201 Z-4.500000
G00 Z2.000000

(End cutting path id: circle32)


(Start cutting path id: circle30)
(Change tool to Cylindrical cutter)

G00 Z2.000000
G00 X35.840401 Y4.171201

G01 Z-0.700000 F100.0(Penetrate)
G02 X35.802341 Y3.979859 Z-0.700000 I-0.500000 J-0.000000 F120.000000
G02 X35.693954 Y3.817648 Z-0.700000 I-0.461940 J0.191342
G02 X35.531743 Y3.709261 Z-0.700000 I-0.353553 J0.353553
G02 X35.340401 Y3.671201 Z-0.700000 I-0.191342 J0.461940
G02 X35.149059 Y3.709261 Z-0.700000 I0.000000 J0.500000
G02 X34.986848 Y3.817648 Z-0.700000 I0.191342 J0.461940
G02 X34.878461 Y3.979859 Z-0.700000 I0.353553 J0.353553
G02 X34.840401 Y4.171201 Z-0.700000 I0.461940 J0.191342
G02 X34.878461 Y4.362543 Z-0.700000 I0.500000 J0.000000
G02 X34.986848 Y4.524754 Z-0.700000 I0.461940 J-0.191342
G02 X35.149059 Y4.633141 Z-0.700000 I0.353553 J-0.353553
G02 X35.340401 Y4.671201 Z-0.700000 I0.191342 J-0.461940
G02 X35.531743 Y4.633141 Z-0.700000 I-0.000000 J-0.500000
G02 X35.693954 Y4.524754 Z-0.700000 I-0.191342 J-0.461940
G02 X35.802341 Y4.362543 Z-0.700000 I-0.353553 J-0.353553
G02 X35.840401 Y4.171201 Z-0.700000 I-0.461940 J-0.191342
G01 X35.840401 Y4.171201 Z-0.700000
G00 Z2.000000

(End cutting path id: circle30)


(Start cutting path id: circle30)
(Change tool to Cylindrical cutter)

G00 Z2.000000
G00 X35.840401 Y4.171201

G01 Z-1.400000 F100.0(Penetrate)
G02 X35.802341 Y3.979859 Z-1.400000 I-0.500000 J-0.000000 F120.000000
G02 X35.693954 Y3.817648 Z-1.400000 I-0.461940 J0.191342
G02 X35.531743 Y3.709261 Z-1.400000 I-0.353553 J0.353553
G02 X35.340401 Y3.671201 Z-1.400000 I-0.191342 J0.461940
G02 X35.149059 Y3.709261 Z-1.400000 I0.000000 J0.500000
G02 X34.986848 Y3.817648 Z-1.400000 I0.191342 J0.461940
G02 X34.878461 Y3.979859 Z-1.400000 I0.353553 J0.353553
G02 X34.840401 Y4.171201 Z-1.400000 I0.461940 J0.191342
G02 X34.878461 Y4.362543 Z-1.400000 I0.500000 J0.000000
G02 X34.986848 Y4.524754 Z-1.400000 I0.461940 J-0.191342
G02 X35.149059 Y4.633141 Z-1.400000 I0.353553 J-0.353553
G02 X35.340401 Y4.671201 Z-1.400000 I0.191342 J-0.461940
G02 X35.531743 Y4.633141 Z-1.400000 I-0.000000 J-0.500000
G02 X35.693954 Y4.524754 Z-1.400000 I-0.191342 J-0.461940
G02 X35.802341 Y4.362543 Z-1.400000 I-0.353553 J-0.353553
G02 X35.840401 Y4.171201 Z-1.400000 I-0.461940 J-0.191342
G01 X35.840401 Y4.171201 Z-1.400000
G00 Z2.000000

(End cutting path id: circle30)


(Start cutting path id: circle30)
(Change tool to Cylindrical cutter)

G00 Z2.000000
G00 X35.840401 Y4.171201

G01 Z-2.100000 F100.0(Penetrate)
G02 X35.802341 Y3.979859 Z-2.100000 I-0.500000 J-0.000000 F120.000000
G02 X35.693954 Y3.817648 Z-2.100000 I-0.461940 J0.191342
G02 X35.531743 Y3.709261 Z-2.100000 I-0.353553 J0.353553
G02 X35.340401 Y3.671201 Z-2.100000 I-0.191342 J0.461940
G02 X35.149059 Y3.709261 Z-2.100000 I0.000000 J0.500000
G02 X34.986848 Y3.817648 Z-2.100000 I0.191342 J0.461940
G02 X34.878461 Y3.979859 Z-2.100000 I0.353553 J0.353553
G02 X34.840401 Y4.171201 Z-2.100000 I0.461940 J0.191342
G02 X34.878461 Y4.362543 Z-2.100000 I0.500000 J0.000000
G02 X34.986848 Y4.524754 Z-2.100000 I0.461940 J-0.191342
G02 X35.149059 Y4.633141 Z-2.100000 I0.353553 J-0.353553
G02 X35.340401 Y4.671201 Z-2.100000 I0.191342 J-0.461940
G02 X35.531743 Y4.633141 Z-2.100000 I-0.000000 J-0.500000
G02 X35.693954 Y4.524754 Z-2.100000 I-0.191342 J-0.461940
G02 X35.802341 Y4.362543 Z-2.100000 I-0.353553 J-0.353553
G02 X35.840401 Y4.171201 Z-2.100000 I-0.461940 J-0.191342
G01 X35.840401 Y4.171201 Z-2.100000
G00 Z2.000000

(End cutting path id: circle30)


(Start cutting path id: circle30)
(Change tool to Cylindrical cutter)

G00 Z2.000000
G00 X35.840401 Y4.171201

G01 Z-2.800000 F100.0(Penetrate)
G02 X35.802341 Y3.979859 Z-2.800000 I-0.500000 J-0.000000 F120.000000
G02 X35.693954 Y3.817648 Z-2.800000 I-0.461940 J0.191342
G02 X35.531743 Y3.709261 Z-2.800000 I-0.353553 J0.353553
G02 X35.340401 Y3.671201 Z-2.800000 I-0.191342 J0.461940
G02 X35.149059 Y3.709261 Z-2.800000 I0.000000 J0.500000
G02 X34.986848 Y3.817648 Z-2.800000 I0.191342 J0.461940
G02 X34.878461 Y3.979859 Z-2.800000 I0.353553 J0.353553
G02 X34.840401 Y4.171201 Z-2.800000 I0.461940 J0.191342
G02 X34.878461 Y4.362543 Z-2.800000 I0.500000 J0.000000
G02 X34.986848 Y4.524754 Z-2.800000 I0.461940 J-0.191342
G02 X35.149059 Y4.633141 Z-2.800000 I0.353553 J-0.353553
G02 X35.340401 Y4.671201 Z-2.800000 I0.191342 J-0.461940
G02 X35.531743 Y4.633141 Z-2.800000 I-0.000000 J-0.500000
G02 X35.693954 Y4.524754 Z-2.800000 I-0.191342 J-0.461940
G02 X35.802341 Y4.362543 Z-2.800000 I-0.353553 J-0.353553
G02 X35.840401 Y4.171201 Z-2.800000 I-0.461940 J-0.191342
G01 X35.840401 Y4.171201 Z-2.800000
G00 Z2.000000

(End cutting path id: circle30)


(Start cutting path id: circle30)
(Change tool to Cylindrical cutter)

G00 Z2.000000
G00 X35.840401 Y4.171201

G01 Z-3.500000 F100.0(Penetrate)
G02 X35.802341 Y3.979859 Z-3.500000 I-0.500000 J-0.000000 F120.000000
G02 X35.693954 Y3.817648 Z-3.500000 I-0.461940 J0.191342
G02 X35.531743 Y3.709261 Z-3.500000 I-0.353553 J0.353553
G02 X35.340401 Y3.671201 Z-3.500000 I-0.191342 J0.461940
G02 X35.149059 Y3.709261 Z-3.500000 I0.000000 J0.500000
G02 X34.986848 Y3.817648 Z-3.500000 I0.191342 J0.461940
G02 X34.878461 Y3.979859 Z-3.500000 I0.353553 J0.353553
G02 X34.840401 Y4.171201 Z-3.500000 I0.461940 J0.191342
G02 X34.878461 Y4.362543 Z-3.500000 I0.500000 J0.000000
G02 X34.986848 Y4.524754 Z-3.500000 I0.461940 J-0.191342
G02 X35.149059 Y4.633141 Z-3.500000 I0.353553 J-0.353553
G02 X35.340401 Y4.671201 Z-3.500000 I0.191342 J-0.461940
G02 X35.531743 Y4.633141 Z-3.500000 I-0.000000 J-0.500000
G02 X35.693954 Y4.524754 Z-3.500000 I-0.191342 J-0.461940
G02 X35.802341 Y4.362543 Z-3.500000 I-0.353553 J-0.353553
G02 X35.840401 Y4.171201 Z-3.500000 I-0.461940 J-0.191342
G01 X35.840401 Y4.171201 Z-3.500000
G00 Z2.000000

(End cutting path id: circle30)


(Start cutting path id: circle30)
(Change tool to Cylindrical cutter)

G00 Z2.000000
G00 X35.840401 Y4.171201

G01 Z-4.200000 F100.0(Penetrate)
G02 X35.802341 Y3.979859 Z-4.200000 I-0.500000 J-0.000000 F120.000000
G02 X35.693954 Y3.817648 Z-4.200000 I-0.461940 J0.191342
G02 X35.531743 Y3.709261 Z-4.200000 I-0.353553 J0.353553
G02 X35.340401 Y3.671201 Z-4.200000 I-0.191342 J0.461940
G02 X35.149059 Y3.709261 Z-4.200000 I0.000000 J0.500000
G02 X34.986848 Y3.817648 Z-4.200000 I0.191342 J0.461940
G02 X34.878461 Y3.979859 Z-4.200000 I0.353553 J0.353553
G02 X34.840401 Y4.171201 Z-4.200000 I0.461940 J0.191342
G02 X34.878461 Y4.362543 Z-4.200000 I0.500000 J0.000000
G02 X34.986848 Y4.524754 Z-4.200000 I0.461940 J-0.191342
G02 X35.149059 Y4.633141 Z-4.200000 I0.353553 J-0.353553
G02 X35.340401 Y4.671201 Z-4.200000 I0.191342 J-0.461940
G02 X35.531743 Y4.633141 Z-4.200000 I-0.000000 J-0.500000
G02 X35.693954 Y4.524754 Z-4.200000 I-0.191342 J-0.461940
G02 X35.802341 Y4.362543 Z-4.200000 I-0.353553 J-0.353553
G02 X35.840401 Y4.171201 Z-4.200000 I-0.461940 J-0.191342
G01 X35.840401 Y4.171201 Z-4.200000
G00 Z2.000000

(End cutting path id: circle30)


(Start cutting path id: circle30)
(Change tool to Cylindrical cutter)

G00 Z2.000000
G00 X35.840401 Y4.171201

G01 Z-4.500000 F100.0(Penetrate)
G02 X35.802341 Y3.979859 Z-4.500000 I-0.500000 J-0.000000 F120.000000
G02 X35.693954 Y3.817648 Z-4.500000 I-0.461940 J0.191342
G02 X35.531743 Y3.709261 Z-4.500000 I-0.353553 J0.353553
G02 X35.340401 Y3.671201 Z-4.500000 I-0.191342 J0.461940
G02 X35.149059 Y3.709261 Z-4.500000 I0.000000 J0.500000
G02 X34.986848 Y3.817648 Z-4.500000 I0.191342 J0.461940
G02 X34.878461 Y3.979859 Z-4.500000 I0.353553 J0.353553
G02 X34.840401 Y4.171201 Z-4.500000 I0.461940 J0.191342
G02 X34.878461 Y4.362543 Z-4.500000 I0.500000 J0.000000
G02 X34.986848 Y4.524754 Z-4.500000 I0.461940 J-0.191342
G02 X35.149059 Y4.633141 Z-4.500000 I0.353553 J-0.353553
G02 X35.340401 Y4.671201 Z-4.500000 I0.191342 J-0.461940
G02 X35.531743 Y4.633141 Z-4.500000 I-0.000000 J-0.500000
G02 X35.693954 Y4.524754 Z-4.500000 I-0.191342 J-0.461940
G02 X35.802341 Y4.362543 Z-4.500000 I-0.353553 J-0.353553
G02 X35.840401 Y4.171201 Z-4.500000 I-0.461940 J-0.191342
G01 X35.840401 Y4.171201 Z-4.500000
G00 Z2.000000

(End cutting path id: circle30)


(Start cutting path id: circle22)
(Change tool to Cylindrical cutter)

G00 Z2.000000
G00 X21.600100 Y4.171201

G01 Z-0.700000 F100.0(Penetrate)
G02 X21.562040 Y3.979859 Z-0.700000 I-0.500000 J0.000000 F120.000000
G02 X21.453653 Y3.817648 Z-0.700000 I-0.461940 J0.191342
G02 X21.291442 Y3.709261 Z-0.700000 I-0.353553 J0.353553
G02 X21.100100 Y3.671201 Z-0.700000 I-0.191342 J0.461940
G02 X20.908758 Y3.709261 Z-0.700000 I0.000000 J0.500000
G02 X20.746547 Y3.817648 Z-0.700000 I0.191342 J0.461940
G02 X20.638160 Y3.979859 Z-0.700000 I0.353553 J0.353553
G02 X20.600100 Y4.171201 Z-0.700000 I0.461940 J0.191342
G02 X20.638160 Y4.362543 Z-0.700000 I0.500000 J-0.000000
G02 X20.746547 Y4.524754 Z-0.700000 I0.461940 J-0.191342
G02 X20.908758 Y4.633141 Z-0.700000 I0.353553 J-0.353553
G02 X21.100100 Y4.671201 Z-0.700000 I0.191342 J-0.461940
G02 X21.291442 Y4.633141 Z-0.700000 I-0.000000 J-0.500000
G02 X21.453653 Y4.524754 Z-0.700000 I-0.191342 J-0.461940
G02 X21.562040 Y4.362543 Z-0.700000 I-0.353553 J-0.353553
G02 X21.600100 Y4.171201 Z-0.700000 I-0.461940 J-0.191342
G01 X21.600100 Y4.171201 Z-0.700000
G00 Z2.000000

(End cutting path id: circle22)


(Start cutting path id: circle22)
(Change tool to Cylindrical cutter)

G00 Z2.000000
G00 X21.600100 Y4.171201

G01 Z-1.400000 F100.0(Penetrate)
G02 X21.562040 Y3.979859 Z-1.400000 I-0.500000 J0.000000 F120.000000
G02 X21.453653 Y3.817648 Z-1.400000 I-0.461940 J0.191342
G02 X21.291442 Y3.709261 Z-1.400000 I-0.353553 J0.353553
G02 X21.100100 Y3.671201 Z-1.400000 I-0.191342 J0.461940
G02 X20.908758 Y3.709261 Z-1.400000 I0.000000 J0.500000
G02 X20.746547 Y3.817648 Z-1.400000 I0.191342 J0.461940
G02 X20.638160 Y3.979859 Z-1.400000 I0.353553 J0.353553
G02 X20.600100 Y4.171201 Z-1.400000 I0.461940 J0.191342
G02 X20.638160 Y4.362543 Z-1.400000 I0.500000 J-0.000000
G02 X20.746547 Y4.524754 Z-1.400000 I0.461940 J-0.191342
G02 X20.908758 Y4.633141 Z-1.400000 I0.353553 J-0.353553
G02 X21.100100 Y4.671201 Z-1.400000 I0.191342 J-0.461940
G02 X21.291442 Y4.633141 Z-1.400000 I-0.000000 J-0.500000
G02 X21.453653 Y4.524754 Z-1.400000 I-0.191342 J-0.461940
G02 X21.562040 Y4.362543 Z-1.400000 I-0.353553 J-0.353553
G02 X21.600100 Y4.171201 Z-1.400000 I-0.461940 J-0.191342
G01 X21.600100 Y4.171201 Z-1.400000
G00 Z2.000000

(End cutting path id: circle22)


(Start cutting path id: circle22)
(Change tool to Cylindrical cutter)

G00 Z2.000000
G00 X21.600100 Y4.171201

G01 Z-2.100000 F100.0(Penetrate)
G02 X21.562040 Y3.979859 Z-2.100000 I-0.500000 J0.000000 F120.000000
G02 X21.453653 Y3.817648 Z-2.100000 I-0.461940 J0.191342
G02 X21.291442 Y3.709261 Z-2.100000 I-0.353553 J0.353553
G02 X21.100100 Y3.671201 Z-2.100000 I-0.191342 J0.461940
G02 X20.908758 Y3.709261 Z-2.100000 I0.000000 J0.500000
G02 X20.746547 Y3.817648 Z-2.100000 I0.191342 J0.461940
G02 X20.638160 Y3.979859 Z-2.100000 I0.353553 J0.353553
G02 X20.600100 Y4.171201 Z-2.100000 I0.461940 J0.191342
G02 X20.638160 Y4.362543 Z-2.100000 I0.500000 J-0.000000
G02 X20.746547 Y4.524754 Z-2.100000 I0.461940 J-0.191342
G02 X20.908758 Y4.633141 Z-2.100000 I0.353553 J-0.353553
G02 X21.100100 Y4.671201 Z-2.100000 I0.191342 J-0.461940
G02 X21.291442 Y4.633141 Z-2.100000 I-0.000000 J-0.500000
G02 X21.453653 Y4.524754 Z-2.100000 I-0.191342 J-0.461940
G02 X21.562040 Y4.362543 Z-2.100000 I-0.353553 J-0.353553
G02 X21.600100 Y4.171201 Z-2.100000 I-0.461940 J-0.191342
G01 X21.600100 Y4.171201 Z-2.100000
G00 Z2.000000

(End cutting path id: circle22)


(Start cutting path id: circle22)
(Change tool to Cylindrical cutter)

G00 Z2.000000
G00 X21.600100 Y4.171201

G01 Z-2.800000 F100.0(Penetrate)
G02 X21.562040 Y3.979859 Z-2.800000 I-0.500000 J0.000000 F120.000000
G02 X21.453653 Y3.817648 Z-2.800000 I-0.461940 J0.191342
G02 X21.291442 Y3.709261 Z-2.800000 I-0.353553 J0.353553
G02 X21.100100 Y3.671201 Z-2.800000 I-0.191342 J0.461940
G02 X20.908758 Y3.709261 Z-2.800000 I0.000000 J0.500000
G02 X20.746547 Y3.817648 Z-2.800000 I0.191342 J0.461940
G02 X20.638160 Y3.979859 Z-2.800000 I0.353553 J0.353553
G02 X20.600100 Y4.171201 Z-2.800000 I0.461940 J0.191342
G02 X20.638160 Y4.362543 Z-2.800000 I0.500000 J-0.000000
G02 X20.746547 Y4.524754 Z-2.800000 I0.461940 J-0.191342
G02 X20.908758 Y4.633141 Z-2.800000 I0.353553 J-0.353553
G02 X21.100100 Y4.671201 Z-2.800000 I0.191342 J-0.461940
G02 X21.291442 Y4.633141 Z-2.800000 I-0.000000 J-0.500000
G02 X21.453653 Y4.524754 Z-2.800000 I-0.191342 J-0.461940
G02 X21.562040 Y4.362543 Z-2.800000 I-0.353553 J-0.353553
G02 X21.600100 Y4.171201 Z-2.800000 I-0.461940 J-0.191342
G01 X21.600100 Y4.171201 Z-2.800000
G00 Z2.000000

(End cutting path id: circle22)


(Start cutting path id: circle22)
(Change tool to Cylindrical cutter)

G00 Z2.000000
G00 X21.600100 Y4.171201

G01 Z-3.500000 F100.0(Penetrate)
G02 X21.562040 Y3.979859 Z-3.500000 I-0.500000 J0.000000 F120.000000
G02 X21.453653 Y3.817648 Z-3.500000 I-0.461940 J0.191342
G02 X21.291442 Y3.709261 Z-3.500000 I-0.353553 J0.353553
G02 X21.100100 Y3.671201 Z-3.500000 I-0.191342 J0.461940
G02 X20.908758 Y3.709261 Z-3.500000 I0.000000 J0.500000
G02 X20.746547 Y3.817648 Z-3.500000 I0.191342 J0.461940
G02 X20.638160 Y3.979859 Z-3.500000 I0.353553 J0.353553
G02 X20.600100 Y4.171201 Z-3.500000 I0.461940 J0.191342
G02 X20.638160 Y4.362543 Z-3.500000 I0.500000 J-0.000000
G02 X20.746547 Y4.524754 Z-3.500000 I0.461940 J-0.191342
G02 X20.908758 Y4.633141 Z-3.500000 I0.353553 J-0.353553
G02 X21.100100 Y4.671201 Z-3.500000 I0.191342 J-0.461940
G02 X21.291442 Y4.633141 Z-3.500000 I-0.000000 J-0.500000
G02 X21.453653 Y4.524754 Z-3.500000 I-0.191342 J-0.461940
G02 X21.562040 Y4.362543 Z-3.500000 I-0.353553 J-0.353553
G02 X21.600100 Y4.171201 Z-3.500000 I-0.461940 J-0.191342
G01 X21.600100 Y4.171201 Z-3.500000
G00 Z2.000000

(End cutting path id: circle22)


(Start cutting path id: circle22)
(Change tool to Cylindrical cutter)

G00 Z2.000000
G00 X21.600100 Y4.171201

G01 Z-4.200000 F100.0(Penetrate)
G02 X21.562040 Y3.979859 Z-4.200000 I-0.500000 J0.000000 F120.000000
G02 X21.453653 Y3.817648 Z-4.200000 I-0.461940 J0.191342
G02 X21.291442 Y3.709261 Z-4.200000 I-0.353553 J0.353553
G02 X21.100100 Y3.671201 Z-4.200000 I-0.191342 J0.461940
G02 X20.908758 Y3.709261 Z-4.200000 I0.000000 J0.500000
G02 X20.746547 Y3.817648 Z-4.200000 I0.191342 J0.461940
G02 X20.638160 Y3.979859 Z-4.200000 I0.353553 J0.353553
G02 X20.600100 Y4.171201 Z-4.200000 I0.461940 J0.191342
G02 X20.638160 Y4.362543 Z-4.200000 I0.500000 J-0.000000
G02 X20.746547 Y4.524754 Z-4.200000 I0.461940 J-0.191342
G02 X20.908758 Y4.633141 Z-4.200000 I0.353553 J-0.353553
G02 X21.100100 Y4.671201 Z-4.200000 I0.191342 J-0.461940
G02 X21.291442 Y4.633141 Z-4.200000 I-0.000000 J-0.500000
G02 X21.453653 Y4.524754 Z-4.200000 I-0.191342 J-0.461940
G02 X21.562040 Y4.362543 Z-4.200000 I-0.353553 J-0.353553
G02 X21.600100 Y4.171201 Z-4.200000 I-0.461940 J-0.191342
G01 X21.600100 Y4.171201 Z-4.200000
G00 Z2.000000

(End cutting path id: circle22)


(Start cutting path id: circle22)
(Change tool to Cylindrical cutter)

G00 Z2.000000
G00 X21.600100 Y4.171201

G01 Z-4.500000 F100.0(Penetrate)
G02 X21.562040 Y3.979859 Z-4.500000 I-0.500000 J0.000000 F120.000000
G02 X21.453653 Y3.817648 Z-4.500000 I-0.461940 J0.191342
G02 X21.291442 Y3.709261 Z-4.500000 I-0.353553 J0.353553
G02 X21.100100 Y3.671201 Z-4.500000 I-0.191342 J0.461940
G02 X20.908758 Y3.709261 Z-4.500000 I0.000000 J0.500000
G02 X20.746547 Y3.817648 Z-4.500000 I0.191342 J0.461940
G02 X20.638160 Y3.979859 Z-4.500000 I0.353553 J0.353553
G02 X20.600100 Y4.171201 Z-4.500000 I0.461940 J0.191342
G02 X20.638160 Y4.362543 Z-4.500000 I0.500000 J-0.000000
G02 X20.746547 Y4.524754 Z-4.500000 I0.461940 J-0.191342
G02 X20.908758 Y4.633141 Z-4.500000 I0.353553 J-0.353553
G02 X21.100100 Y4.671201 Z-4.500000 I0.191342 J-0.461940
G02 X21.291442 Y4.633141 Z-4.500000 I-0.000000 J-0.500000
G02 X21.453653 Y4.524754 Z-4.500000 I-0.191342 J-0.461940
G02 X21.562040 Y4.362543 Z-4.500000 I-0.353553 J-0.353553
G02 X21.600100 Y4.171201 Z-4.500000 I-0.461940 J-0.191342
G01 X21.600100 Y4.171201 Z-4.500000
G00 Z2.000000

(End cutting path id: circle22)


(Start cutting path id: circle20)
(Change tool to Cylindrical cutter)

G00 Z2.000000
G00 X4.937000 Y4.171201

G01 Z-0.700000 F100.0(Penetrate)
G02 X4.898940 Y3.979859 Z-0.700000 I-0.500000 J0.000000 F120.000000
G02 X4.790553 Y3.817648 Z-0.700000 I-0.461940 J0.191342
G02 X4.628342 Y3.709261 Z-0.700000 I-0.353553 J0.353553
G02 X4.437000 Y3.671201 Z-0.700000 I-0.191342 J0.461940
G02 X4.245658 Y3.709261 Z-0.700000 I-0.000000 J0.500000
G02 X4.083447 Y3.817648 Z-0.700000 I0.191342 J0.461940
G02 X3.975060 Y3.979859 Z-0.700000 I0.353553 J0.353553
G02 X3.937000 Y4.171201 Z-0.700000 I0.461940 J0.191342
G02 X3.975060 Y4.362543 Z-0.700000 I0.500000 J-0.000000
G02 X4.083447 Y4.524754 Z-0.700000 I0.461940 J-0.191342
G02 X4.245658 Y4.633141 Z-0.700000 I0.353553 J-0.353553
G02 X4.437000 Y4.671201 Z-0.700000 I0.191342 J-0.461940
G02 X4.628342 Y4.633141 Z-0.700000 I0.000000 J-0.500000
G02 X4.790553 Y4.524754 Z-0.700000 I-0.191342 J-0.461940
G02 X4.898940 Y4.362543 Z-0.700000 I-0.353553 J-0.353553
G02 X4.937000 Y4.171201 Z-0.700000 I-0.461940 J-0.191342
G01 X4.937000 Y4.171201 Z-0.700000
G00 Z2.000000

(End cutting path id: circle20)


(Start cutting path id: circle20)
(Change tool to Cylindrical cutter)

G00 Z2.000000
G00 X4.937000 Y4.171201

G01 Z-1.400000 F100.0(Penetrate)
G02 X4.898940 Y3.979859 Z-1.400000 I-0.500000 J0.000000 F120.000000
G02 X4.790553 Y3.817648 Z-1.400000 I-0.461940 J0.191342
G02 X4.628342 Y3.709261 Z-1.400000 I-0.353553 J0.353553
G02 X4.437000 Y3.671201 Z-1.400000 I-0.191342 J0.461940
G02 X4.245658 Y3.709261 Z-1.400000 I-0.000000 J0.500000
G02 X4.083447 Y3.817648 Z-1.400000 I0.191342 J0.461940
G02 X3.975060 Y3.979859 Z-1.400000 I0.353553 J0.353553
G02 X3.937000 Y4.171201 Z-1.400000 I0.461940 J0.191342
G02 X3.975060 Y4.362543 Z-1.400000 I0.500000 J-0.000000
G02 X4.083447 Y4.524754 Z-1.400000 I0.461940 J-0.191342
G02 X4.245658 Y4.633141 Z-1.400000 I0.353553 J-0.353553
G02 X4.437000 Y4.671201 Z-1.400000 I0.191342 J-0.461940
G02 X4.628342 Y4.633141 Z-1.400000 I0.000000 J-0.500000
G02 X4.790553 Y4.524754 Z-1.400000 I-0.191342 J-0.461940
G02 X4.898940 Y4.362543 Z-1.400000 I-0.353553 J-0.353553
G02 X4.937000 Y4.171201 Z-1.400000 I-0.461940 J-0.191342
G01 X4.937000 Y4.171201 Z-1.400000
G00 Z2.000000

(End cutting path id: circle20)


(Start cutting path id: circle20)
(Change tool to Cylindrical cutter)

G00 Z2.000000
G00 X4.937000 Y4.171201

G01 Z-2.100000 F100.0(Penetrate)
G02 X4.898940 Y3.979859 Z-2.100000 I-0.500000 J0.000000 F120.000000
G02 X4.790553 Y3.817648 Z-2.100000 I-0.461940 J0.191342
G02 X4.628342 Y3.709261 Z-2.100000 I-0.353553 J0.353553
G02 X4.437000 Y3.671201 Z-2.100000 I-0.191342 J0.461940
G02 X4.245658 Y3.709261 Z-2.100000 I-0.000000 J0.500000
G02 X4.083447 Y3.817648 Z-2.100000 I0.191342 J0.461940
G02 X3.975060 Y3.979859 Z-2.100000 I0.353553 J0.353553
G02 X3.937000 Y4.171201 Z-2.100000 I0.461940 J0.191342
G02 X3.975060 Y4.362543 Z-2.100000 I0.500000 J-0.000000
G02 X4.083447 Y4.524754 Z-2.100000 I0.461940 J-0.191342
G02 X4.245658 Y4.633141 Z-2.100000 I0.353553 J-0.353553
G02 X4.437000 Y4.671201 Z-2.100000 I0.191342 J-0.461940
G02 X4.628342 Y4.633141 Z-2.100000 I0.000000 J-0.500000
G02 X4.790553 Y4.524754 Z-2.100000 I-0.191342 J-0.461940
G02 X4.898940 Y4.362543 Z-2.100000 I-0.353553 J-0.353553
G02 X4.937000 Y4.171201 Z-2.100000 I-0.461940 J-0.191342
G01 X4.937000 Y4.171201 Z-2.100000
G00 Z2.000000

(End cutting path id: circle20)


(Start cutting path id: circle20)
(Change tool to Cylindrical cutter)

G00 Z2.000000
G00 X4.937000 Y4.171201

G01 Z-2.800000 F100.0(Penetrate)
G02 X4.898940 Y3.979859 Z-2.800000 I-0.500000 J0.000000 F120.000000
G02 X4.790553 Y3.817648 Z-2.800000 I-0.461940 J0.191342
G02 X4.628342 Y3.709261 Z-2.800000 I-0.353553 J0.353553
G02 X4.437000 Y3.671201 Z-2.800000 I-0.191342 J0.461940
G02 X4.245658 Y3.709261 Z-2.800000 I-0.000000 J0.500000
G02 X4.083447 Y3.817648 Z-2.800000 I0.191342 J0.461940
G02 X3.975060 Y3.979859 Z-2.800000 I0.353553 J0.353553
G02 X3.937000 Y4.171201 Z-2.800000 I0.461940 J0.191342
G02 X3.975060 Y4.362543 Z-2.800000 I0.500000 J-0.000000
G02 X4.083447 Y4.524754 Z-2.800000 I0.461940 J-0.191342
G02 X4.245658 Y4.633141 Z-2.800000 I0.353553 J-0.353553
G02 X4.437000 Y4.671201 Z-2.800000 I0.191342 J-0.461940
G02 X4.628342 Y4.633141 Z-2.800000 I0.000000 J-0.500000
G02 X4.790553 Y4.524754 Z-2.800000 I-0.191342 J-0.461940
G02 X4.898940 Y4.362543 Z-2.800000 I-0.353553 J-0.353553
G02 X4.937000 Y4.171201 Z-2.800000 I-0.461940 J-0.191342
G01 X4.937000 Y4.171201 Z-2.800000
G00 Z2.000000

(End cutting path id: circle20)


(Start cutting path id: circle20)
(Change tool to Cylindrical cutter)

G00 Z2.000000
G00 X4.937000 Y4.171201

G01 Z-3.500000 F100.0(Penetrate)
G02 X4.898940 Y3.979859 Z-3.500000 I-0.500000 J0.000000 F120.000000
G02 X4.790553 Y3.817648 Z-3.500000 I-0.461940 J0.191342
G02 X4.628342 Y3.709261 Z-3.500000 I-0.353553 J0.353553
G02 X4.437000 Y3.671201 Z-3.500000 I-0.191342 J0.461940
G02 X4.245658 Y3.709261 Z-3.500000 I-0.000000 J0.500000
G02 X4.083447 Y3.817648 Z-3.500000 I0.191342 J0.461940
G02 X3.975060 Y3.979859 Z-3.500000 I0.353553 J0.353553
G02 X3.937000 Y4.171201 Z-3.500000 I0.461940 J0.191342
G02 X3.975060 Y4.362543 Z-3.500000 I0.500000 J-0.000000
G02 X4.083447 Y4.524754 Z-3.500000 I0.461940 J-0.191342
G02 X4.245658 Y4.633141 Z-3.500000 I0.353553 J-0.353553
G02 X4.437000 Y4.671201 Z-3.500000 I0.191342 J-0.461940
G02 X4.628342 Y4.633141 Z-3.500000 I0.000000 J-0.500000
G02 X4.790553 Y4.524754 Z-3.500000 I-0.191342 J-0.461940
G02 X4.898940 Y4.362543 Z-3.500000 I-0.353553 J-0.353553
G02 X4.937000 Y4.171201 Z-3.500000 I-0.461940 J-0.191342
G01 X4.937000 Y4.171201 Z-3.500000
G00 Z2.000000

(End cutting path id: circle20)


(Start cutting path id: circle20)
(Change tool to Cylindrical cutter)

G00 Z2.000000
G00 X4.937000 Y4.171201

G01 Z-4.200000 F100.0(Penetrate)
G02 X4.898940 Y3.979859 Z-4.200000 I-0.500000 J0.000000 F120.000000
G02 X4.790553 Y3.817648 Z-4.200000 I-0.461940 J0.191342
G02 X4.628342 Y3.709261 Z-4.200000 I-0.353553 J0.353553
G02 X4.437000 Y3.671201 Z-4.200000 I-0.191342 J0.461940
G02 X4.245658 Y3.709261 Z-4.200000 I-0.000000 J0.500000
G02 X4.083447 Y3.817648 Z-4.200000 I0.191342 J0.461940
G02 X3.975060 Y3.979859 Z-4.200000 I0.353553 J0.353553
G02 X3.937000 Y4.171201 Z-4.200000 I0.461940 J0.191342
G02 X3.975060 Y4.362543 Z-4.200000 I0.500000 J-0.000000
G02 X4.083447 Y4.524754 Z-4.200000 I0.461940 J-0.191342
G02 X4.245658 Y4.633141 Z-4.200000 I0.353553 J-0.353553
G02 X4.437000 Y4.671201 Z-4.200000 I0.191342 J-0.461940
G02 X4.628342 Y4.633141 Z-4.200000 I0.000000 J-0.500000
G02 X4.790553 Y4.524754 Z-4.200000 I-0.191342 J-0.461940
G02 X4.898940 Y4.362543 Z-4.200000 I-0.353553 J-0.353553
G02 X4.937000 Y4.171201 Z-4.200000 I-0.461940 J-0.191342
G01 X4.937000 Y4.171201 Z-4.200000
G00 Z2.000000

(End cutting path id: circle20)


(Start cutting path id: circle20)
(Change tool to Cylindrical cutter)

G00 Z2.000000
G00 X4.937000 Y4.171201

G01 Z-4.500000 F100.0(Penetrate)
G02 X4.898940 Y3.979859 Z-4.500000 I-0.500000 J0.000000 F120.000000
G02 X4.790553 Y3.817648 Z-4.500000 I-0.461940 J0.191342
G02 X4.628342 Y3.709261 Z-4.500000 I-0.353553 J0.353553
G02 X4.437000 Y3.671201 Z-4.500000 I-0.191342 J0.461940
G02 X4.245658 Y3.709261 Z-4.500000 I-0.000000 J0.500000
G02 X4.083447 Y3.817648 Z-4.500000 I0.191342 J0.461940
G02 X3.975060 Y3.979859 Z-4.500000 I0.353553 J0.353553
G02 X3.937000 Y4.171201 Z-4.500000 I0.461940 J0.191342
G02 X3.975060 Y4.362543 Z-4.500000 I0.500000 J-0.000000
G02 X4.083447 Y4.524754 Z-4.500000 I0.461940 J-0.191342
G02 X4.245658 Y4.633141 Z-4.500000 I0.353553 J-0.353553
G02 X4.437000 Y4.671201 Z-4.500000 I0.191342 J-0.461940
G02 X4.628342 Y4.633141 Z-4.500000 I0.000000 J-0.500000
G02 X4.790553 Y4.524754 Z-4.500000 I-0.191342 J-0.461940
G02 X4.898940 Y4.362543 Z-4.500000 I-0.353553 J-0.353553
G02 X4.937000 Y4.171201 Z-4.500000 I-0.461940 J-0.191342
G01 X4.937000 Y4.171201 Z-4.500000
G00 Z2.000000

(End cutting path id: circle20)


(Start cutting path id: circle14)
(Change tool to Cylindrical cutter)

G00 Z2.000000
G00 X14.850000 Y27.864500

G01 Z-0.700000 F100.0(Penetrate)
G02 X14.190990 Y26.273510 Z-0.700000 I-2.250000 J-0.000000 F120.000000
G02 X12.600000 Y25.614500 Z-0.700000 I-1.590990 J1.590990
G02 X11.738962 Y25.785771 Z-0.700000 I0.000000 J2.250000
G02 X11.009010 Y26.273510 Z-0.700000 I0.861038 J2.078729
G02 X10.521271 Y27.003462 Z-0.700000 I1.590990 J1.590990
G02 X10.350000 Y27.864500 Z-0.700000 I2.078729 J0.861038
G02 X10.521271 Y28.725538 Z-0.700000 I2.250000 J-0.000000
G02 X11.009010 Y29.455490 Z-0.700000 I2.078729 J-0.861038
G02 X11.738962 Y29.943229 Z-0.700000 I1.590990 J-1.590990
G02 X12.600000 Y30.114500 Z-0.700000 I0.861038 J-2.078729
G02 X14.190990 Y29.455490 Z-0.700000 I0.000000 J-2.250000
G02 X14.850000 Y27.864500 Z-0.700000 I-1.590990 J-1.590990
G01 X14.850000 Y27.864500 Z-0.700000
G00 Z2.000000

(End cutting path id: circle14)


(Start cutting path id: circle14)
(Change tool to Cylindrical cutter)

G00 Z2.000000
G00 X14.850000 Y27.864500

G01 Z-1.400000 F100.0(Penetrate)
G02 X14.190990 Y26.273510 Z-1.400000 I-2.250000 J-0.000000 F120.000000
G02 X12.600000 Y25.614500 Z-1.400000 I-1.590990 J1.590990
G02 X11.738962 Y25.785771 Z-1.400000 I0.000000 J2.250000
G02 X11.009010 Y26.273510 Z-1.400000 I0.861038 J2.078729
G02 X10.521271 Y27.003462 Z-1.400000 I1.590990 J1.590990
G02 X10.350000 Y27.864500 Z-1.400000 I2.078729 J0.861038
G02 X10.521271 Y28.725538 Z-1.400000 I2.250000 J-0.000000
G02 X11.009010 Y29.455490 Z-1.400000 I2.078729 J-0.861038
G02 X11.738962 Y29.943229 Z-1.400000 I1.590990 J-1.590990
G02 X12.600000 Y30.114500 Z-1.400000 I0.861038 J-2.078729
G02 X14.190990 Y29.455490 Z-1.400000 I0.000000 J-2.250000
G02 X14.850000 Y27.864500 Z-1.400000 I-1.590990 J-1.590990
G01 X14.850000 Y27.864500 Z-1.400000
G00 Z2.000000

(End cutting path id: circle14)


(Start cutting path id: circle14)
(Change tool to Cylindrical cutter)

G00 Z2.000000
G00 X14.850000 Y27.864500

G01 Z-2.100000 F100.0(Penetrate)
G02 X14.190990 Y26.273510 Z-2.100000 I-2.250000 J-0.000000 F120.000000
G02 X12.600000 Y25.614500 Z-2.100000 I-1.590990 J1.590990
G02 X11.738962 Y25.785771 Z-2.100000 I0.000000 J2.250000
G02 X11.009010 Y26.273510 Z-2.100000 I0.861038 J2.078729
G02 X10.521271 Y27.003462 Z-2.100000 I1.590990 J1.590990
G02 X10.350000 Y27.864500 Z-2.100000 I2.078729 J0.861038
G02 X10.521271 Y28.725538 Z-2.100000 I2.250000 J-0.000000
G02 X11.009010 Y29.455490 Z-2.100000 I2.078729 J-0.861038
G02 X11.738962 Y29.943229 Z-2.100000 I1.590990 J-1.590990
G02 X12.600000 Y30.114500 Z-2.100000 I0.861038 J-2.078729
G02 X14.190990 Y29.455490 Z-2.100000 I0.000000 J-2.250000
G02 X14.850000 Y27.864500 Z-2.100000 I-1.590990 J-1.590990
G01 X14.850000 Y27.864500 Z-2.100000
G00 Z2.000000

(End cutting path id: circle14)


(Start cutting path id: circle14)
(Change tool to Cylindrical cutter)

G00 Z2.000000
G00 X14.850000 Y27.864500

G01 Z-2.800000 F100.0(Penetrate)
G02 X14.190990 Y26.273510 Z-2.800000 I-2.250000 J-0.000000 F120.000000
G02 X12.600000 Y25.614500 Z-2.800000 I-1.590990 J1.590990
G02 X11.738962 Y25.785771 Z-2.800000 I0.000000 J2.250000
G02 X11.009010 Y26.273510 Z-2.800000 I0.861038 J2.078729
G02 X10.521271 Y27.003462 Z-2.800000 I1.590990 J1.590990
G02 X10.350000 Y27.864500 Z-2.800000 I2.078729 J0.861038
G02 X10.521271 Y28.725538 Z-2.800000 I2.250000 J-0.000000
G02 X11.009010 Y29.455490 Z-2.800000 I2.078729 J-0.861038
G02 X11.738962 Y29.943229 Z-2.800000 I1.590990 J-1.590990
G02 X12.600000 Y30.114500 Z-2.800000 I0.861038 J-2.078729
G02 X14.190990 Y29.455490 Z-2.800000 I0.000000 J-2.250000
G02 X14.850000 Y27.864500 Z-2.800000 I-1.590990 J-1.590990
G01 X14.850000 Y27.864500 Z-2.800000
G00 Z2.000000

(End cutting path id: circle14)


(Start cutting path id: circle14)
(Change tool to Cylindrical cutter)

G00 Z2.000000
G00 X14.850000 Y27.864500

G01 Z-3.500000 F100.0(Penetrate)
G02 X14.190990 Y26.273510 Z-3.500000 I-2.250000 J-0.000000 F120.000000
G02 X12.600000 Y25.614500 Z-3.500000 I-1.590990 J1.590990
G02 X11.738962 Y25.785771 Z-3.500000 I0.000000 J2.250000
G02 X11.009010 Y26.273510 Z-3.500000 I0.861038 J2.078729
G02 X10.521271 Y27.003462 Z-3.500000 I1.590990 J1.590990
G02 X10.350000 Y27.864500 Z-3.500000 I2.078729 J0.861038
G02 X10.521271 Y28.725538 Z-3.500000 I2.250000 J-0.000000
G02 X11.009010 Y29.455490 Z-3.500000 I2.078729 J-0.861038
G02 X11.738962 Y29.943229 Z-3.500000 I1.590990 J-1.590990
G02 X12.600000 Y30.114500 Z-3.500000 I0.861038 J-2.078729
G02 X14.190990 Y29.455490 Z-3.500000 I0.000000 J-2.250000
G02 X14.850000 Y27.864500 Z-3.500000 I-1.590990 J-1.590990
G01 X14.850000 Y27.864500 Z-3.500000
G00 Z2.000000

(End cutting path id: circle14)


(Start cutting path id: circle14)
(Change tool to Cylindrical cutter)

G00 Z2.000000
G00 X14.850000 Y27.864500

G01 Z-4.200000 F100.0(Penetrate)
G02 X14.190990 Y26.273510 Z-4.200000 I-2.250000 J-0.000000 F120.000000
G02 X12.600000 Y25.614500 Z-4.200000 I-1.590990 J1.590990
G02 X11.738962 Y25.785771 Z-4.200000 I0.000000 J2.250000
G02 X11.009010 Y26.273510 Z-4.200000 I0.861038 J2.078729
G02 X10.521271 Y27.003462 Z-4.200000 I1.590990 J1.590990
G02 X10.350000 Y27.864500 Z-4.200000 I2.078729 J0.861038
G02 X10.521271 Y28.725538 Z-4.200000 I2.250000 J-0.000000
G02 X11.009010 Y29.455490 Z-4.200000 I2.078729 J-0.861038
G02 X11.738962 Y29.943229 Z-4.200000 I1.590990 J-1.590990
G02 X12.600000 Y30.114500 Z-4.200000 I0.861038 J-2.078729
G02 X14.190990 Y29.455490 Z-4.200000 I0.000000 J-2.250000
G02 X14.850000 Y27.864500 Z-4.200000 I-1.590990 J-1.590990
G01 X14.850000 Y27.864500 Z-4.200000
G00 Z2.000000

(End cutting path id: circle14)


(Start cutting path id: circle14)
(Change tool to Cylindrical cutter)

G00 Z2.000000
G00 X14.850000 Y27.864500

G01 Z-4.500000 F100.0(Penetrate)
G02 X14.190990 Y26.273510 Z-4.500000 I-2.250000 J-0.000000 F120.000000
G02 X12.600000 Y25.614500 Z-4.500000 I-1.590990 J1.590990
G02 X11.738962 Y25.785771 Z-4.500000 I0.000000 J2.250000
G02 X11.009010 Y26.273510 Z-4.500000 I0.861038 J2.078729
G02 X10.521271 Y27.003462 Z-4.500000 I1.590990 J1.590990
G02 X10.350000 Y27.864500 Z-4.500000 I2.078729 J0.861038
G02 X10.521271 Y28.725538 Z-4.500000 I2.250000 J-0.000000
G02 X11.009010 Y29.455490 Z-4.500000 I2.078729 J-0.861038
G02 X11.738962 Y29.943229 Z-4.500000 I1.590990 J-1.590990
G02 X12.600000 Y30.114500 Z-4.500000 I0.861038 J-2.078729
G02 X14.190990 Y29.455490 Z-4.500000 I0.000000 J-2.250000
G02 X14.850000 Y27.864500 Z-4.500000 I-1.590990 J-1.590990
G01 X14.850000 Y27.864500 Z-4.500000
G00 Z2.000000

(End cutting path id: circle14)


(Start cutting path id: circle24)
(Change tool to Cylindrical cutter)

G00 Z2.000000
G00 X45.753399 Y27.864500

G01 Z-0.700000 F100.0(Penetrate)
G02 X45.582128 Y27.003462 Z-0.700000 I-2.250000 J-0.000000 F120.000000
G02 X45.094389 Y26.273510 Z-0.700000 I-2.078729 J0.861038
G02 X44.364437 Y25.785771 Z-0.700000 I-1.590990 J1.590990
G02 X43.503399 Y25.614500 Z-0.700000 I-0.861038 J2.078729
G02 X42.642361 Y25.785771 Z-0.700000 I0.000000 J2.250000
G02 X41.912409 Y26.273510 Z-0.700000 I0.861038 J2.078729
G02 X41.424670 Y27.003462 Z-0.700000 I1.590990 J1.590990
G02 X41.253399 Y27.864500 Z-0.700000 I2.078729 J0.861038
G02 X41.424670 Y28.725538 Z-0.700000 I2.250000 J-0.000000
G02 X41.912409 Y29.455490 Z-0.700000 I2.078729 J-0.861038
G02 X42.642361 Y29.943229 Z-0.700000 I1.590990 J-1.590990
G02 X43.503399 Y30.114500 Z-0.700000 I0.861038 J-2.078729
G02 X44.364437 Y29.943229 Z-0.700000 I0.000000 J-2.250000
G02 X45.094389 Y29.455490 Z-0.700000 I-0.861038 J-2.078729
G02 X45.582128 Y28.725538 Z-0.700000 I-1.590990 J-1.590990
G02 X45.753399 Y27.864500 Z-0.700000 I-2.078729 J-0.861038
G01 X45.753399 Y27.864500 Z-0.700000
G00 Z2.000000

(End cutting path id: circle24)


(Start cutting path id: circle24)
(Change tool to Cylindrical cutter)

G00 Z2.000000
G00 X45.753399 Y27.864500

G01 Z-1.400000 F100.0(Penetrate)
G02 X45.582128 Y27.003462 Z-1.400000 I-2.250000 J-0.000000 F120.000000
G02 X45.094389 Y26.273510 Z-1.400000 I-2.078729 J0.861038
G02 X44.364437 Y25.785771 Z-1.400000 I-1.590990 J1.590990
G02 X43.503399 Y25.614500 Z-1.400000 I-0.861038 J2.078729
G02 X42.642361 Y25.785771 Z-1.400000 I0.000000 J2.250000
G02 X41.912409 Y26.273510 Z-1.400000 I0.861038 J2.078729
G02 X41.424670 Y27.003462 Z-1.400000 I1.590990 J1.590990
G02 X41.253399 Y27.864500 Z-1.400000 I2.078729 J0.861038
G02 X41.424670 Y28.725538 Z-1.400000 I2.250000 J-0.000000
G02 X41.912409 Y29.455490 Z-1.400000 I2.078729 J-0.861038
G02 X42.642361 Y29.943229 Z-1.400000 I1.590990 J-1.590990
G02 X43.503399 Y30.114500 Z-1.400000 I0.861038 J-2.078729
G02 X44.364437 Y29.943229 Z-1.400000 I0.000000 J-2.250000
G02 X45.094389 Y29.455490 Z-1.400000 I-0.861038 J-2.078729
G02 X45.582128 Y28.725538 Z-1.400000 I-1.590990 J-1.590990
G02 X45.753399 Y27.864500 Z-1.400000 I-2.078729 J-0.861038
G01 X45.753399 Y27.864500 Z-1.400000
G00 Z2.000000

(End cutting path id: circle24)


(Start cutting path id: circle24)
(Change tool to Cylindrical cutter)

G00 Z2.000000
G00 X45.753399 Y27.864500

G01 Z-2.100000 F100.0(Penetrate)
G02 X45.582128 Y27.003462 Z-2.100000 I-2.250000 J-0.000000 F120.000000
G02 X45.094389 Y26.273510 Z-2.100000 I-2.078729 J0.861038
G02 X44.364437 Y25.785771 Z-2.100000 I-1.590990 J1.590990
G02 X43.503399 Y25.614500 Z-2.100000 I-0.861038 J2.078729
G02 X42.642361 Y25.785771 Z-2.100000 I0.000000 J2.250000
G02 X41.912409 Y26.273510 Z-2.100000 I0.861038 J2.078729
G02 X41.424670 Y27.003462 Z-2.100000 I1.590990 J1.590990
G02 X41.253399 Y27.864500 Z-2.100000 I2.078729 J0.861038
G02 X41.424670 Y28.725538 Z-2.100000 I2.250000 J-0.000000
G02 X41.912409 Y29.455490 Z-2.100000 I2.078729 J-0.861038
G02 X42.642361 Y29.943229 Z-2.100000 I1.590990 J-1.590990
G02 X43.503399 Y30.114500 Z-2.100000 I0.861038 J-2.078729
G02 X44.364437 Y29.943229 Z-2.100000 I0.000000 J-2.250000
G02 X45.094389 Y29.455490 Z-2.100000 I-0.861038 J-2.078729
G02 X45.582128 Y28.725538 Z-2.100000 I-1.590990 J-1.590990
G02 X45.753399 Y27.864500 Z-2.100000 I-2.078729 J-0.861038
G01 X45.753399 Y27.864500 Z-2.100000
G00 Z2.000000

(End cutting path id: circle24)


(Start cutting path id: circle24)
(Change tool to Cylindrical cutter)

G00 Z2.000000
G00 X45.753399 Y27.864500

G01 Z-2.800000 F100.0(Penetrate)
G02 X45.582128 Y27.003462 Z-2.800000 I-2.250000 J-0.000000 F120.000000
G02 X45.094389 Y26.273510 Z-2.800000 I-2.078729 J0.861038
G02 X44.364437 Y25.785771 Z-2.800000 I-1.590990 J1.590990
G02 X43.503399 Y25.614500 Z-2.800000 I-0.861038 J2.078729
G02 X42.642361 Y25.785771 Z-2.800000 I0.000000 J2.250000
G02 X41.912409 Y26.273510 Z-2.800000 I0.861038 J2.078729
G02 X41.424670 Y27.003462 Z-2.800000 I1.590990 J1.590990
G02 X41.253399 Y27.864500 Z-2.800000 I2.078729 J0.861038
G02 X41.424670 Y28.725538 Z-2.800000 I2.250000 J-0.000000
G02 X41.912409 Y29.455490 Z-2.800000 I2.078729 J-0.861038
G02 X42.642361 Y29.943229 Z-2.800000 I1.590990 J-1.590990
G02 X43.503399 Y30.114500 Z-2.800000 I0.861038 J-2.078729
G02 X44.364437 Y29.943229 Z-2.800000 I0.000000 J-2.250000
G02 X45.094389 Y29.455490 Z-2.800000 I-0.861038 J-2.078729
G02 X45.582128 Y28.725538 Z-2.800000 I-1.590990 J-1.590990
G02 X45.753399 Y27.864500 Z-2.800000 I-2.078729 J-0.861038
G01 X45.753399 Y27.864500 Z-2.800000
G00 Z2.000000

(End cutting path id: circle24)


(Start cutting path id: circle24)
(Change tool to Cylindrical cutter)

G00 Z2.000000
G00 X45.753399 Y27.864500

G01 Z-3.500000 F100.0(Penetrate)
G02 X45.582128 Y27.003462 Z-3.500000 I-2.250000 J-0.000000 F120.000000
G02 X45.094389 Y26.273510 Z-3.500000 I-2.078729 J0.861038
G02 X44.364437 Y25.785771 Z-3.500000 I-1.590990 J1.590990
G02 X43.503399 Y25.614500 Z-3.500000 I-0.861038 J2.078729
G02 X42.642361 Y25.785771 Z-3.500000 I0.000000 J2.250000
G02 X41.912409 Y26.273510 Z-3.500000 I0.861038 J2.078729
G02 X41.424670 Y27.003462 Z-3.500000 I1.590990 J1.590990
G02 X41.253399 Y27.864500 Z-3.500000 I2.078729 J0.861038
G02 X41.424670 Y28.725538 Z-3.500000 I2.250000 J-0.000000
G02 X41.912409 Y29.455490 Z-3.500000 I2.078729 J-0.861038
G02 X42.642361 Y29.943229 Z-3.500000 I1.590990 J-1.590990
G02 X43.503399 Y30.114500 Z-3.500000 I0.861038 J-2.078729
G02 X44.364437 Y29.943229 Z-3.500000 I0.000000 J-2.250000
G02 X45.094389 Y29.455490 Z-3.500000 I-0.861038 J-2.078729
G02 X45.582128 Y28.725538 Z-3.500000 I-1.590990 J-1.590990
G02 X45.753399 Y27.864500 Z-3.500000 I-2.078729 J-0.861038
G01 X45.753399 Y27.864500 Z-3.500000
G00 Z2.000000

(End cutting path id: circle24)


(Start cutting path id: circle24)
(Change tool to Cylindrical cutter)

G00 Z2.000000
G00 X45.753399 Y27.864500

G01 Z-4.200000 F100.0(Penetrate)
G02 X45.582128 Y27.003462 Z-4.200000 I-2.250000 J-0.000000 F120.000000
G02 X45.094389 Y26.273510 Z-4.200000 I-2.078729 J0.861038
G02 X44.364437 Y25.785771 Z-4.200000 I-1.590990 J1.590990
G02 X43.503399 Y25.614500 Z-4.200000 I-0.861038 J2.078729
G02 X42.642361 Y25.785771 Z-4.200000 I0.000000 J2.250000
G02 X41.912409 Y26.273510 Z-4.200000 I0.861038 J2.078729
G02 X41.424670 Y27.003462 Z-4.200000 I1.590990 J1.590990
G02 X41.253399 Y27.864500 Z-4.200000 I2.078729 J0.861038
G02 X41.424670 Y28.725538 Z-4.200000 I2.250000 J-0.000000
G02 X41.912409 Y29.455490 Z-4.200000 I2.078729 J-0.861038
G02 X42.642361 Y29.943229 Z-4.200000 I1.590990 J-1.590990
G02 X43.503399 Y30.114500 Z-4.200000 I0.861038 J-2.078729
G02 X44.364437 Y29.943229 Z-4.200000 I0.000000 J-2.250000
G02 X45.094389 Y29.455490 Z-4.200000 I-0.861038 J-2.078729
G02 X45.582128 Y28.725538 Z-4.200000 I-1.590990 J-1.590990
G02 X45.753399 Y27.864500 Z-4.200000 I-2.078729 J-0.861038
G01 X45.753399 Y27.864500 Z-4.200000
G00 Z2.000000

(End cutting path id: circle24)


(Start cutting path id: circle24)
(Change tool to Cylindrical cutter)

G00 Z2.000000
G00 X45.753399 Y27.864500

G01 Z-4.500000 F100.0(Penetrate)
G02 X45.582128 Y27.003462 Z-4.500000 I-2.250000 J-0.000000 F120.000000
G02 X45.094389 Y26.273510 Z-4.500000 I-2.078729 J0.861038
G02 X44.364437 Y25.785771 Z-4.500000 I-1.590990 J1.590990
G02 X43.503399 Y25.614500 Z-4.500000 I-0.861038 J2.078729
G02 X42.642361 Y25.785771 Z-4.500000 I0.000000 J2.250000
G02 X41.912409 Y26.273510 Z-4.500000 I0.861038 J2.078729
G02 X41.424670 Y27.003462 Z-4.500000 I1.590990 J1.590990
G02 X41.253399 Y27.864500 Z-4.500000 I2.078729 J0.861038
G02 X41.424670 Y28.725538 Z-4.500000 I2.250000 J-0.000000
G02 X41.912409 Y29.455490 Z-4.500000 I2.078729 J-0.861038
G02 X42.642361 Y29.943229 Z-4.500000 I1.590990 J-1.590990
G02 X43.503399 Y30.114500 Z-4.500000 I0.861038 J-2.078729
G02 X44.364437 Y29.943229 Z-4.500000 I0.000000 J-2.250000
G02 X45.094389 Y29.455490 Z-4.500000 I-0.861038 J-2.078729
G02 X45.582128 Y28.725538 Z-4.500000 I-1.590990 J-1.590990
G02 X45.753399 Y27.864500 Z-4.500000 I-2.078729 J-0.861038
G01 X45.753399 Y27.864500 Z-4.500000
G00 Z2.000000

(End cutting path id: circle24)


(Footer)
M5
G00 X0.0000 Y0.0000
M2
(Using default footer. To add your own footer create file "footer" in the output dir.)
(end)
%