%
(Header)
(Generated by gcodetools from Inkscape.)
(Using default header. To add your own header create file "header" in the output dir.)
M3
(Header end.)
G21 (All units in mm)

(Start cutting path id: path20077)
(Change tool to Cylindrical cutter)

G00 Z2.000000
G00 X14.027300 Y15.508000

G01 Z-0.700000 F100.0(Penetrate)
G01 X14.027300 Y15.508000 Z-0.700000 F120.000000
G00 Z2.000000

(End cutting path id: path20077)


(Start cutting path id: path20077)
(Change tool to Cylindrical cutter)

G00 Z2.000000
G00 X14.027300 Y15.508000

G01 Z-1.400000 F100.0(Penetrate)
G01 X14.027300 Y15.508000 Z-1.400000 F120.000000
G00 Z2.000000

(End cutting path id: path20077)


(Start cutting path id: path20077)
(Change tool to Cylindrical cutter)

G00 Z2.000000
G00 X14.027300 Y15.508000

G01 Z-2.100000 F100.0(Penetrate)
G01 X14.027300 Y15.508000 Z-2.100000 F120.000000
G00 Z2.000000

(End cutting path id: path20077)


(Start cutting path id: path20077)
(Change tool to Cylindrical cutter)

G00 Z2.000000
G00 X14.027300 Y15.508000

G01 Z-2.300000 F100.0(Penetrate)
G01 X14.027300 Y15.508000 Z-2.300000 F120.000000
G00 Z2.000000

(End cutting path id: path20077)


(Start cutting path id: path20077)
(Change tool to Cylindrical cutter)

G00 Z2.000000
G00 X14.027300 Y15.508000

G01 Z-0.700000 F100.0(Penetrate)
G01 X14.027300 Y15.508000 Z-0.700000 F120.000000
G00 Z2.000000

(End cutting path id: path20077)


(Start cutting path id: path20077)
(Change tool to Cylindrical cutter)

G00 Z2.000000
G00 X14.027300 Y15.508000

G01 Z-1.400000 F100.0(Penetrate)
G01 X14.027300 Y15.508000 Z-1.400000 F120.000000
G00 Z2.000000

(End cutting path id: path20077)


(Start cutting path id: path20077)
(Change tool to Cylindrical cutter)

G00 Z2.000000
G00 X14.027300 Y15.508000

G01 Z-2.100000 F100.0(Penetrate)
G01 X14.027300 Y15.508000 Z-2.100000 F120.000000
G00 Z2.000000

(End cutting path id: path20077)


(Start cutting path id: path20077)
(Change tool to Cylindrical cutter)

G00 Z2.000000
G00 X14.027300 Y15.508000

G01 Z-2.300000 F100.0(Penetrate)
G01 X14.027300 Y15.508000 Z-2.300000 F120.000000
G00 Z2.000000

(End cutting path id: path20077)


(Start cutting path id: path20077)
(Change tool to Cylindrical cutter)

G00 Z2.000000
G00 X14.027300 Y15.508000

G01 Z-0.700000 F100.0(Penetrate)
G01 X14.027300 Y15.508000 Z-0.700000 F120.000000
G00 Z2.000000

(End cutting path id: path20077)


(Start cutting path id: path20077)
(Change tool to Cylindrical cutter)

G00 Z2.000000
G00 X14.027300 Y15.508000

G01 Z-1.400000 F100.0(Penetrate)
G01 X14.027300 Y15.508000 Z-1.400000 F120.000000
G00 Z2.000000

(End cutting path id: path20077)


(Start cutting path id: path20077)
(Change tool to Cylindrical cutter)

G00 Z2.000000
G00 X14.027300 Y15.508000

G01 Z-2.100000 F100.0(Penetrate)
G01 X14.027300 Y15.508000 Z-2.100000 F120.000000
G00 Z2.000000

(End cutting path id: path20077)


(Start cutting path id: path20077)
(Change tool to Cylindrical cutter)

G00 Z2.000000
G00 X14.027300 Y15.508000

G01 Z-2.300000 F100.0(Penetrate)
G01 X14.027300 Y15.508000 Z-2.300000 F120.000000
G00 Z2.000000

(End cutting path id: path20077)


(Start cutting path id: path20077)
(Change tool to Cylindrical cutter)

G00 Z2.000000
G00 X14.027300 Y12.963000

G01 Z-0.700000 F100.0(Penetrate)
G01 X12.600100 Y14.390000 Z-0.700000 F120.000000
G01 X11.173000 Y12.963000 Z-0.700000
G00 Z2.000000

(End cutting path id: path20077)


(Start cutting path id: path20077)
(Change tool to Cylindrical cutter)

G00 Z2.000000
G00 X14.027300 Y12.963000

G01 Z-1.400000 F100.0(Penetrate)
G01 X12.600100 Y14.390000 Z-1.400000 F120.000000
G01 X11.173000 Y12.963000 Z-1.400000
G00 Z2.000000

(End cutting path id: path20077)


(Start cutting path id: path20077)
(Change tool to Cylindrical cutter)

G00 Z2.000000
G00 X14.027300 Y12.963000

G01 Z-2.100000 F100.0(Penetrate)
G01 X12.600100 Y14.390000 Z-2.100000 F120.000000
G01 X11.173000 Y12.963000 Z-2.100000
G00 Z2.000000

(End cutting path id: path20077)


(Start cutting path id: path20077)
(Change tool to Cylindrical cutter)

G00 Z2.000000
G00 X14.027300 Y12.963000

G01 Z-2.300000 F100.0(Penetrate)
G01 X12.600100 Y14.390000 Z-2.300000 F120.000000
G01 X11.173000 Y12.963000 Z-2.300000
G00 Z2.000000

(End cutting path id: path20077)


(Start cutting path id: path20077)
(Change tool to Cylindrical cutter)

G00 Z2.000000
G00 X11.173000 Y15.508000

G01 Z-0.700000 F100.0(Penetrate)
G01 X11.173000 Y15.508000 Z-0.700000 F120.000000
G00 Z2.000000

(End cutting path id: path20077)


(Start cutting path id: path20077)
(Change tool to Cylindrical cutter)

G00 Z2.000000
G00 X11.173000 Y15.508000

G01 Z-1.400000 F100.0(Penetrate)
G01 X11.173000 Y15.508000 Z-1.400000 F120.000000
G00 Z2.000000

(End cutting path id: path20077)


(Start cutting path id: path20077)
(Change tool to Cylindrical cutter)

G00 Z2.000000
G00 X11.173000 Y15.508000

G01 Z-2.100000 F100.0(Penetrate)
G01 X11.173000 Y15.508000 Z-2.100000 F120.000000
G00 Z2.000000

(End cutting path id: path20077)


(Start cutting path id: path20077)
(Change tool to Cylindrical cutter)

G00 Z2.000000
G00 X11.173000 Y15.508000

G01 Z-2.300000 F100.0(Penetrate)
G01 X11.173000 Y15.508000 Z-2.300000 F120.000000
G00 Z2.000000

(End cutting path id: path20077)


(Start cutting path id: path20077)
(Change tool to Cylindrical cutter)

G00 Z2.000000
G00 X11.173000 Y15.508000

G01 Z-0.700000 F100.0(Penetrate)
G01 X11.173000 Y15.508000 Z-0.700000 F120.000000
G00 Z2.000000

(End cutting path id: path20077)


(Start cutting path id: path20077)
(Change tool to Cylindrical cutter)

G00 Z2.000000
G00 X11.173000 Y15.508000

G01 Z-1.400000 F100.0(Penetrate)
G01 X11.173000 Y15.508000 Z-1.400000 F120.000000
G00 Z2.000000

(End cutting path id: path20077)


(Start cutting path id: path20077)
(Change tool to Cylindrical cutter)

G00 Z2.000000
G00 X11.173000 Y15.508000

G01 Z-2.100000 F100.0(Penetrate)
G01 X11.173000 Y15.508000 Z-2.100000 F120.000000
G00 Z2.000000

(End cutting path id: path20077)


(Start cutting path id: path20077)
(Change tool to Cylindrical cutter)

G00 Z2.000000
G00 X11.173000 Y15.508000

G01 Z-2.300000 F100.0(Penetrate)
G01 X11.173000 Y15.508000 Z-2.300000 F120.000000
G00 Z2.000000

(End cutting path id: path20077)


(Start cutting path id: path20077)
(Change tool to Cylindrical cutter)

G00 Z2.000000
G00 X11.173000 Y15.508000

G01 Z-0.700000 F100.0(Penetrate)
G01 X11.173000 Y15.508000 Z-0.700000 F120.000000
G00 Z2.000000

(End cutting path id: path20077)


(Start cutting path id: path20077)
(Change tool to Cylindrical cutter)

G00 Z2.000000
G00 X11.173000 Y15.508000

G01 Z-1.400000 F100.0(Penetrate)
G01 X11.173000 Y15.508000 Z-1.400000 F120.000000
G00 Z2.000000

(End cutting path id: path20077)


(Start cutting path id: path20077)
(Change tool to Cylindrical cutter)

G00 Z2.000000
G00 X11.173000 Y15.508000

G01 Z-2.100000 F100.0(Penetrate)
G01 X11.173000 Y15.508000 Z-2.100000 F120.000000
G00 Z2.000000

(End cutting path id: path20077)


(Start cutting path id: path20077)
(Change tool to Cylindrical cutter)

G00 Z2.000000
G00 X11.173000 Y15.508000

G01 Z-2.300000 F100.0(Penetrate)
G01 X11.173000 Y15.508000 Z-2.300000 F120.000000
G00 Z2.000000

(End cutting path id: path20077)


(Start cutting path id: rect18)
(Change tool to Cylindrical cutter)

G00 Z2.000000
G00 X11.173000 Y15.508300

G01 Z-0.700000 F100.0(Penetrate)
G01 X14.027300 Y15.508300 Z-0.700000 F120.000000
G01 X14.027300 Y0.508300 Z-0.700000
G01 X11.173000 Y0.508300 Z-0.700000
G01 X11.173000 Y15.508300 Z-0.700000
G00 Z2.000000

(End cutting path id: rect18)


(Start cutting path id: rect18)
(Change tool to Cylindrical cutter)

G00 Z2.000000
G00 X11.173000 Y15.508300

G01 Z-1.400000 F100.0(Penetrate)
G01 X14.027300 Y15.508300 Z-1.400000 F120.000000
G01 X14.027300 Y0.508300 Z-1.400000
G01 X11.173000 Y0.508300 Z-1.400000
G01 X11.173000 Y15.508300 Z-1.400000
G00 Z2.000000

(End cutting path id: rect18)


(Start cutting path id: rect18)
(Change tool to Cylindrical cutter)

G00 Z2.000000
G00 X11.173000 Y15.508300

G01 Z-2.100000 F100.0(Penetrate)
G01 X14.027300 Y15.508300 Z-2.100000 F120.000000
G01 X14.027300 Y0.508300 Z-2.100000
G01 X11.173000 Y0.508300 Z-2.100000
G01 X11.173000 Y15.508300 Z-2.100000
G00 Z2.000000

(End cutting path id: rect18)


(Start cutting path id: rect18)
(Change tool to Cylindrical cutter)

G00 Z2.000000
G00 X11.173000 Y15.508300

G01 Z-2.300000 F100.0(Penetrate)
G01 X14.027300 Y15.508300 Z-2.300000 F120.000000
G01 X14.027300 Y0.508300 Z-2.300000
G01 X11.173000 Y0.508300 Z-2.300000
G01 X11.173000 Y15.508300 Z-2.300000
G00 Z2.000000

(End cutting path id: rect18)


(Start cutting path id: path20077)
(Change tool to Cylindrical cutter)

G00 Z2.000000
G00 X14.027300 Y10.417000

G01 Z-0.700000 F100.0(Penetrate)
G01 X12.600100 Y11.844000 Z-0.700000 F120.000000
G01 X11.173000 Y10.417000 Z-0.700000
G00 Z2.000000

(End cutting path id: path20077)


(Start cutting path id: path20077)
(Change tool to Cylindrical cutter)

G00 Z2.000000
G00 X14.027300 Y10.417000

G01 Z-1.400000 F100.0(Penetrate)
G01 X12.600100 Y11.844000 Z-1.400000 F120.000000
G01 X11.173000 Y10.417000 Z-1.400000
G00 Z2.000000

(End cutting path id: path20077)


(Start cutting path id: path20077)
(Change tool to Cylindrical cutter)

G00 Z2.000000
G00 X14.027300 Y10.417000

G01 Z-2.100000 F100.0(Penetrate)
G01 X12.600100 Y11.844000 Z-2.100000 F120.000000
G01 X11.173000 Y10.417000 Z-2.100000
G00 Z2.000000

(End cutting path id: path20077)


(Start cutting path id: path20077)
(Change tool to Cylindrical cutter)

G00 Z2.000000
G00 X14.027300 Y10.417000

G01 Z-2.300000 F100.0(Penetrate)
G01 X12.600100 Y11.844000 Z-2.300000 F120.000000
G01 X11.173000 Y10.417000 Z-2.300000
G00 Z2.000000

(End cutting path id: path20077)


(Start cutting path id: path20077)
(Change tool to Cylindrical cutter)

G00 Z2.000000
G00 X11.173000 Y5.345000

G01 Z-0.700000 F100.0(Penetrate)
G01 X11.327400 Y5.191000 Z-0.700000 F120.000000
G01 X14.017800 Y7.881000 Z-0.700000
G01 X12.600100 Y9.299000 Z-0.700000
G01 X11.182500 Y7.881000 Z-0.700000
G01 X11.327400 Y7.736000 Z-0.700000
G01 X11.472200 Y7.881000 Z-0.700000
G00 Z2.000000

(End cutting path id: path20077)


(Start cutting path id: path20077)
(Change tool to Cylindrical cutter)

G00 Z2.000000
G00 X11.173000 Y5.345000

G01 Z-1.400000 F100.0(Penetrate)
G01 X11.327400 Y5.191000 Z-1.400000 F120.000000
G01 X14.017800 Y7.881000 Z-1.400000
G01 X12.600100 Y9.299000 Z-1.400000
G01 X11.182500 Y7.881000 Z-1.400000
G01 X11.327400 Y7.736000 Z-1.400000
G01 X11.472200 Y7.881000 Z-1.400000
G00 Z2.000000

(End cutting path id: path20077)


(Start cutting path id: path20077)
(Change tool to Cylindrical cutter)

G00 Z2.000000
G00 X11.173000 Y5.345000

G01 Z-2.100000 F100.0(Penetrate)
G01 X11.327400 Y5.191000 Z-2.100000 F120.000000
G01 X14.017800 Y7.881000 Z-2.100000
G01 X12.600100 Y9.299000 Z-2.100000
G01 X11.182500 Y7.881000 Z-2.100000
G01 X11.327400 Y7.736000 Z-2.100000
G01 X11.472200 Y7.881000 Z-2.100000
G00 Z2.000000

(End cutting path id: path20077)


(Start cutting path id: path20077)
(Change tool to Cylindrical cutter)

G00 Z2.000000
G00 X11.173000 Y5.345000

G01 Z-2.300000 F100.0(Penetrate)
G01 X11.327400 Y5.191000 Z-2.300000 F120.000000
G01 X14.017800 Y7.881000 Z-2.300000
G01 X12.600100 Y9.299000 Z-2.300000
G01 X11.182500 Y7.881000 Z-2.300000
G01 X11.327400 Y7.736000 Z-2.300000
G01 X11.472200 Y7.881000 Z-2.300000
G00 Z2.000000

(End cutting path id: path20077)


(Start cutting path id: path20077)
(Change tool to Cylindrical cutter)

G00 Z2.000000
G00 X11.173000 Y2.799000

G01 Z-0.700000 F100.0(Penetrate)
G01 X11.327400 Y2.645000 Z-0.700000 F120.000000
G01 X14.027300 Y5.345000 Z-0.700000
G00 Z2.000000

(End cutting path id: path20077)


(Start cutting path id: path20077)
(Change tool to Cylindrical cutter)

G00 Z2.000000
G00 X11.173000 Y2.799000

G01 Z-1.400000 F100.0(Penetrate)
G01 X11.327400 Y2.645000 Z-1.400000 F120.000000
G01 X14.027300 Y5.345000 Z-1.400000
G00 Z2.000000

(End cutting path id: path20077)


(Start cutting path id: path20077)
(Change tool to Cylindrical cutter)

G00 Z2.000000
G00 X11.173000 Y2.799000

G01 Z-2.100000 F100.0(Penetrate)
G01 X11.327400 Y2.645000 Z-2.100000 F120.000000
G01 X14.027300 Y5.345000 Z-2.100000
G00 Z2.000000

(End cutting path id: path20077)


(Start cutting path id: path20077)
(Change tool to Cylindrical cutter)

G00 Z2.000000
G00 X11.173000 Y2.799000

G01 Z-2.300000 F100.0(Penetrate)
G01 X11.327400 Y2.645000 Z-2.300000 F120.000000
G01 X14.027300 Y5.345000 Z-2.300000
G00 Z2.000000

(End cutting path id: path20077)


(Start cutting path id: path20077)
(Change tool to Cylindrical cutter)

G00 Z2.000000
G00 X11.736300 Y0.508000

G01 Z-0.700000 F100.0(Penetrate)
G01 X14.027300 Y2.799000 Z-0.700000 F120.000000
G00 Z2.000000

(End cutting path id: path20077)


(Start cutting path id: path20077)
(Change tool to Cylindrical cutter)

G00 Z2.000000
G00 X11.736300 Y0.508000

G01 Z-1.400000 F100.0(Penetrate)
G01 X14.027300 Y2.799000 Z-1.400000 F120.000000
G00 Z2.000000

(End cutting path id: path20077)


(Start cutting path id: path20077)
(Change tool to Cylindrical cutter)

G00 Z2.000000
G00 X11.736300 Y0.508000

G01 Z-2.100000 F100.0(Penetrate)
G01 X14.027300 Y2.799000 Z-2.100000 F120.000000
G00 Z2.000000

(End cutting path id: path20077)


(Start cutting path id: path20077)
(Change tool to Cylindrical cutter)

G00 Z2.000000
G00 X11.736300 Y0.508000

G01 Z-2.300000 F100.0(Penetrate)
G01 X14.027300 Y2.799000 Z-2.300000 F120.000000
G00 Z2.000000

(End cutting path id: path20077)


(Start cutting path id: path20073)
(Change tool to Cylindrical cutter)

G00 Z2.000000
G00 X42.076400 Y2.799000

G01 Z-0.700000 F100.0(Penetrate)
G01 X42.230800 Y2.645000 Z-0.700000 F120.000000
G01 X44.930700 Y5.345000 Z-0.700000
G00 Z2.000000

(End cutting path id: path20073)


(Start cutting path id: path20073)
(Change tool to Cylindrical cutter)

G00 Z2.000000
G00 X42.076400 Y2.799000

G01 Z-1.400000 F100.0(Penetrate)
G01 X42.230800 Y2.645000 Z-1.400000 F120.000000
G01 X44.930700 Y5.345000 Z-1.400000
G00 Z2.000000

(End cutting path id: path20073)


(Start cutting path id: path20073)
(Change tool to Cylindrical cutter)

G00 Z2.000000
G00 X42.076400 Y2.799000

G01 Z-2.100000 F100.0(Penetrate)
G01 X42.230800 Y2.645000 Z-2.100000 F120.000000
G01 X44.930700 Y5.345000 Z-2.100000
G00 Z2.000000

(End cutting path id: path20073)


(Start cutting path id: path20073)
(Change tool to Cylindrical cutter)

G00 Z2.000000
G00 X42.076400 Y2.799000

G01 Z-2.300000 F100.0(Penetrate)
G01 X42.230800 Y2.645000 Z-2.300000 F120.000000
G01 X44.930700 Y5.345000 Z-2.300000
G00 Z2.000000

(End cutting path id: path20073)


(Start cutting path id: path20073)
(Change tool to Cylindrical cutter)

G00 Z2.000000
G00 X42.076400 Y5.345000

G01 Z-0.700000 F100.0(Penetrate)
G01 X42.230800 Y5.191000 Z-0.700000 F120.000000
G01 X44.921200 Y7.881000 Z-0.700000
G01 X43.503600 Y9.299000 Z-0.700000
G01 X42.085900 Y7.881000 Z-0.700000
G01 X42.230800 Y7.736000 Z-0.700000
G01 X42.375600 Y7.881000 Z-0.700000
G00 Z2.000000

(End cutting path id: path20073)


(Start cutting path id: path20073)
(Change tool to Cylindrical cutter)

G00 Z2.000000
G00 X42.076400 Y5.345000

G01 Z-1.400000 F100.0(Penetrate)
G01 X42.230800 Y5.191000 Z-1.400000 F120.000000
G01 X44.921200 Y7.881000 Z-1.400000
G01 X43.503600 Y9.299000 Z-1.400000
G01 X42.085900 Y7.881000 Z-1.400000
G01 X42.230800 Y7.736000 Z-1.400000
G01 X42.375600 Y7.881000 Z-1.400000
G00 Z2.000000

(End cutting path id: path20073)


(Start cutting path id: path20073)
(Change tool to Cylindrical cutter)

G00 Z2.000000
G00 X42.076400 Y5.345000

G01 Z-2.100000 F100.0(Penetrate)
G01 X42.230800 Y5.191000 Z-2.100000 F120.000000
G01 X44.921200 Y7.881000 Z-2.100000
G01 X43.503600 Y9.299000 Z-2.100000
G01 X42.085900 Y7.881000 Z-2.100000
G01 X42.230800 Y7.736000 Z-2.100000
G01 X42.375600 Y7.881000 Z-2.100000
G00 Z2.000000

(End cutting path id: path20073)


(Start cutting path id: path20073)
(Change tool to Cylindrical cutter)

G00 Z2.000000
G00 X42.076400 Y5.345000

G01 Z-2.300000 F100.0(Penetrate)
G01 X42.230800 Y5.191000 Z-2.300000 F120.000000
G01 X44.921200 Y7.881000 Z-2.300000
G01 X43.503600 Y9.299000 Z-2.300000
G01 X42.085900 Y7.881000 Z-2.300000
G01 X42.230800 Y7.736000 Z-2.300000
G01 X42.375600 Y7.881000 Z-2.300000
G00 Z2.000000

(End cutting path id: path20073)


(Start cutting path id: path20073)
(Change tool to Cylindrical cutter)

G00 Z2.000000
G00 X44.930700 Y10.417000

G01 Z-0.700000 F100.0(Penetrate)
G01 X43.503600 Y11.844000 Z-0.700000 F120.000000
G01 X42.076400 Y10.417000 Z-0.700000
G00 Z2.000000

(End cutting path id: path20073)


(Start cutting path id: path20073)
(Change tool to Cylindrical cutter)

G00 Z2.000000
G00 X44.930700 Y10.417000

G01 Z-1.400000 F100.0(Penetrate)
G01 X43.503600 Y11.844000 Z-1.400000 F120.000000
G01 X42.076400 Y10.417000 Z-1.400000
G00 Z2.000000

(End cutting path id: path20073)


(Start cutting path id: path20073)
(Change tool to Cylindrical cutter)

G00 Z2.000000
G00 X44.930700 Y10.417000

G01 Z-2.100000 F100.0(Penetrate)
G01 X43.503600 Y11.844000 Z-2.100000 F120.000000
G01 X42.076400 Y10.417000 Z-2.100000
G00 Z2.000000

(End cutting path id: path20073)


(Start cutting path id: path20073)
(Change tool to Cylindrical cutter)

G00 Z2.000000
G00 X44.930700 Y10.417000

G01 Z-2.300000 F100.0(Penetrate)
G01 X43.503600 Y11.844000 Z-2.300000 F120.000000
G01 X42.076400 Y10.417000 Z-2.300000
G00 Z2.000000

(End cutting path id: path20073)


(Start cutting path id: path20073)
(Change tool to Cylindrical cutter)

G00 Z2.000000
G00 X44.930700 Y12.963000

G01 Z-0.700000 F100.0(Penetrate)
G01 X43.503600 Y14.390000 Z-0.700000 F120.000000
G01 X42.076400 Y12.963000 Z-0.700000
G00 Z2.000000

(End cutting path id: path20073)


(Start cutting path id: path20073)
(Change tool to Cylindrical cutter)

G00 Z2.000000
G00 X44.930700 Y12.963000

G01 Z-1.400000 F100.0(Penetrate)
G01 X43.503600 Y14.390000 Z-1.400000 F120.000000
G01 X42.076400 Y12.963000 Z-1.400000
G00 Z2.000000

(End cutting path id: path20073)


(Start cutting path id: path20073)
(Change tool to Cylindrical cutter)

G00 Z2.000000
G00 X44.930700 Y12.963000

G01 Z-2.100000 F100.0(Penetrate)
G01 X43.503600 Y14.390000 Z-2.100000 F120.000000
G01 X42.076400 Y12.963000 Z-2.100000
G00 Z2.000000

(End cutting path id: path20073)


(Start cutting path id: path20073)
(Change tool to Cylindrical cutter)

G00 Z2.000000
G00 X44.930700 Y12.963000

G01 Z-2.300000 F100.0(Penetrate)
G01 X43.503600 Y14.390000 Z-2.300000 F120.000000
G01 X42.076400 Y12.963000 Z-2.300000
G00 Z2.000000

(End cutting path id: path20073)


(Start cutting path id: path20073)
(Change tool to Cylindrical cutter)

G00 Z2.000000
G00 X42.076400 Y15.508000

G01 Z-0.700000 F100.0(Penetrate)
G01 X42.076400 Y15.508000 Z-0.700000 F120.000000
G00 Z2.000000

(End cutting path id: path20073)


(Start cutting path id: path20073)
(Change tool to Cylindrical cutter)

G00 Z2.000000
G00 X42.076400 Y15.508000

G01 Z-1.400000 F100.0(Penetrate)
G01 X42.076400 Y15.508000 Z-1.400000 F120.000000
G00 Z2.000000

(End cutting path id: path20073)


(Start cutting path id: path20073)
(Change tool to Cylindrical cutter)

G00 Z2.000000
G00 X42.076400 Y15.508000

G01 Z-2.100000 F100.0(Penetrate)
G01 X42.076400 Y15.508000 Z-2.100000 F120.000000
G00 Z2.000000

(End cutting path id: path20073)


(Start cutting path id: path20073)
(Change tool to Cylindrical cutter)

G00 Z2.000000
G00 X42.076400 Y15.508000

G01 Z-2.300000 F100.0(Penetrate)
G01 X42.076400 Y15.508000 Z-2.300000 F120.000000
G00 Z2.000000

(End cutting path id: path20073)


(Start cutting path id: path20073)
(Change tool to Cylindrical cutter)

G00 Z2.000000
G00 X42.076400 Y15.508000

G01 Z-0.700000 F100.0(Penetrate)
G01 X42.076400 Y15.508000 Z-0.700000 F120.000000
G00 Z2.000000

(End cutting path id: path20073)


(Start cutting path id: path20073)
(Change tool to Cylindrical cutter)

G00 Z2.000000
G00 X42.076400 Y15.508000

G01 Z-1.400000 F100.0(Penetrate)
G01 X42.076400 Y15.508000 Z-1.400000 F120.000000
G00 Z2.000000

(End cutting path id: path20073)


(Start cutting path id: path20073)
(Change tool to Cylindrical cutter)

G00 Z2.000000
G00 X42.076400 Y15.508000

G01 Z-2.100000 F100.0(Penetrate)
G01 X42.076400 Y15.508000 Z-2.100000 F120.000000
G00 Z2.000000

(End cutting path id: path20073)


(Start cutting path id: path20073)
(Change tool to Cylindrical cutter)

G00 Z2.000000
G00 X42.076400 Y15.508000

G01 Z-2.300000 F100.0(Penetrate)
G01 X42.076400 Y15.508000 Z-2.300000 F120.000000
G00 Z2.000000

(End cutting path id: path20073)


(Start cutting path id: path20073)
(Change tool to Cylindrical cutter)

G00 Z2.000000
G00 X42.076400 Y15.508000

G01 Z-0.700000 F100.0(Penetrate)
G01 X42.076400 Y15.508000 Z-0.700000 F120.000000
G00 Z2.000000

(End cutting path id: path20073)


(Start cutting path id: path20073)
(Change tool to Cylindrical cutter)

G00 Z2.000000
G00 X42.076400 Y15.508000

G01 Z-1.400000 F100.0(Penetrate)
G01 X42.076400 Y15.508000 Z-1.400000 F120.000000
G00 Z2.000000

(End cutting path id: path20073)


(Start cutting path id: path20073)
(Change tool to Cylindrical cutter)

G00 Z2.000000
G00 X42.076400 Y15.508000

G01 Z-2.100000 F100.0(Penetrate)
G01 X42.076400 Y15.508000 Z-2.100000 F120.000000
G00 Z2.000000

(End cutting path id: path20073)


(Start cutting path id: path20073)
(Change tool to Cylindrical cutter)

G00 Z2.000000
G00 X42.076400 Y15.508000

G01 Z-2.300000 F100.0(Penetrate)
G01 X42.076400 Y15.508000 Z-2.300000 F120.000000
G00 Z2.000000

(End cutting path id: path20073)


(Start cutting path id: rect28)
(Change tool to Cylindrical cutter)

G00 Z2.000000
G00 X42.076401 Y15.508300

G01 Z-0.700000 F100.0(Penetrate)
G01 X44.930701 Y15.508300 Z-0.700000 F120.000000
G01 X44.930701 Y0.508300 Z-0.700000
G01 X42.076401 Y0.508300 Z-0.700000
G01 X42.076401 Y15.508300 Z-0.700000
G00 Z2.000000

(End cutting path id: rect28)


(Start cutting path id: rect28)
(Change tool to Cylindrical cutter)

G00 Z2.000000
G00 X42.076401 Y15.508300

G01 Z-1.400000 F100.0(Penetrate)
G01 X44.930701 Y15.508300 Z-1.400000 F120.000000
G01 X44.930701 Y0.508300 Z-1.400000
G01 X42.076401 Y0.508300 Z-1.400000
G01 X42.076401 Y15.508300 Z-1.400000
G00 Z2.000000

(End cutting path id: rect28)


(Start cutting path id: rect28)
(Change tool to Cylindrical cutter)

G00 Z2.000000
G00 X42.076401 Y15.508300

G01 Z-2.100000 F100.0(Penetrate)
G01 X44.930701 Y15.508300 Z-2.100000 F120.000000
G01 X44.930701 Y0.508300 Z-2.100000
G01 X42.076401 Y0.508300 Z-2.100000
G01 X42.076401 Y15.508300 Z-2.100000
G00 Z2.000000

(End cutting path id: rect28)


(Start cutting path id: rect28)
(Change tool to Cylindrical cutter)

G00 Z2.000000
G00 X42.076401 Y15.508300

G01 Z-2.300000 F100.0(Penetrate)
G01 X44.930701 Y15.508300 Z-2.300000 F120.000000
G01 X44.930701 Y0.508300 Z-2.300000
G01 X42.076401 Y0.508300 Z-2.300000
G01 X42.076401 Y15.508300 Z-2.300000
G00 Z2.000000

(End cutting path id: rect28)


(Start cutting path id: path20073)
(Change tool to Cylindrical cutter)

G00 Z2.000000
G00 X44.930700 Y15.508000

G01 Z-0.700000 F100.0(Penetrate)
G01 X44.930700 Y15.508000 Z-0.700000 F120.000000
G00 Z2.000000

(End cutting path id: path20073)


(Start cutting path id: path20073)
(Change tool to Cylindrical cutter)

G00 Z2.000000
G00 X44.930700 Y15.508000

G01 Z-1.400000 F100.0(Penetrate)
G01 X44.930700 Y15.508000 Z-1.400000 F120.000000
G00 Z2.000000

(End cutting path id: path20073)


(Start cutting path id: path20073)
(Change tool to Cylindrical cutter)

G00 Z2.000000
G00 X44.930700 Y15.508000

G01 Z-2.100000 F100.0(Penetrate)
G01 X44.930700 Y15.508000 Z-2.100000 F120.000000
G00 Z2.000000

(End cutting path id: path20073)


(Start cutting path id: path20073)
(Change tool to Cylindrical cutter)

G00 Z2.000000
G00 X44.930700 Y15.508000

G01 Z-2.300000 F100.0(Penetrate)
G01 X44.930700 Y15.508000 Z-2.300000 F120.000000
G00 Z2.000000

(End cutting path id: path20073)


(Start cutting path id: path20073)
(Change tool to Cylindrical cutter)

G00 Z2.000000
G00 X44.930700 Y15.508000

G01 Z-0.700000 F100.0(Penetrate)
G01 X44.930700 Y15.508000 Z-0.700000 F120.000000
G00 Z2.000000

(End cutting path id: path20073)


(Start cutting path id: path20073)
(Change tool to Cylindrical cutter)

G00 Z2.000000
G00 X44.930700 Y15.508000

G01 Z-1.400000 F100.0(Penetrate)
G01 X44.930700 Y15.508000 Z-1.400000 F120.000000
G00 Z2.000000

(End cutting path id: path20073)


(Start cutting path id: path20073)
(Change tool to Cylindrical cutter)

G00 Z2.000000
G00 X44.930700 Y15.508000

G01 Z-2.100000 F100.0(Penetrate)
G01 X44.930700 Y15.508000 Z-2.100000 F120.000000
G00 Z2.000000

(End cutting path id: path20073)


(Start cutting path id: path20073)
(Change tool to Cylindrical cutter)

G00 Z2.000000
G00 X44.930700 Y15.508000

G01 Z-2.300000 F100.0(Penetrate)
G01 X44.930700 Y15.508000 Z-2.300000 F120.000000
G00 Z2.000000

(End cutting path id: path20073)


(Start cutting path id: path20073)
(Change tool to Cylindrical cutter)

G00 Z2.000000
G00 X44.930700 Y15.508000

G01 Z-0.700000 F100.0(Penetrate)
G01 X44.930700 Y15.508000 Z-0.700000 F120.000000
G00 Z2.000000

(End cutting path id: path20073)


(Start cutting path id: path20073)
(Change tool to Cylindrical cutter)

G00 Z2.000000
G00 X44.930700 Y15.508000

G01 Z-1.400000 F100.0(Penetrate)
G01 X44.930700 Y15.508000 Z-1.400000 F120.000000
G00 Z2.000000

(End cutting path id: path20073)


(Start cutting path id: path20073)
(Change tool to Cylindrical cutter)

G00 Z2.000000
G00 X44.930700 Y15.508000

G01 Z-2.100000 F100.0(Penetrate)
G01 X44.930700 Y15.508000 Z-2.100000 F120.000000
G00 Z2.000000

(End cutting path id: path20073)


(Start cutting path id: path20073)
(Change tool to Cylindrical cutter)

G00 Z2.000000
G00 X44.930700 Y15.508000

G01 Z-2.300000 F100.0(Penetrate)
G01 X44.930700 Y15.508000 Z-2.300000 F120.000000
G00 Z2.000000

(End cutting path id: path20073)


(Start cutting path id: path20073)
(Change tool to Cylindrical cutter)

G00 Z2.000000
G00 X42.639700 Y0.508000

G01 Z-0.700000 F100.0(Penetrate)
G01 X44.930700 Y2.799000 Z-0.700000 F120.000000
G00 Z2.000000

(End cutting path id: path20073)


(Start cutting path id: path20073)
(Change tool to Cylindrical cutter)

G00 Z2.000000
G00 X42.639700 Y0.508000

G01 Z-1.400000 F100.0(Penetrate)
G01 X44.930700 Y2.799000 Z-1.400000 F120.000000
G00 Z2.000000

(End cutting path id: path20073)


(Start cutting path id: path20073)
(Change tool to Cylindrical cutter)

G00 Z2.000000
G00 X42.639700 Y0.508000

G01 Z-2.100000 F100.0(Penetrate)
G01 X44.930700 Y2.799000 Z-2.100000 F120.000000
G00 Z2.000000

(End cutting path id: path20073)


(Start cutting path id: path20073)
(Change tool to Cylindrical cutter)

G00 Z2.000000
G00 X42.639700 Y0.508000

G01 Z-2.300000 F100.0(Penetrate)
G01 X44.930700 Y2.799000 Z-2.300000 F120.000000
G00 Z2.000000

(End cutting path id: path20073)


(Footer)
M5
G00 X0.0000 Y0.0000
M2
(Using default footer. To add your own footer create file "footer" in the output dir.)
(end)
%