%
(Header)
(Generated by gcodetools from Inkscape.)
(Using default header. To add your own header create file "header" in the output dir.)
M3
(Header end.)
G21 (All units in mm)

(Start cutting path id: path26350)
(Change tool to Cylindrical cutter)

G00 Z3.000000
G00 X14.600000 Y18.198900

G01 Z-0.700000 F100.0(Penetrate)
G01 X14.600000 Y18.198900 Z-0.700000 F120.000000
G00 Z3.000000

(End cutting path id: path26350)


(Start cutting path id: path26350)
(Change tool to Cylindrical cutter)

G00 Z3.000000
G00 X14.600000 Y18.198900

G01 Z-1.400000 F100.0(Penetrate)
G01 X14.600000 Y18.198900 Z-1.400000 F120.000000
G00 Z3.000000

(End cutting path id: path26350)


(Start cutting path id: path26350)
(Change tool to Cylindrical cutter)

G00 Z3.000000
G00 X14.600000 Y18.198900

G01 Z-2.100000 F100.0(Penetrate)
G01 X14.600000 Y18.198900 Z-2.100000 F120.000000
G00 Z3.000000

(End cutting path id: path26350)


(Start cutting path id: path26350)
(Change tool to Cylindrical cutter)

G00 Z3.000000
G00 X14.600000 Y18.198900

G01 Z-2.300000 F100.0(Penetrate)
G01 X14.600000 Y18.198900 Z-2.300000 F120.000000
G00 Z3.000000

(End cutting path id: path26350)


(Start cutting path id: path26350)
(Change tool to Cylindrical cutter)

G00 Z3.000000
G00 X14.600000 Y15.653300

G01 Z-0.700000 F100.0(Penetrate)
G01 X13.100000 Y17.153300 Z-0.700000 F120.000000
G01 X11.600000 Y15.653300 Z-0.700000
G00 Z3.000000

(End cutting path id: path26350)


(Start cutting path id: path26350)
(Change tool to Cylindrical cutter)

G00 Z3.000000
G00 X14.600000 Y15.653300

G01 Z-1.400000 F100.0(Penetrate)
G01 X13.100000 Y17.153300 Z-1.400000 F120.000000
G01 X11.600000 Y15.653300 Z-1.400000
G00 Z3.000000

(End cutting path id: path26350)


(Start cutting path id: path26350)
(Change tool to Cylindrical cutter)

G00 Z3.000000
G00 X14.600000 Y15.653300

G01 Z-2.100000 F100.0(Penetrate)
G01 X13.100000 Y17.153300 Z-2.100000 F120.000000
G01 X11.600000 Y15.653300 Z-2.100000
G00 Z3.000000

(End cutting path id: path26350)


(Start cutting path id: path26350)
(Change tool to Cylindrical cutter)

G00 Z3.000000
G00 X14.600000 Y15.653300

G01 Z-2.300000 F100.0(Penetrate)
G01 X13.100000 Y17.153300 Z-2.300000 F120.000000
G01 X11.600000 Y15.653300 Z-2.300000
G00 Z3.000000

(End cutting path id: path26350)


(Start cutting path id: path26350)
(Change tool to Cylindrical cutter)

G00 Z3.000000
G00 X11.600000 Y18.198900

G01 Z-0.700000 F100.0(Penetrate)
G01 X11.600000 Y18.198900 Z-0.700000 F120.000000
G00 Z3.000000

(End cutting path id: path26350)


(Start cutting path id: path26350)
(Change tool to Cylindrical cutter)

G00 Z3.000000
G00 X11.600000 Y18.198900

G01 Z-1.400000 F100.0(Penetrate)
G01 X11.600000 Y18.198900 Z-1.400000 F120.000000
G00 Z3.000000

(End cutting path id: path26350)


(Start cutting path id: path26350)
(Change tool to Cylindrical cutter)

G00 Z3.000000
G00 X11.600000 Y18.198900

G01 Z-2.100000 F100.0(Penetrate)
G01 X11.600000 Y18.198900 Z-2.100000 F120.000000
G00 Z3.000000

(End cutting path id: path26350)


(Start cutting path id: path26350)
(Change tool to Cylindrical cutter)

G00 Z3.000000
G00 X11.600000 Y18.198900

G01 Z-2.300000 F100.0(Penetrate)
G01 X11.600000 Y18.198900 Z-2.300000 F120.000000
G00 Z3.000000

(End cutting path id: path26350)


(Start cutting path id: path26350)
(Change tool to Cylindrical cutter)

G00 Z3.000000
G00 X11.600000 Y18.198900

G01 Z-0.700000 F100.0(Penetrate)
G01 X11.600000 Y18.198900 Z-0.700000 F120.000000
G00 Z3.000000

(End cutting path id: path26350)


(Start cutting path id: path26350)
(Change tool to Cylindrical cutter)

G00 Z3.000000
G00 X11.600000 Y18.198900

G01 Z-1.400000 F100.0(Penetrate)
G01 X11.600000 Y18.198900 Z-1.400000 F120.000000
G00 Z3.000000

(End cutting path id: path26350)


(Start cutting path id: path26350)
(Change tool to Cylindrical cutter)

G00 Z3.000000
G00 X11.600000 Y18.198900

G01 Z-2.100000 F100.0(Penetrate)
G01 X11.600000 Y18.198900 Z-2.100000 F120.000000
G00 Z3.000000

(End cutting path id: path26350)


(Start cutting path id: path26350)
(Change tool to Cylindrical cutter)

G00 Z3.000000
G00 X11.600000 Y18.198900

G01 Z-2.300000 F100.0(Penetrate)
G01 X11.600000 Y18.198900 Z-2.300000 F120.000000
G00 Z3.000000

(End cutting path id: path26350)


(Start cutting path id: path26350)
(Change tool to Cylindrical cutter)

G00 Z3.000000
G00 X11.600000 Y18.198900

G01 Z-0.700000 F100.0(Penetrate)
G01 X11.600000 Y18.198900 Z-0.700000 F120.000000
G00 Z3.000000

(End cutting path id: path26350)


(Start cutting path id: path26350)
(Change tool to Cylindrical cutter)

G00 Z3.000000
G00 X11.600000 Y18.198900

G01 Z-1.400000 F100.0(Penetrate)
G01 X11.600000 Y18.198900 Z-1.400000 F120.000000
G00 Z3.000000

(End cutting path id: path26350)


(Start cutting path id: path26350)
(Change tool to Cylindrical cutter)

G00 Z3.000000
G00 X11.600000 Y18.198900

G01 Z-2.100000 F100.0(Penetrate)
G01 X11.600000 Y18.198900 Z-2.100000 F120.000000
G00 Z3.000000

(End cutting path id: path26350)


(Start cutting path id: path26350)
(Change tool to Cylindrical cutter)

G00 Z3.000000
G00 X11.600000 Y18.198900

G01 Z-2.300000 F100.0(Penetrate)
G01 X11.600000 Y18.198900 Z-2.300000 F120.000000
G00 Z3.000000

(End cutting path id: path26350)


(Start cutting path id: rect449)
(Change tool to Cylindrical cutter)

G00 Z3.000000
G00 X11.600000 Y18.198900

G01 Z-0.700000 F100.0(Penetrate)
G01 X14.600000 Y18.198900 Z-0.700000 F120.000000
G01 X14.600000 Y0.422500 Z-0.700000
G01 X11.600000 Y0.422500 Z-0.700000
G01 X11.600000 Y18.198900 Z-0.700000
G00 Z3.000000

(End cutting path id: rect449)


(Start cutting path id: rect449)
(Change tool to Cylindrical cutter)

G00 Z3.000000
G00 X11.600000 Y18.198900

G01 Z-1.400000 F100.0(Penetrate)
G01 X14.600000 Y18.198900 Z-1.400000 F120.000000
G01 X14.600000 Y0.422500 Z-1.400000
G01 X11.600000 Y0.422500 Z-1.400000
G01 X11.600000 Y18.198900 Z-1.400000
G00 Z3.000000

(End cutting path id: rect449)


(Start cutting path id: rect449)
(Change tool to Cylindrical cutter)

G00 Z3.000000
G00 X11.600000 Y18.198900

G01 Z-2.100000 F100.0(Penetrate)
G01 X14.600000 Y18.198900 Z-2.100000 F120.000000
G01 X14.600000 Y0.422500 Z-2.100000
G01 X11.600000 Y0.422500 Z-2.100000
G01 X11.600000 Y18.198900 Z-2.100000
G00 Z3.000000

(End cutting path id: rect449)


(Start cutting path id: rect449)
(Change tool to Cylindrical cutter)

G00 Z3.000000
G00 X11.600000 Y18.198900

G01 Z-2.300000 F100.0(Penetrate)
G01 X14.600000 Y18.198900 Z-2.300000 F120.000000
G01 X14.600000 Y0.422500 Z-2.300000
G01 X11.600000 Y0.422500 Z-2.300000
G01 X11.600000 Y18.198900 Z-2.300000
G00 Z3.000000

(End cutting path id: rect449)


(Start cutting path id: path26350)
(Change tool to Cylindrical cutter)

G00 Z3.000000
G00 X14.600000 Y13.107700

G01 Z-0.700000 F100.0(Penetrate)
G01 X13.100000 Y14.607700 Z-0.700000 F120.000000
G01 X11.600000 Y13.107700 Z-0.700000
G00 Z3.000000

(End cutting path id: path26350)


(Start cutting path id: path26350)
(Change tool to Cylindrical cutter)

G00 Z3.000000
G00 X14.600000 Y13.107700

G01 Z-1.400000 F100.0(Penetrate)
G01 X13.100000 Y14.607700 Z-1.400000 F120.000000
G01 X11.600000 Y13.107700 Z-1.400000
G00 Z3.000000

(End cutting path id: path26350)


(Start cutting path id: path26350)
(Change tool to Cylindrical cutter)

G00 Z3.000000
G00 X14.600000 Y13.107700

G01 Z-2.100000 F100.0(Penetrate)
G01 X13.100000 Y14.607700 Z-2.100000 F120.000000
G01 X11.600000 Y13.107700 Z-2.100000
G00 Z3.000000

(End cutting path id: path26350)


(Start cutting path id: path26350)
(Change tool to Cylindrical cutter)

G00 Z3.000000
G00 X14.600000 Y13.107700

G01 Z-2.300000 F100.0(Penetrate)
G01 X13.100000 Y14.607700 Z-2.300000 F120.000000
G01 X11.600000 Y13.107700 Z-2.300000
G00 Z3.000000

(End cutting path id: path26350)


(Start cutting path id: path26350)
(Change tool to Cylindrical cutter)

G00 Z3.000000
G00 X14.600000 Y10.562100

G01 Z-0.700000 F100.0(Penetrate)
G01 X13.100000 Y12.062100 Z-0.700000 F120.000000
G01 X11.600000 Y10.562100 Z-0.700000
G00 Z3.000000

(End cutting path id: path26350)


(Start cutting path id: path26350)
(Change tool to Cylindrical cutter)

G00 Z3.000000
G00 X14.600000 Y10.562100

G01 Z-1.400000 F100.0(Penetrate)
G01 X13.100000 Y12.062100 Z-1.400000 F120.000000
G01 X11.600000 Y10.562100 Z-1.400000
G00 Z3.000000

(End cutting path id: path26350)


(Start cutting path id: path26350)
(Change tool to Cylindrical cutter)

G00 Z3.000000
G00 X14.600000 Y10.562100

G01 Z-2.100000 F100.0(Penetrate)
G01 X13.100000 Y12.062100 Z-2.100000 F120.000000
G01 X11.600000 Y10.562100 Z-2.100000
G00 Z3.000000

(End cutting path id: path26350)


(Start cutting path id: path26350)
(Change tool to Cylindrical cutter)

G00 Z3.000000
G00 X14.600000 Y10.562100

G01 Z-2.300000 F100.0(Penetrate)
G01 X13.100000 Y12.062100 Z-2.300000 F120.000000
G01 X11.600000 Y10.562100 Z-2.300000
G00 Z3.000000

(End cutting path id: path26350)


(Start cutting path id: path26350)
(Change tool to Cylindrical cutter)

G00 Z3.000000
G00 X11.600000 Y7.804700

G01 Z-0.700000 F100.0(Penetrate)
G01 X11.827200 Y7.577500 Z-0.700000 F120.000000
G01 X13.433100 Y9.183400 Z-0.700000
G01 X13.100000 Y9.516600 Z-0.700000
G01 X12.766900 Y9.183400 Z-0.700000
G00 Z3.000000

(End cutting path id: path26350)


(Start cutting path id: path26350)
(Change tool to Cylindrical cutter)

G00 Z3.000000
G00 X11.600000 Y7.804700

G01 Z-1.400000 F100.0(Penetrate)
G01 X11.827200 Y7.577500 Z-1.400000 F120.000000
G01 X13.433100 Y9.183400 Z-1.400000
G01 X13.100000 Y9.516600 Z-1.400000
G01 X12.766900 Y9.183400 Z-1.400000
G00 Z3.000000

(End cutting path id: path26350)


(Start cutting path id: path26350)
(Change tool to Cylindrical cutter)

G00 Z3.000000
G00 X11.600000 Y7.804700

G01 Z-2.100000 F100.0(Penetrate)
G01 X11.827200 Y7.577500 Z-2.100000 F120.000000
G01 X13.433100 Y9.183400 Z-2.100000
G01 X13.100000 Y9.516600 Z-2.100000
G01 X12.766900 Y9.183400 Z-2.100000
G00 Z3.000000

(End cutting path id: path26350)


(Start cutting path id: path26350)
(Change tool to Cylindrical cutter)

G00 Z3.000000
G00 X11.600000 Y7.804700

G01 Z-2.300000 F100.0(Penetrate)
G01 X11.827200 Y7.577500 Z-2.300000 F120.000000
G01 X13.433100 Y9.183400 Z-2.300000
G01 X13.100000 Y9.516600 Z-2.300000
G01 X12.766900 Y9.183400 Z-2.300000
G00 Z3.000000

(End cutting path id: path26350)


(Start cutting path id: path26350)
(Change tool to Cylindrical cutter)

G00 Z3.000000
G00 X11.600000 Y5.259100

G01 Z-0.700000 F100.0(Penetrate)
G01 X11.827200 Y5.031900 Z-0.700000 F120.000000
G01 X14.600000 Y7.804700 Z-0.700000
G00 Z3.000000

(End cutting path id: path26350)


(Start cutting path id: path26350)
(Change tool to Cylindrical cutter)

G00 Z3.000000
G00 X11.600000 Y5.259100

G01 Z-1.400000 F100.0(Penetrate)
G01 X11.827200 Y5.031900 Z-1.400000 F120.000000
G01 X14.600000 Y7.804700 Z-1.400000
G00 Z3.000000

(End cutting path id: path26350)


(Start cutting path id: path26350)
(Change tool to Cylindrical cutter)

G00 Z3.000000
G00 X11.600000 Y5.259100

G01 Z-2.100000 F100.0(Penetrate)
G01 X11.827200 Y5.031900 Z-2.100000 F120.000000
G01 X14.600000 Y7.804700 Z-2.100000
G00 Z3.000000

(End cutting path id: path26350)


(Start cutting path id: path26350)
(Change tool to Cylindrical cutter)

G00 Z3.000000
G00 X11.600000 Y5.259100

G01 Z-2.300000 F100.0(Penetrate)
G01 X11.827200 Y5.031900 Z-2.300000 F120.000000
G01 X14.600000 Y7.804700 Z-2.300000
G00 Z3.000000

(End cutting path id: path26350)


(Start cutting path id: path26350)
(Change tool to Cylindrical cutter)

G00 Z3.000000
G00 X11.600000 Y2.713500

G01 Z-0.700000 F100.0(Penetrate)
G01 X11.827200 Y2.486300 Z-0.700000 F120.000000
G01 X14.600000 Y5.259100 Z-0.700000
G00 Z3.000000

(End cutting path id: path26350)


(Start cutting path id: path26350)
(Change tool to Cylindrical cutter)

G00 Z3.000000
G00 X11.600000 Y2.713500

G01 Z-1.400000 F100.0(Penetrate)
G01 X11.827200 Y2.486300 Z-1.400000 F120.000000
G01 X14.600000 Y5.259100 Z-1.400000
G00 Z3.000000

(End cutting path id: path26350)


(Start cutting path id: path26350)
(Change tool to Cylindrical cutter)

G00 Z3.000000
G00 X11.600000 Y2.713500

G01 Z-2.100000 F100.0(Penetrate)
G01 X11.827200 Y2.486300 Z-2.100000 F120.000000
G01 X14.600000 Y5.259100 Z-2.100000
G00 Z3.000000

(End cutting path id: path26350)


(Start cutting path id: path26350)
(Change tool to Cylindrical cutter)

G00 Z3.000000
G00 X11.600000 Y2.713500

G01 Z-2.300000 F100.0(Penetrate)
G01 X11.827200 Y2.486300 Z-2.300000 F120.000000
G01 X14.600000 Y5.259100 Z-2.300000
G00 Z3.000000

(End cutting path id: path26350)


(Start cutting path id: path26350)
(Change tool to Cylindrical cutter)

G00 Z3.000000
G00 X12.309000 Y0.422500

G01 Z-0.700000 F100.0(Penetrate)
G01 X14.600000 Y2.713500 Z-0.700000 F120.000000
G00 Z3.000000

(End cutting path id: path26350)


(Start cutting path id: path26350)
(Change tool to Cylindrical cutter)

G00 Z3.000000
G00 X12.309000 Y0.422500

G01 Z-1.400000 F100.0(Penetrate)
G01 X14.600000 Y2.713500 Z-1.400000 F120.000000
G00 Z3.000000

(End cutting path id: path26350)


(Start cutting path id: path26350)
(Change tool to Cylindrical cutter)

G00 Z3.000000
G00 X12.309000 Y0.422500

G01 Z-2.100000 F100.0(Penetrate)
G01 X14.600000 Y2.713500 Z-2.100000 F120.000000
G00 Z3.000000

(End cutting path id: path26350)


(Start cutting path id: path26350)
(Change tool to Cylindrical cutter)

G00 Z3.000000
G00 X12.309000 Y0.422500

G01 Z-2.300000 F100.0(Penetrate)
G01 X14.600000 Y2.713500 Z-2.300000 F120.000000
G00 Z3.000000

(End cutting path id: path26350)


(Start cutting path id: path26346)
(Change tool to Cylindrical cutter)

G00 Z3.000000
G00 X6.732500 Y28.127200

G01 Z-0.700000 F100.0(Penetrate)
G01 X7.105200 Y28.499900 Z-0.700000 F120.000000
G01 X6.477900 Y29.127200 Z-0.700000
G00 Z3.000000

(End cutting path id: path26346)


(Start cutting path id: path26346)
(Change tool to Cylindrical cutter)

G00 Z3.000000
G00 X6.732500 Y28.127200

G01 Z-1.400000 F100.0(Penetrate)
G01 X7.105200 Y28.499900 Z-1.400000 F120.000000
G01 X6.477900 Y29.127200 Z-1.400000
G00 Z3.000000

(End cutting path id: path26346)


(Start cutting path id: path26346)
(Change tool to Cylindrical cutter)

G00 Z3.000000
G00 X6.732500 Y28.127200

G01 Z-2.100000 F100.0(Penetrate)
G01 X7.105200 Y28.499900 Z-2.100000 F120.000000
G01 X6.477900 Y29.127200 Z-2.100000
G00 Z3.000000

(End cutting path id: path26346)


(Start cutting path id: path26346)
(Change tool to Cylindrical cutter)

G00 Z3.000000
G00 X6.732500 Y28.127200

G01 Z-2.300000 F100.0(Penetrate)
G01 X7.105200 Y28.499900 Z-2.300000 F120.000000
G01 X6.477900 Y29.127200 Z-2.300000
G00 Z3.000000

(End cutting path id: path26346)


(Start cutting path id: path26342)
(Change tool to Cylindrical cutter)

G00 Z3.000000
G00 X5.700000 Y30.127200

G01 Z-0.700000 F100.0(Penetrate)
G01 X5.700000 Y30.127200 Z-0.700000 F120.000000
G00 Z3.000000

(End cutting path id: path26342)


(Start cutting path id: path26342)
(Change tool to Cylindrical cutter)

G00 Z3.000000
G00 X5.700000 Y30.127200

G01 Z-1.400000 F100.0(Penetrate)
G01 X5.700000 Y30.127200 Z-1.400000 F120.000000
G00 Z3.000000

(End cutting path id: path26342)


(Start cutting path id: path26342)
(Change tool to Cylindrical cutter)

G00 Z3.000000
G00 X5.700000 Y30.127200

G01 Z-2.100000 F100.0(Penetrate)
G01 X5.700000 Y30.127200 Z-2.100000 F120.000000
G00 Z3.000000

(End cutting path id: path26342)


(Start cutting path id: path26342)
(Change tool to Cylindrical cutter)

G00 Z3.000000
G00 X5.700000 Y30.127200

G01 Z-2.300000 F100.0(Penetrate)
G01 X5.700000 Y30.127200 Z-2.300000 F120.000000
G00 Z3.000000

(End cutting path id: path26342)


(Start cutting path id: path26342)
(Change tool to Cylindrical cutter)

G00 Z3.000000
G00 X5.700000 Y30.127200

G01 Z-0.700000 F100.0(Penetrate)
G01 X5.700000 Y30.127200 Z-0.700000 F120.000000
G00 Z3.000000

(End cutting path id: path26342)


(Start cutting path id: path26342)
(Change tool to Cylindrical cutter)

G00 Z3.000000
G00 X5.700000 Y30.127200

G01 Z-1.400000 F100.0(Penetrate)
G01 X5.700000 Y30.127200 Z-1.400000 F120.000000
G00 Z3.000000

(End cutting path id: path26342)


(Start cutting path id: path26342)
(Change tool to Cylindrical cutter)

G00 Z3.000000
G00 X5.700000 Y30.127200

G01 Z-2.100000 F100.0(Penetrate)
G01 X5.700000 Y30.127200 Z-2.100000 F120.000000
G00 Z3.000000

(End cutting path id: path26342)


(Start cutting path id: path26342)
(Change tool to Cylindrical cutter)

G00 Z3.000000
G00 X5.700000 Y30.127200

G01 Z-2.300000 F100.0(Penetrate)
G01 X5.700000 Y30.127200 Z-2.300000 F120.000000
G00 Z3.000000

(End cutting path id: path26342)


(Start cutting path id: path26342)
(Change tool to Cylindrical cutter)

G00 Z3.000000
G00 X5.700000 Y30.127200

G01 Z-0.700000 F100.0(Penetrate)
G01 X5.700000 Y30.127200 Z-0.700000 F120.000000
G00 Z3.000000

(End cutting path id: path26342)


(Start cutting path id: path26342)
(Change tool to Cylindrical cutter)

G00 Z3.000000
G00 X5.700000 Y30.127200

G01 Z-1.400000 F100.0(Penetrate)
G01 X5.700000 Y30.127200 Z-1.400000 F120.000000
G00 Z3.000000

(End cutting path id: path26342)


(Start cutting path id: path26342)
(Change tool to Cylindrical cutter)

G00 Z3.000000
G00 X5.700000 Y30.127200

G01 Z-2.100000 F100.0(Penetrate)
G01 X5.700000 Y30.127200 Z-2.100000 F120.000000
G00 Z3.000000

(End cutting path id: path26342)


(Start cutting path id: path26342)
(Change tool to Cylindrical cutter)

G00 Z3.000000
G00 X5.700000 Y30.127200

G01 Z-2.300000 F100.0(Penetrate)
G01 X5.700000 Y30.127200 Z-2.300000 F120.000000
G00 Z3.000000

(End cutting path id: path26342)


(Start cutting path id: path26342)
(Change tool to Cylindrical cutter)

G00 Z3.000000
G00 X4.700000 Y30.127200

G01 Z-0.700000 F100.0(Penetrate)
G01 X4.700000 Y30.127200 Z-0.700000 F120.000000
G00 Z3.000000

(End cutting path id: path26342)


(Start cutting path id: path26342)
(Change tool to Cylindrical cutter)

G00 Z3.000000
G00 X4.700000 Y30.127200

G01 Z-1.400000 F100.0(Penetrate)
G01 X4.700000 Y30.127200 Z-1.400000 F120.000000
G00 Z3.000000

(End cutting path id: path26342)


(Start cutting path id: path26342)
(Change tool to Cylindrical cutter)

G00 Z3.000000
G00 X4.700000 Y30.127200

G01 Z-2.100000 F100.0(Penetrate)
G01 X4.700000 Y30.127200 Z-2.100000 F120.000000
G00 Z3.000000

(End cutting path id: path26342)


(Start cutting path id: path26342)
(Change tool to Cylindrical cutter)

G00 Z3.000000
G00 X4.700000 Y30.127200

G01 Z-2.300000 F100.0(Penetrate)
G01 X4.700000 Y30.127200 Z-2.300000 F120.000000
G00 Z3.000000

(End cutting path id: path26342)


(Start cutting path id: rect453)
(Change tool to Cylindrical cutter)

G00 Z3.000000
G00 X4.700000 Y30.127200

G01 Z-0.700000 F100.0(Penetrate)
G01 X5.700000 Y30.127200 Z-0.700000 F120.000000
G01 X5.700000 Y27.127200 Z-0.700000
G01 X4.700000 Y27.127200 Z-0.700000
G01 X4.700000 Y30.127200 Z-0.700000
G00 Z3.000000

(End cutting path id: rect453)


(Start cutting path id: rect453)
(Change tool to Cylindrical cutter)

G00 Z3.000000
G00 X4.700000 Y30.127200

G01 Z-1.400000 F100.0(Penetrate)
G01 X5.700000 Y30.127200 Z-1.400000 F120.000000
G01 X5.700000 Y27.127200 Z-1.400000
G01 X4.700000 Y27.127200 Z-1.400000
G01 X4.700000 Y30.127200 Z-1.400000
G00 Z3.000000

(End cutting path id: rect453)


(Start cutting path id: rect453)
(Change tool to Cylindrical cutter)

G00 Z3.000000
G00 X4.700000 Y30.127200

G01 Z-2.100000 F100.0(Penetrate)
G01 X5.700000 Y30.127200 Z-2.100000 F120.000000
G01 X5.700000 Y27.127200 Z-2.100000
G01 X4.700000 Y27.127200 Z-2.100000
G01 X4.700000 Y30.127200 Z-2.100000
G00 Z3.000000

(End cutting path id: rect453)


(Start cutting path id: rect453)
(Change tool to Cylindrical cutter)

G00 Z3.000000
G00 X4.700000 Y30.127200

G01 Z-2.300000 F100.0(Penetrate)
G01 X5.700000 Y30.127200 Z-2.300000 F120.000000
G01 X5.700000 Y27.127200 Z-2.300000
G01 X4.700000 Y27.127200 Z-2.300000
G01 X4.700000 Y30.127200 Z-2.300000
G00 Z3.000000

(End cutting path id: rect453)


(Start cutting path id: path26342)
(Change tool to Cylindrical cutter)

G00 Z3.000000
G00 X4.700000 Y28.418200

G01 Z-0.700000 F100.0(Penetrate)
G01 X4.781700 Y28.499900 Z-0.700000 F120.000000
G00 Z3.000000

(End cutting path id: path26342)


(Start cutting path id: path26342)
(Change tool to Cylindrical cutter)

G00 Z3.000000
G00 X4.700000 Y28.418200

G01 Z-1.400000 F100.0(Penetrate)
G01 X4.781700 Y28.499900 Z-1.400000 F120.000000
G00 Z3.000000

(End cutting path id: path26342)


(Start cutting path id: path26342)
(Change tool to Cylindrical cutter)

G00 Z3.000000
G00 X4.700000 Y28.418200

G01 Z-2.100000 F100.0(Penetrate)
G01 X4.781700 Y28.499900 Z-2.100000 F120.000000
G00 Z3.000000

(End cutting path id: path26342)


(Start cutting path id: path26342)
(Change tool to Cylindrical cutter)

G00 Z3.000000
G00 X4.700000 Y28.418200

G01 Z-2.300000 F100.0(Penetrate)
G01 X4.781700 Y28.499900 Z-2.300000 F120.000000
G00 Z3.000000

(End cutting path id: path26342)


(Start cutting path id: path26346)
(Change tool to Cylindrical cutter)

G00 Z3.000000
G00 X4.186900 Y28.127200

G01 Z-0.700000 F100.0(Penetrate)
G01 X4.559600 Y28.499900 Z-0.700000 F120.000000
G00 Z3.000000

(End cutting path id: path26346)


(Start cutting path id: path26346)
(Change tool to Cylindrical cutter)

G00 Z3.000000
G00 X4.186900 Y28.127200

G01 Z-1.400000 F100.0(Penetrate)
G01 X4.559600 Y28.499900 Z-1.400000 F120.000000
G00 Z3.000000

(End cutting path id: path26346)


(Start cutting path id: path26346)
(Change tool to Cylindrical cutter)

G00 Z3.000000
G00 X4.186900 Y28.127200

G01 Z-2.100000 F100.0(Penetrate)
G01 X4.559600 Y28.499900 Z-2.100000 F120.000000
G00 Z3.000000

(End cutting path id: path26346)


(Start cutting path id: path26346)
(Change tool to Cylindrical cutter)

G00 Z3.000000
G00 X4.186900 Y28.127200

G01 Z-2.300000 F100.0(Penetrate)
G01 X4.559600 Y28.499900 Z-2.300000 F120.000000
G00 Z3.000000

(End cutting path id: path26346)


(Start cutting path id: path26346)
(Change tool to Cylindrical cutter)

G00 Z3.000000
G00 X3.270500 Y29.127200

G01 Z-0.700000 F100.0(Penetrate)
G01 X2.643200 Y28.499900 Z-0.700000 F120.000000
G01 X3.015900 Y28.127200 Z-0.700000
G00 Z3.000000

(End cutting path id: path26346)


(Start cutting path id: path26346)
(Change tool to Cylindrical cutter)

G00 Z3.000000
G00 X3.270500 Y29.127200

G01 Z-1.400000 F100.0(Penetrate)
G01 X2.643200 Y28.499900 Z-1.400000 F120.000000
G01 X3.015900 Y28.127200 Z-1.400000
G00 Z3.000000

(End cutting path id: path26346)


(Start cutting path id: path26346)
(Change tool to Cylindrical cutter)

G00 Z3.000000
G00 X3.270500 Y29.127200

G01 Z-2.100000 F100.0(Penetrate)
G01 X2.643200 Y28.499900 Z-2.100000 F120.000000
G01 X3.015900 Y28.127200 Z-2.100000
G00 Z3.000000

(End cutting path id: path26346)


(Start cutting path id: path26346)
(Change tool to Cylindrical cutter)

G00 Z3.000000
G00 X3.270500 Y29.127200

G01 Z-2.300000 F100.0(Penetrate)
G01 X2.643200 Y28.499900 Z-2.300000 F120.000000
G01 X3.015900 Y28.127200 Z-2.300000
G00 Z3.000000

(End cutting path id: path26346)


(Start cutting path id: path26346)
(Change tool to Cylindrical cutter)

G00 Z3.000000
G00 X0.724900 Y29.127200

G01 Z-0.700000 F100.0(Penetrate)
G01 X0.724900 Y29.127200 Z-0.700000 F120.000000
G00 Z3.000000

(End cutting path id: path26346)


(Start cutting path id: path26346)
(Change tool to Cylindrical cutter)

G00 Z3.000000
G00 X0.724900 Y29.127200

G01 Z-1.400000 F100.0(Penetrate)
G01 X0.724900 Y29.127200 Z-1.400000 F120.000000
G00 Z3.000000

(End cutting path id: path26346)


(Start cutting path id: path26346)
(Change tool to Cylindrical cutter)

G00 Z3.000000
G00 X0.724900 Y29.127200

G01 Z-2.100000 F100.0(Penetrate)
G01 X0.724900 Y29.127200 Z-2.100000 F120.000000
G00 Z3.000000

(End cutting path id: path26346)


(Start cutting path id: path26346)
(Change tool to Cylindrical cutter)

G00 Z3.000000
G00 X0.724900 Y29.127200

G01 Z-2.300000 F100.0(Penetrate)
G01 X0.724900 Y29.127200 Z-2.300000 F120.000000
G00 Z3.000000

(End cutting path id: path26346)


(Start cutting path id: path26346)
(Change tool to Cylindrical cutter)

G00 Z3.000000
G00 X0.724900 Y29.127200

G01 Z-0.700000 F100.0(Penetrate)
G01 X0.724900 Y29.127200 Z-0.700000 F120.000000
G00 Z3.000000

(End cutting path id: path26346)


(Start cutting path id: path26346)
(Change tool to Cylindrical cutter)

G00 Z3.000000
G00 X0.724900 Y29.127200

G01 Z-1.400000 F100.0(Penetrate)
G01 X0.724900 Y29.127200 Z-1.400000 F120.000000
G00 Z3.000000

(End cutting path id: path26346)


(Start cutting path id: path26346)
(Change tool to Cylindrical cutter)

G00 Z3.000000
G00 X0.724900 Y29.127200

G01 Z-2.100000 F100.0(Penetrate)
G01 X0.724900 Y29.127200 Z-2.100000 F120.000000
G00 Z3.000000

(End cutting path id: path26346)


(Start cutting path id: path26346)
(Change tool to Cylindrical cutter)

G00 Z3.000000
G00 X0.724900 Y29.127200

G01 Z-2.300000 F100.0(Penetrate)
G01 X0.724900 Y29.127200 Z-2.300000 F120.000000
G00 Z3.000000

(End cutting path id: path26346)


(Start cutting path id: path26346)
(Change tool to Cylindrical cutter)

G00 Z3.000000
G00 X0.724900 Y29.127200

G01 Z-0.700000 F100.0(Penetrate)
G01 X0.724900 Y29.127200 Z-0.700000 F120.000000
G00 Z3.000000

(End cutting path id: path26346)


(Start cutting path id: path26346)
(Change tool to Cylindrical cutter)

G00 Z3.000000
G00 X0.724900 Y29.127200

G01 Z-1.400000 F100.0(Penetrate)
G01 X0.724900 Y29.127200 Z-1.400000 F120.000000
G00 Z3.000000

(End cutting path id: path26346)


(Start cutting path id: path26346)
(Change tool to Cylindrical cutter)

G00 Z3.000000
G00 X0.724900 Y29.127200

G01 Z-2.100000 F100.0(Penetrate)
G01 X0.724900 Y29.127200 Z-2.100000 F120.000000
G00 Z3.000000

(End cutting path id: path26346)


(Start cutting path id: path26346)
(Change tool to Cylindrical cutter)

G00 Z3.000000
G00 X0.724900 Y29.127200

G01 Z-2.300000 F100.0(Penetrate)
G01 X0.724900 Y29.127200 Z-2.300000 F120.000000
G00 Z3.000000

(End cutting path id: path26346)


(Start cutting path id: rect451)
(Change tool to Cylindrical cutter)

G00 Z3.000000
G00 X0.724900 Y29.127200

G01 Z-0.700000 F100.0(Penetrate)
G01 X9.023500 Y29.127200 Z-0.700000 F120.000000
G01 X9.023500 Y28.127200 Z-0.700000
G01 X0.724900 Y28.127200 Z-0.700000
G01 X0.724900 Y29.127200 Z-0.700000
G00 Z3.000000

(End cutting path id: rect451)


(Start cutting path id: rect451)
(Change tool to Cylindrical cutter)

G00 Z3.000000
G00 X0.724900 Y29.127200

G01 Z-1.400000 F100.0(Penetrate)
G01 X9.023500 Y29.127200 Z-1.400000 F120.000000
G01 X9.023500 Y28.127200 Z-1.400000
G01 X0.724900 Y28.127200 Z-1.400000
G01 X0.724900 Y29.127200 Z-1.400000
G00 Z3.000000

(End cutting path id: rect451)


(Start cutting path id: rect451)
(Change tool to Cylindrical cutter)

G00 Z3.000000
G00 X0.724900 Y29.127200

G01 Z-2.100000 F100.0(Penetrate)
G01 X9.023500 Y29.127200 Z-2.100000 F120.000000
G01 X9.023500 Y28.127200 Z-2.100000
G01 X0.724900 Y28.127200 Z-2.100000
G01 X0.724900 Y29.127200 Z-2.100000
G00 Z3.000000

(End cutting path id: rect451)


(Start cutting path id: rect451)
(Change tool to Cylindrical cutter)

G00 Z3.000000
G00 X0.724900 Y29.127200

G01 Z-2.300000 F100.0(Penetrate)
G01 X9.023500 Y29.127200 Z-2.300000 F120.000000
G01 X9.023500 Y28.127200 Z-2.300000
G01 X0.724900 Y28.127200 Z-2.300000
G01 X0.724900 Y29.127200 Z-2.300000
G00 Z3.000000

(End cutting path id: rect451)


(Start cutting path id: path26346)
(Change tool to Cylindrical cutter)

G00 Z3.000000
G00 X9.023500 Y29.127200

G01 Z-0.700000 F100.0(Penetrate)
G01 X9.023500 Y29.127200 Z-0.700000 F120.000000
G00 Z3.000000

(End cutting path id: path26346)


(Start cutting path id: path26346)
(Change tool to Cylindrical cutter)

G00 Z3.000000
G00 X9.023500 Y29.127200

G01 Z-1.400000 F100.0(Penetrate)
G01 X9.023500 Y29.127200 Z-1.400000 F120.000000
G00 Z3.000000

(End cutting path id: path26346)


(Start cutting path id: path26346)
(Change tool to Cylindrical cutter)

G00 Z3.000000
G00 X9.023500 Y29.127200

G01 Z-2.100000 F100.0(Penetrate)
G01 X9.023500 Y29.127200 Z-2.100000 F120.000000
G00 Z3.000000

(End cutting path id: path26346)


(Start cutting path id: path26346)
(Change tool to Cylindrical cutter)

G00 Z3.000000
G00 X9.023500 Y29.127200

G01 Z-2.300000 F100.0(Penetrate)
G01 X9.023500 Y29.127200 Z-2.300000 F120.000000
G00 Z3.000000

(End cutting path id: path26346)


(Footer)
M5
G00 X0.0000 Y0.0000
M2
(Using default footer. To add your own footer create file "footer" in the output dir.)
(end)
%