%
(Header)
(Generated by gcodetools from Inkscape.)
(Using default header. To add your own header create file "header" in the output dir.)
M3
(Header end.)
G21 (All units in mm)

(Start cutting path id: circle463)
(Change tool to Cylindrical cutter)

G00 Z3.000000
G00 X13.761900 Y41.127200

G01 Z-0.700000 F100.0(Penetrate)
G02 X13.723840 Y40.935858 Z-0.700000 I-0.500000 J0.000000 F120.000000
G02 X13.615453 Y40.773647 Z-0.700000 I-0.461940 J0.191342
G02 X13.453242 Y40.665260 Z-0.700000 I-0.353553 J0.353553
G02 X13.261900 Y40.627200 Z-0.700000 I-0.191342 J0.461940
G02 X13.070558 Y40.665260 Z-0.700000 I0.000000 J0.500000
G02 X12.908347 Y40.773647 Z-0.700000 I0.191342 J0.461940
G02 X12.799960 Y40.935858 Z-0.700000 I0.353553 J0.353553
G02 X12.761900 Y41.127200 Z-0.700000 I0.461940 J0.191342
G02 X12.799960 Y41.318542 Z-0.700000 I0.500000 J0.000000
G02 X12.908347 Y41.480753 Z-0.700000 I0.461940 J-0.191342
G02 X13.070558 Y41.589140 Z-0.700000 I0.353553 J-0.353553
G02 X13.261900 Y41.627200 Z-0.700000 I0.191342 J-0.461940
G02 X13.453242 Y41.589140 Z-0.700000 I-0.000000 J-0.500000
G02 X13.615453 Y41.480753 Z-0.700000 I-0.191342 J-0.461940
G02 X13.723840 Y41.318542 Z-0.700000 I-0.353553 J-0.353553
G02 X13.761900 Y41.127200 Z-0.700000 I-0.461940 J-0.191342
G01 X13.761900 Y41.127200 Z-0.700000
G00 Z3.000000

(End cutting path id: circle463)


(Start cutting path id: circle463)
(Change tool to Cylindrical cutter)

G00 Z3.000000
G00 X13.761900 Y41.127200

G01 Z-1.400000 F100.0(Penetrate)
G02 X13.723840 Y40.935858 Z-1.400000 I-0.500000 J0.000000 F120.000000
G02 X13.615453 Y40.773647 Z-1.400000 I-0.461940 J0.191342
G02 X13.453242 Y40.665260 Z-1.400000 I-0.353553 J0.353553
G02 X13.261900 Y40.627200 Z-1.400000 I-0.191342 J0.461940
G02 X13.070558 Y40.665260 Z-1.400000 I0.000000 J0.500000
G02 X12.908347 Y40.773647 Z-1.400000 I0.191342 J0.461940
G02 X12.799960 Y40.935858 Z-1.400000 I0.353553 J0.353553
G02 X12.761900 Y41.127200 Z-1.400000 I0.461940 J0.191342
G02 X12.799960 Y41.318542 Z-1.400000 I0.500000 J0.000000
G02 X12.908347 Y41.480753 Z-1.400000 I0.461940 J-0.191342
G02 X13.070558 Y41.589140 Z-1.400000 I0.353553 J-0.353553
G02 X13.261900 Y41.627200 Z-1.400000 I0.191342 J-0.461940
G02 X13.453242 Y41.589140 Z-1.400000 I-0.000000 J-0.500000
G02 X13.615453 Y41.480753 Z-1.400000 I-0.191342 J-0.461940
G02 X13.723840 Y41.318542 Z-1.400000 I-0.353553 J-0.353553
G02 X13.761900 Y41.127200 Z-1.400000 I-0.461940 J-0.191342
G01 X13.761900 Y41.127200 Z-1.400000
G00 Z3.000000

(End cutting path id: circle463)


(Start cutting path id: circle463)
(Change tool to Cylindrical cutter)

G00 Z3.000000
G00 X13.761900 Y41.127200

G01 Z-2.100000 F100.0(Penetrate)
G02 X13.723840 Y40.935858 Z-2.100000 I-0.500000 J0.000000 F120.000000
G02 X13.615453 Y40.773647 Z-2.100000 I-0.461940 J0.191342
G02 X13.453242 Y40.665260 Z-2.100000 I-0.353553 J0.353553
G02 X13.261900 Y40.627200 Z-2.100000 I-0.191342 J0.461940
G02 X13.070558 Y40.665260 Z-2.100000 I0.000000 J0.500000
G02 X12.908347 Y40.773647 Z-2.100000 I0.191342 J0.461940
G02 X12.799960 Y40.935858 Z-2.100000 I0.353553 J0.353553
G02 X12.761900 Y41.127200 Z-2.100000 I0.461940 J0.191342
G02 X12.799960 Y41.318542 Z-2.100000 I0.500000 J0.000000
G02 X12.908347 Y41.480753 Z-2.100000 I0.461940 J-0.191342
G02 X13.070558 Y41.589140 Z-2.100000 I0.353553 J-0.353553
G02 X13.261900 Y41.627200 Z-2.100000 I0.191342 J-0.461940
G02 X13.453242 Y41.589140 Z-2.100000 I-0.000000 J-0.500000
G02 X13.615453 Y41.480753 Z-2.100000 I-0.191342 J-0.461940
G02 X13.723840 Y41.318542 Z-2.100000 I-0.353553 J-0.353553
G02 X13.761900 Y41.127200 Z-2.100000 I-0.461940 J-0.191342
G01 X13.761900 Y41.127200 Z-2.100000
G00 Z3.000000

(End cutting path id: circle463)


(Start cutting path id: circle463)
(Change tool to Cylindrical cutter)

G00 Z3.000000
G00 X13.761900 Y41.127200

G01 Z-2.800000 F100.0(Penetrate)
G02 X13.723840 Y40.935858 Z-2.800000 I-0.500000 J0.000000 F120.000000
G02 X13.615453 Y40.773647 Z-2.800000 I-0.461940 J0.191342
G02 X13.453242 Y40.665260 Z-2.800000 I-0.353553 J0.353553
G02 X13.261900 Y40.627200 Z-2.800000 I-0.191342 J0.461940
G02 X13.070558 Y40.665260 Z-2.800000 I0.000000 J0.500000
G02 X12.908347 Y40.773647 Z-2.800000 I0.191342 J0.461940
G02 X12.799960 Y40.935858 Z-2.800000 I0.353553 J0.353553
G02 X12.761900 Y41.127200 Z-2.800000 I0.461940 J0.191342
G02 X12.799960 Y41.318542 Z-2.800000 I0.500000 J0.000000
G02 X12.908347 Y41.480753 Z-2.800000 I0.461940 J-0.191342
G02 X13.070558 Y41.589140 Z-2.800000 I0.353553 J-0.353553
G02 X13.261900 Y41.627200 Z-2.800000 I0.191342 J-0.461940
G02 X13.453242 Y41.589140 Z-2.800000 I-0.000000 J-0.500000
G02 X13.615453 Y41.480753 Z-2.800000 I-0.191342 J-0.461940
G02 X13.723840 Y41.318542 Z-2.800000 I-0.353553 J-0.353553
G02 X13.761900 Y41.127200 Z-2.800000 I-0.461940 J-0.191342
G01 X13.761900 Y41.127200 Z-2.800000
G00 Z3.000000

(End cutting path id: circle463)


(Start cutting path id: circle463)
(Change tool to Cylindrical cutter)

G00 Z3.000000
G00 X13.761900 Y41.127200

G01 Z-3.500000 F100.0(Penetrate)
G02 X13.723840 Y40.935858 Z-3.500000 I-0.500000 J0.000000 F120.000000
G02 X13.615453 Y40.773647 Z-3.500000 I-0.461940 J0.191342
G02 X13.453242 Y40.665260 Z-3.500000 I-0.353553 J0.353553
G02 X13.261900 Y40.627200 Z-3.500000 I-0.191342 J0.461940
G02 X13.070558 Y40.665260 Z-3.500000 I0.000000 J0.500000
G02 X12.908347 Y40.773647 Z-3.500000 I0.191342 J0.461940
G02 X12.799960 Y40.935858 Z-3.500000 I0.353553 J0.353553
G02 X12.761900 Y41.127200 Z-3.500000 I0.461940 J0.191342
G02 X12.799960 Y41.318542 Z-3.500000 I0.500000 J0.000000
G02 X12.908347 Y41.480753 Z-3.500000 I0.461940 J-0.191342
G02 X13.070558 Y41.589140 Z-3.500000 I0.353553 J-0.353553
G02 X13.261900 Y41.627200 Z-3.500000 I0.191342 J-0.461940
G02 X13.453242 Y41.589140 Z-3.500000 I-0.000000 J-0.500000
G02 X13.615453 Y41.480753 Z-3.500000 I-0.191342 J-0.461940
G02 X13.723840 Y41.318542 Z-3.500000 I-0.353553 J-0.353553
G02 X13.761900 Y41.127200 Z-3.500000 I-0.461940 J-0.191342
G01 X13.761900 Y41.127200 Z-3.500000
G00 Z3.000000

(End cutting path id: circle463)


(Start cutting path id: circle463)
(Change tool to Cylindrical cutter)

G00 Z3.000000
G00 X13.761900 Y41.127200

G01 Z-4.200000 F100.0(Penetrate)
G02 X13.723840 Y40.935858 Z-4.200000 I-0.500000 J0.000000 F120.000000
G02 X13.615453 Y40.773647 Z-4.200000 I-0.461940 J0.191342
G02 X13.453242 Y40.665260 Z-4.200000 I-0.353553 J0.353553
G02 X13.261900 Y40.627200 Z-4.200000 I-0.191342 J0.461940
G02 X13.070558 Y40.665260 Z-4.200000 I0.000000 J0.500000
G02 X12.908347 Y40.773647 Z-4.200000 I0.191342 J0.461940
G02 X12.799960 Y40.935858 Z-4.200000 I0.353553 J0.353553
G02 X12.761900 Y41.127200 Z-4.200000 I0.461940 J0.191342
G02 X12.799960 Y41.318542 Z-4.200000 I0.500000 J0.000000
G02 X12.908347 Y41.480753 Z-4.200000 I0.461940 J-0.191342
G02 X13.070558 Y41.589140 Z-4.200000 I0.353553 J-0.353553
G02 X13.261900 Y41.627200 Z-4.200000 I0.191342 J-0.461940
G02 X13.453242 Y41.589140 Z-4.200000 I-0.000000 J-0.500000
G02 X13.615453 Y41.480753 Z-4.200000 I-0.191342 J-0.461940
G02 X13.723840 Y41.318542 Z-4.200000 I-0.353553 J-0.353553
G02 X13.761900 Y41.127200 Z-4.200000 I-0.461940 J-0.191342
G01 X13.761900 Y41.127200 Z-4.200000
G00 Z3.000000

(End cutting path id: circle463)


(Start cutting path id: circle463)
(Change tool to Cylindrical cutter)

G00 Z3.000000
G00 X13.761900 Y41.127200

G01 Z-4.500000 F100.0(Penetrate)
G02 X13.723840 Y40.935858 Z-4.500000 I-0.500000 J0.000000 F120.000000
G02 X13.615453 Y40.773647 Z-4.500000 I-0.461940 J0.191342
G02 X13.453242 Y40.665260 Z-4.500000 I-0.353553 J0.353553
G02 X13.261900 Y40.627200 Z-4.500000 I-0.191342 J0.461940
G02 X13.070558 Y40.665260 Z-4.500000 I0.000000 J0.500000
G02 X12.908347 Y40.773647 Z-4.500000 I0.191342 J0.461940
G02 X12.799960 Y40.935858 Z-4.500000 I0.353553 J0.353553
G02 X12.761900 Y41.127200 Z-4.500000 I0.461940 J0.191342
G02 X12.799960 Y41.318542 Z-4.500000 I0.500000 J0.000000
G02 X12.908347 Y41.480753 Z-4.500000 I0.461940 J-0.191342
G02 X13.070558 Y41.589140 Z-4.500000 I0.353553 J-0.353553
G02 X13.261900 Y41.627200 Z-4.500000 I0.191342 J-0.461940
G02 X13.453242 Y41.589140 Z-4.500000 I-0.000000 J-0.500000
G02 X13.615453 Y41.480753 Z-4.500000 I-0.191342 J-0.461940
G02 X13.723840 Y41.318542 Z-4.500000 I-0.353553 J-0.353553
G02 X13.761900 Y41.127200 Z-4.500000 I-0.461940 J-0.191342
G01 X13.761900 Y41.127200 Z-4.500000
G00 Z3.000000

(End cutting path id: circle463)


(Start cutting path id: circle455)
(Change tool to Cylindrical cutter)

G00 Z3.000000
G00 X17.523501 Y28.627199

G01 Z-0.700000 F100.0(Penetrate)
G02 X17.199989 Y27.000794 Z-0.700000 I-4.250000 J0.000000 F120.000000
G02 X16.278705 Y25.621995 Z-0.700000 I-3.926488 J1.626405
G02 X14.899906 Y24.700711 Z-0.700000 I-3.005204 J3.005204
G02 X13.273501 Y24.377199 Z-0.700000 I-1.626405 J3.926488
G02 X11.647096 Y24.700711 Z-0.700000 I-0.000000 J4.250000
G02 X10.268297 Y25.621995 Z-0.700000 I1.626405 J3.926488
G02 X9.347013 Y27.000794 Z-0.700000 I3.005204 J3.005204
G02 X9.023501 Y28.627199 Z-0.700000 I3.926488 J1.626405
G02 X9.347013 Y30.253604 Z-0.700000 I4.250000 J0.000000
G02 X10.268297 Y31.632403 Z-0.700000 I3.926488 J-1.626405
G02 X11.647096 Y32.553687 Z-0.700000 I3.005204 J-3.005204
G02 X13.273501 Y32.877199 Z-0.700000 I1.626405 J-3.926488
G02 X14.899906 Y32.553687 Z-0.700000 I-0.000000 J-4.250000
G02 X16.278705 Y31.632403 Z-0.700000 I-1.626405 J-3.926488
G02 X17.199989 Y30.253604 Z-0.700000 I-3.005204 J-3.005204
G02 X17.523501 Y28.627199 Z-0.700000 I-3.926488 J-1.626405
G01 X17.523501 Y28.627199 Z-0.700000
G00 Z3.000000

(End cutting path id: circle455)


(Start cutting path id: circle455)
(Change tool to Cylindrical cutter)

G00 Z3.000000
G00 X17.523501 Y28.627199

G01 Z-1.400000 F100.0(Penetrate)
G02 X17.199989 Y27.000794 Z-1.400000 I-4.250000 J0.000000 F120.000000
G02 X16.278705 Y25.621995 Z-1.400000 I-3.926488 J1.626405
G02 X14.899906 Y24.700711 Z-1.400000 I-3.005204 J3.005204
G02 X13.273501 Y24.377199 Z-1.400000 I-1.626405 J3.926488
G02 X11.647096 Y24.700711 Z-1.400000 I-0.000000 J4.250000
G02 X10.268297 Y25.621995 Z-1.400000 I1.626405 J3.926488
G02 X9.347013 Y27.000794 Z-1.400000 I3.005204 J3.005204
G02 X9.023501 Y28.627199 Z-1.400000 I3.926488 J1.626405
G02 X9.347013 Y30.253604 Z-1.400000 I4.250000 J0.000000
G02 X10.268297 Y31.632403 Z-1.400000 I3.926488 J-1.626405
G02 X11.647096 Y32.553687 Z-1.400000 I3.005204 J-3.005204
G02 X13.273501 Y32.877199 Z-1.400000 I1.626405 J-3.926488
G02 X14.899906 Y32.553687 Z-1.400000 I-0.000000 J-4.250000
G02 X16.278705 Y31.632403 Z-1.400000 I-1.626405 J-3.926488
G02 X17.199989 Y30.253604 Z-1.400000 I-3.005204 J-3.005204
G02 X17.523501 Y28.627199 Z-1.400000 I-3.926488 J-1.626405
G01 X17.523501 Y28.627199 Z-1.400000
G00 Z3.000000

(End cutting path id: circle455)


(Start cutting path id: circle455)
(Change tool to Cylindrical cutter)

G00 Z3.000000
G00 X17.523501 Y28.627199

G01 Z-2.100000 F100.0(Penetrate)
G02 X17.199989 Y27.000794 Z-2.100000 I-4.250000 J0.000000 F120.000000
G02 X16.278705 Y25.621995 Z-2.100000 I-3.926488 J1.626405
G02 X14.899906 Y24.700711 Z-2.100000 I-3.005204 J3.005204
G02 X13.273501 Y24.377199 Z-2.100000 I-1.626405 J3.926488
G02 X11.647096 Y24.700711 Z-2.100000 I-0.000000 J4.250000
G02 X10.268297 Y25.621995 Z-2.100000 I1.626405 J3.926488
G02 X9.347013 Y27.000794 Z-2.100000 I3.005204 J3.005204
G02 X9.023501 Y28.627199 Z-2.100000 I3.926488 J1.626405
G02 X9.347013 Y30.253604 Z-2.100000 I4.250000 J0.000000
G02 X10.268297 Y31.632403 Z-2.100000 I3.926488 J-1.626405
G02 X11.647096 Y32.553687 Z-2.100000 I3.005204 J-3.005204
G02 X13.273501 Y32.877199 Z-2.100000 I1.626405 J-3.926488
G02 X14.899906 Y32.553687 Z-2.100000 I-0.000000 J-4.250000
G02 X16.278705 Y31.632403 Z-2.100000 I-1.626405 J-3.926488
G02 X17.199989 Y30.253604 Z-2.100000 I-3.005204 J-3.005204
G02 X17.523501 Y28.627199 Z-2.100000 I-3.926488 J-1.626405
G01 X17.523501 Y28.627199 Z-2.100000
G00 Z3.000000

(End cutting path id: circle455)


(Start cutting path id: circle455)
(Change tool to Cylindrical cutter)

G00 Z3.000000
G00 X17.523501 Y28.627199

G01 Z-2.800000 F100.0(Penetrate)
G02 X17.199989 Y27.000794 Z-2.800000 I-4.250000 J0.000000 F120.000000
G02 X16.278705 Y25.621995 Z-2.800000 I-3.926488 J1.626405
G02 X14.899906 Y24.700711 Z-2.800000 I-3.005204 J3.005204
G02 X13.273501 Y24.377199 Z-2.800000 I-1.626405 J3.926488
G02 X11.647096 Y24.700711 Z-2.800000 I-0.000000 J4.250000
G02 X10.268297 Y25.621995 Z-2.800000 I1.626405 J3.926488
G02 X9.347013 Y27.000794 Z-2.800000 I3.005204 J3.005204
G02 X9.023501 Y28.627199 Z-2.800000 I3.926488 J1.626405
G02 X9.347013 Y30.253604 Z-2.800000 I4.250000 J0.000000
G02 X10.268297 Y31.632403 Z-2.800000 I3.926488 J-1.626405
G02 X11.647096 Y32.553687 Z-2.800000 I3.005204 J-3.005204
G02 X13.273501 Y32.877199 Z-2.800000 I1.626405 J-3.926488
G02 X14.899906 Y32.553687 Z-2.800000 I-0.000000 J-4.250000
G02 X16.278705 Y31.632403 Z-2.800000 I-1.626405 J-3.926488
G02 X17.199989 Y30.253604 Z-2.800000 I-3.005204 J-3.005204
G02 X17.523501 Y28.627199 Z-2.800000 I-3.926488 J-1.626405
G01 X17.523501 Y28.627199 Z-2.800000
G00 Z3.000000

(End cutting path id: circle455)


(Start cutting path id: circle455)
(Change tool to Cylindrical cutter)

G00 Z3.000000
G00 X17.523501 Y28.627199

G01 Z-3.500000 F100.0(Penetrate)
G02 X17.199989 Y27.000794 Z-3.500000 I-4.250000 J0.000000 F120.000000
G02 X16.278705 Y25.621995 Z-3.500000 I-3.926488 J1.626405
G02 X14.899906 Y24.700711 Z-3.500000 I-3.005204 J3.005204
G02 X13.273501 Y24.377199 Z-3.500000 I-1.626405 J3.926488
G02 X11.647096 Y24.700711 Z-3.500000 I-0.000000 J4.250000
G02 X10.268297 Y25.621995 Z-3.500000 I1.626405 J3.926488
G02 X9.347013 Y27.000794 Z-3.500000 I3.005204 J3.005204
G02 X9.023501 Y28.627199 Z-3.500000 I3.926488 J1.626405
G02 X9.347013 Y30.253604 Z-3.500000 I4.250000 J0.000000
G02 X10.268297 Y31.632403 Z-3.500000 I3.926488 J-1.626405
G02 X11.647096 Y32.553687 Z-3.500000 I3.005204 J-3.005204
G02 X13.273501 Y32.877199 Z-3.500000 I1.626405 J-3.926488
G02 X14.899906 Y32.553687 Z-3.500000 I-0.000000 J-4.250000
G02 X16.278705 Y31.632403 Z-3.500000 I-1.626405 J-3.926488
G02 X17.199989 Y30.253604 Z-3.500000 I-3.005204 J-3.005204
G02 X17.523501 Y28.627199 Z-3.500000 I-3.926488 J-1.626405
G01 X17.523501 Y28.627199 Z-3.500000
G00 Z3.000000

(End cutting path id: circle455)


(Start cutting path id: circle455)
(Change tool to Cylindrical cutter)

G00 Z3.000000
G00 X17.523501 Y28.627199

G01 Z-4.200000 F100.0(Penetrate)
G02 X17.199989 Y27.000794 Z-4.200000 I-4.250000 J0.000000 F120.000000
G02 X16.278705 Y25.621995 Z-4.200000 I-3.926488 J1.626405
G02 X14.899906 Y24.700711 Z-4.200000 I-3.005204 J3.005204
G02 X13.273501 Y24.377199 Z-4.200000 I-1.626405 J3.926488
G02 X11.647096 Y24.700711 Z-4.200000 I-0.000000 J4.250000
G02 X10.268297 Y25.621995 Z-4.200000 I1.626405 J3.926488
G02 X9.347013 Y27.000794 Z-4.200000 I3.005204 J3.005204
G02 X9.023501 Y28.627199 Z-4.200000 I3.926488 J1.626405
G02 X9.347013 Y30.253604 Z-4.200000 I4.250000 J0.000000
G02 X10.268297 Y31.632403 Z-4.200000 I3.926488 J-1.626405
G02 X11.647096 Y32.553687 Z-4.200000 I3.005204 J-3.005204
G02 X13.273501 Y32.877199 Z-4.200000 I1.626405 J-3.926488
G02 X14.899906 Y32.553687 Z-4.200000 I-0.000000 J-4.250000
G02 X16.278705 Y31.632403 Z-4.200000 I-1.626405 J-3.926488
G02 X17.199989 Y30.253604 Z-4.200000 I-3.005204 J-3.005204
G02 X17.523501 Y28.627199 Z-4.200000 I-3.926488 J-1.626405
G01 X17.523501 Y28.627199 Z-4.200000
G00 Z3.000000

(End cutting path id: circle455)


(Start cutting path id: circle455)
(Change tool to Cylindrical cutter)

G00 Z3.000000
G00 X17.523501 Y28.627199

G01 Z-4.500000 F100.0(Penetrate)
G02 X17.199989 Y27.000794 Z-4.500000 I-4.250000 J0.000000 F120.000000
G02 X16.278705 Y25.621995 Z-4.500000 I-3.926488 J1.626405
G02 X14.899906 Y24.700711 Z-4.500000 I-3.005204 J3.005204
G02 X13.273501 Y24.377199 Z-4.500000 I-1.626405 J3.926488
G02 X11.647096 Y24.700711 Z-4.500000 I-0.000000 J4.250000
G02 X10.268297 Y25.621995 Z-4.500000 I1.626405 J3.926488
G02 X9.347013 Y27.000794 Z-4.500000 I3.005204 J3.005204
G02 X9.023501 Y28.627199 Z-4.500000 I3.926488 J1.626405
G02 X9.347013 Y30.253604 Z-4.500000 I4.250000 J0.000000
G02 X10.268297 Y31.632403 Z-4.500000 I3.926488 J-1.626405
G02 X11.647096 Y32.553687 Z-4.500000 I3.005204 J-3.005204
G02 X13.273501 Y32.877199 Z-4.500000 I1.626405 J-3.926488
G02 X14.899906 Y32.553687 Z-4.500000 I-0.000000 J-4.250000
G02 X16.278705 Y31.632403 Z-4.500000 I-1.626405 J-3.926488
G02 X17.199989 Y30.253604 Z-4.500000 I-3.005204 J-3.005204
G02 X17.523501 Y28.627199 Z-4.500000 I-3.926488 J-1.626405
G01 X17.523501 Y28.627199 Z-4.500000
G00 Z3.000000

(End cutting path id: circle455)


(Start cutting path id: circle461)
(Change tool to Cylindrical cutter)

G00 Z3.000000
G00 X22.100001 Y4.922499

G01 Z-0.700000 F100.0(Penetrate)
G02 X22.061941 Y4.731157 Z-0.700000 I-0.500000 J0.000000 F120.000000
G02 X21.953554 Y4.568946 Z-0.700000 I-0.461940 J0.191342
G02 X21.791343 Y4.460559 Z-0.700000 I-0.353553 J0.353553
G02 X21.600001 Y4.422499 Z-0.700000 I-0.191342 J0.461940
G02 X21.408659 Y4.460559 Z-0.700000 I-0.000000 J0.500000
G02 X21.246448 Y4.568946 Z-0.700000 I0.191342 J0.461940
G02 X21.138061 Y4.731157 Z-0.700000 I0.353553 J0.353553
G02 X21.100001 Y4.922499 Z-0.700000 I0.461940 J0.191342
G02 X21.138061 Y5.113841 Z-0.700000 I0.500000 J0.000000
G02 X21.246448 Y5.276052 Z-0.700000 I0.461940 J-0.191342
G02 X21.408659 Y5.384439 Z-0.700000 I0.353553 J-0.353553
G02 X21.600001 Y5.422499 Z-0.700000 I0.191342 J-0.461940
G02 X21.791343 Y5.384439 Z-0.700000 I-0.000000 J-0.500000
G02 X21.953554 Y5.276052 Z-0.700000 I-0.191342 J-0.461940
G02 X22.061941 Y5.113841 Z-0.700000 I-0.353553 J-0.353553
G02 X22.100001 Y4.922499 Z-0.700000 I-0.461940 J-0.191342
G01 X22.100001 Y4.922499 Z-0.700000
G00 Z3.000000

(End cutting path id: circle461)


(Start cutting path id: circle461)
(Change tool to Cylindrical cutter)

G00 Z3.000000
G00 X22.100001 Y4.922499

G01 Z-1.400000 F100.0(Penetrate)
G02 X22.061941 Y4.731157 Z-1.400000 I-0.500000 J0.000000 F120.000000
G02 X21.953554 Y4.568946 Z-1.400000 I-0.461940 J0.191342
G02 X21.791343 Y4.460559 Z-1.400000 I-0.353553 J0.353553
G02 X21.600001 Y4.422499 Z-1.400000 I-0.191342 J0.461940
G02 X21.408659 Y4.460559 Z-1.400000 I-0.000000 J0.500000
G02 X21.246448 Y4.568946 Z-1.400000 I0.191342 J0.461940
G02 X21.138061 Y4.731157 Z-1.400000 I0.353553 J0.353553
G02 X21.100001 Y4.922499 Z-1.400000 I0.461940 J0.191342
G02 X21.138061 Y5.113841 Z-1.400000 I0.500000 J0.000000
G02 X21.246448 Y5.276052 Z-1.400000 I0.461940 J-0.191342
G02 X21.408659 Y5.384439 Z-1.400000 I0.353553 J-0.353553
G02 X21.600001 Y5.422499 Z-1.400000 I0.191342 J-0.461940
G02 X21.791343 Y5.384439 Z-1.400000 I-0.000000 J-0.500000
G02 X21.953554 Y5.276052 Z-1.400000 I-0.191342 J-0.461940
G02 X22.061941 Y5.113841 Z-1.400000 I-0.353553 J-0.353553
G02 X22.100001 Y4.922499 Z-1.400000 I-0.461940 J-0.191342
G01 X22.100001 Y4.922499 Z-1.400000
G00 Z3.000000

(End cutting path id: circle461)


(Start cutting path id: circle461)
(Change tool to Cylindrical cutter)

G00 Z3.000000
G00 X22.100001 Y4.922499

G01 Z-2.100000 F100.0(Penetrate)
G02 X22.061941 Y4.731157 Z-2.100000 I-0.500000 J0.000000 F120.000000
G02 X21.953554 Y4.568946 Z-2.100000 I-0.461940 J0.191342
G02 X21.791343 Y4.460559 Z-2.100000 I-0.353553 J0.353553
G02 X21.600001 Y4.422499 Z-2.100000 I-0.191342 J0.461940
G02 X21.408659 Y4.460559 Z-2.100000 I-0.000000 J0.500000
G02 X21.246448 Y4.568946 Z-2.100000 I0.191342 J0.461940
G02 X21.138061 Y4.731157 Z-2.100000 I0.353553 J0.353553
G02 X21.100001 Y4.922499 Z-2.100000 I0.461940 J0.191342
G02 X21.138061 Y5.113841 Z-2.100000 I0.500000 J0.000000
G02 X21.246448 Y5.276052 Z-2.100000 I0.461940 J-0.191342
G02 X21.408659 Y5.384439 Z-2.100000 I0.353553 J-0.353553
G02 X21.600001 Y5.422499 Z-2.100000 I0.191342 J-0.461940
G02 X21.791343 Y5.384439 Z-2.100000 I-0.000000 J-0.500000
G02 X21.953554 Y5.276052 Z-2.100000 I-0.191342 J-0.461940
G02 X22.061941 Y5.113841 Z-2.100000 I-0.353553 J-0.353553
G02 X22.100001 Y4.922499 Z-2.100000 I-0.461940 J-0.191342
G01 X22.100001 Y4.922499 Z-2.100000
G00 Z3.000000

(End cutting path id: circle461)


(Start cutting path id: circle461)
(Change tool to Cylindrical cutter)

G00 Z3.000000
G00 X22.100001 Y4.922499

G01 Z-2.800000 F100.0(Penetrate)
G02 X22.061941 Y4.731157 Z-2.800000 I-0.500000 J0.000000 F120.000000
G02 X21.953554 Y4.568946 Z-2.800000 I-0.461940 J0.191342
G02 X21.791343 Y4.460559 Z-2.800000 I-0.353553 J0.353553
G02 X21.600001 Y4.422499 Z-2.800000 I-0.191342 J0.461940
G02 X21.408659 Y4.460559 Z-2.800000 I-0.000000 J0.500000
G02 X21.246448 Y4.568946 Z-2.800000 I0.191342 J0.461940
G02 X21.138061 Y4.731157 Z-2.800000 I0.353553 J0.353553
G02 X21.100001 Y4.922499 Z-2.800000 I0.461940 J0.191342
G02 X21.138061 Y5.113841 Z-2.800000 I0.500000 J0.000000
G02 X21.246448 Y5.276052 Z-2.800000 I0.461940 J-0.191342
G02 X21.408659 Y5.384439 Z-2.800000 I0.353553 J-0.353553
G02 X21.600001 Y5.422499 Z-2.800000 I0.191342 J-0.461940
G02 X21.791343 Y5.384439 Z-2.800000 I-0.000000 J-0.500000
G02 X21.953554 Y5.276052 Z-2.800000 I-0.191342 J-0.461940
G02 X22.061941 Y5.113841 Z-2.800000 I-0.353553 J-0.353553
G02 X22.100001 Y4.922499 Z-2.800000 I-0.461940 J-0.191342
G01 X22.100001 Y4.922499 Z-2.800000
G00 Z3.000000

(End cutting path id: circle461)


(Start cutting path id: circle461)
(Change tool to Cylindrical cutter)

G00 Z3.000000
G00 X22.100001 Y4.922499

G01 Z-3.500000 F100.0(Penetrate)
G02 X22.061941 Y4.731157 Z-3.500000 I-0.500000 J0.000000 F120.000000
G02 X21.953554 Y4.568946 Z-3.500000 I-0.461940 J0.191342
G02 X21.791343 Y4.460559 Z-3.500000 I-0.353553 J0.353553
G02 X21.600001 Y4.422499 Z-3.500000 I-0.191342 J0.461940
G02 X21.408659 Y4.460559 Z-3.500000 I-0.000000 J0.500000
G02 X21.246448 Y4.568946 Z-3.500000 I0.191342 J0.461940
G02 X21.138061 Y4.731157 Z-3.500000 I0.353553 J0.353553
G02 X21.100001 Y4.922499 Z-3.500000 I0.461940 J0.191342
G02 X21.138061 Y5.113841 Z-3.500000 I0.500000 J0.000000
G02 X21.246448 Y5.276052 Z-3.500000 I0.461940 J-0.191342
G02 X21.408659 Y5.384439 Z-3.500000 I0.353553 J-0.353553
G02 X21.600001 Y5.422499 Z-3.500000 I0.191342 J-0.461940
G02 X21.791343 Y5.384439 Z-3.500000 I-0.000000 J-0.500000
G02 X21.953554 Y5.276052 Z-3.500000 I-0.191342 J-0.461940
G02 X22.061941 Y5.113841 Z-3.500000 I-0.353553 J-0.353553
G02 X22.100001 Y4.922499 Z-3.500000 I-0.461940 J-0.191342
G01 X22.100001 Y4.922499 Z-3.500000
G00 Z3.000000

(End cutting path id: circle461)


(Start cutting path id: circle461)
(Change tool to Cylindrical cutter)

G00 Z3.000000
G00 X22.100001 Y4.922499

G01 Z-4.200000 F100.0(Penetrate)
G02 X22.061941 Y4.731157 Z-4.200000 I-0.500000 J0.000000 F120.000000
G02 X21.953554 Y4.568946 Z-4.200000 I-0.461940 J0.191342
G02 X21.791343 Y4.460559 Z-4.200000 I-0.353553 J0.353553
G02 X21.600001 Y4.422499 Z-4.200000 I-0.191342 J0.461940
G02 X21.408659 Y4.460559 Z-4.200000 I-0.000000 J0.500000
G02 X21.246448 Y4.568946 Z-4.200000 I0.191342 J0.461940
G02 X21.138061 Y4.731157 Z-4.200000 I0.353553 J0.353553
G02 X21.100001 Y4.922499 Z-4.200000 I0.461940 J0.191342
G02 X21.138061 Y5.113841 Z-4.200000 I0.500000 J0.000000
G02 X21.246448 Y5.276052 Z-4.200000 I0.461940 J-0.191342
G02 X21.408659 Y5.384439 Z-4.200000 I0.353553 J-0.353553
G02 X21.600001 Y5.422499 Z-4.200000 I0.191342 J-0.461940
G02 X21.791343 Y5.384439 Z-4.200000 I-0.000000 J-0.500000
G02 X21.953554 Y5.276052 Z-4.200000 I-0.191342 J-0.461940
G02 X22.061941 Y5.113841 Z-4.200000 I-0.353553 J-0.353553
G02 X22.100001 Y4.922499 Z-4.200000 I-0.461940 J-0.191342
G01 X22.100001 Y4.922499 Z-4.200000
G00 Z3.000000

(End cutting path id: circle461)


(Start cutting path id: circle461)
(Change tool to Cylindrical cutter)

G00 Z3.000000
G00 X22.100001 Y4.922499

G01 Z-4.500000 F100.0(Penetrate)
G02 X22.061941 Y4.731157 Z-4.500000 I-0.500000 J0.000000 F120.000000
G02 X21.953554 Y4.568946 Z-4.500000 I-0.461940 J0.191342
G02 X21.791343 Y4.460559 Z-4.500000 I-0.353553 J0.353553
G02 X21.600001 Y4.422499 Z-4.500000 I-0.191342 J0.461940
G02 X21.408659 Y4.460559 Z-4.500000 I-0.000000 J0.500000
G02 X21.246448 Y4.568946 Z-4.500000 I0.191342 J0.461940
G02 X21.138061 Y4.731157 Z-4.500000 I0.353553 J0.353553
G02 X21.100001 Y4.922499 Z-4.500000 I0.461940 J0.191342
G02 X21.138061 Y5.113841 Z-4.500000 I0.500000 J0.000000
G02 X21.246448 Y5.276052 Z-4.500000 I0.461940 J-0.191342
G02 X21.408659 Y5.384439 Z-4.500000 I0.353553 J-0.353553
G02 X21.600001 Y5.422499 Z-4.500000 I0.191342 J-0.461940
G02 X21.791343 Y5.384439 Z-4.500000 I-0.000000 J-0.500000
G02 X21.953554 Y5.276052 Z-4.500000 I-0.191342 J-0.461940
G02 X22.061941 Y5.113841 Z-4.500000 I-0.353553 J-0.353553
G02 X22.100001 Y4.922499 Z-4.500000 I-0.461940 J-0.191342
G01 X22.100001 Y4.922499 Z-4.500000
G00 Z3.000000

(End cutting path id: circle461)


(Start cutting path id: circle457)
(Change tool to Cylindrical cutter)

G00 Z3.000000
G00 X5.100000 Y4.950399

G01 Z-0.700000 F100.0(Penetrate)
G02 X5.061940 Y4.759057 Z-0.700000 I-0.500000 J0.000000 F120.000000
G02 X4.953553 Y4.596846 Z-0.700000 I-0.461940 J0.191342
G02 X4.791342 Y4.488459 Z-0.700000 I-0.353553 J0.353553
G02 X4.600000 Y4.450399 Z-0.700000 I-0.191342 J0.461940
G02 X4.408658 Y4.488459 Z-0.700000 I-0.000000 J0.500000
G02 X4.246447 Y4.596846 Z-0.700000 I0.191342 J0.461940
G02 X4.138060 Y4.759057 Z-0.700000 I0.353553 J0.353553
G02 X4.100000 Y4.950399 Z-0.700000 I0.461940 J0.191342
G02 X4.138060 Y5.141741 Z-0.700000 I0.500000 J-0.000000
G02 X4.246447 Y5.303952 Z-0.700000 I0.461940 J-0.191342
G02 X4.408658 Y5.412339 Z-0.700000 I0.353553 J-0.353553
G02 X4.600000 Y5.450399 Z-0.700000 I0.191342 J-0.461940
G02 X4.791342 Y5.412339 Z-0.700000 I0.000000 J-0.500000
G02 X4.953553 Y5.303952 Z-0.700000 I-0.191342 J-0.461940
G02 X5.061940 Y5.141741 Z-0.700000 I-0.353553 J-0.353553
G02 X5.100000 Y4.950399 Z-0.700000 I-0.461940 J-0.191342
G01 X5.100000 Y4.950399 Z-0.700000
G00 Z3.000000

(End cutting path id: circle457)


(Start cutting path id: circle457)
(Change tool to Cylindrical cutter)

G00 Z3.000000
G00 X5.100000 Y4.950399

G01 Z-1.400000 F100.0(Penetrate)
G02 X5.061940 Y4.759057 Z-1.400000 I-0.500000 J0.000000 F120.000000
G02 X4.953553 Y4.596846 Z-1.400000 I-0.461940 J0.191342
G02 X4.791342 Y4.488459 Z-1.400000 I-0.353553 J0.353553
G02 X4.600000 Y4.450399 Z-1.400000 I-0.191342 J0.461940
G02 X4.408658 Y4.488459 Z-1.400000 I-0.000000 J0.500000
G02 X4.246447 Y4.596846 Z-1.400000 I0.191342 J0.461940
G02 X4.138060 Y4.759057 Z-1.400000 I0.353553 J0.353553
G02 X4.100000 Y4.950399 Z-1.400000 I0.461940 J0.191342
G02 X4.138060 Y5.141741 Z-1.400000 I0.500000 J-0.000000
G02 X4.246447 Y5.303952 Z-1.400000 I0.461940 J-0.191342
G02 X4.408658 Y5.412339 Z-1.400000 I0.353553 J-0.353553
G02 X4.600000 Y5.450399 Z-1.400000 I0.191342 J-0.461940
G02 X4.791342 Y5.412339 Z-1.400000 I0.000000 J-0.500000
G02 X4.953553 Y5.303952 Z-1.400000 I-0.191342 J-0.461940
G02 X5.061940 Y5.141741 Z-1.400000 I-0.353553 J-0.353553
G02 X5.100000 Y4.950399 Z-1.400000 I-0.461940 J-0.191342
G01 X5.100000 Y4.950399 Z-1.400000
G00 Z3.000000

(End cutting path id: circle457)


(Start cutting path id: circle457)
(Change tool to Cylindrical cutter)

G00 Z3.000000
G00 X5.100000 Y4.950399

G01 Z-2.100000 F100.0(Penetrate)
G02 X5.061940 Y4.759057 Z-2.100000 I-0.500000 J0.000000 F120.000000
G02 X4.953553 Y4.596846 Z-2.100000 I-0.461940 J0.191342
G02 X4.791342 Y4.488459 Z-2.100000 I-0.353553 J0.353553
G02 X4.600000 Y4.450399 Z-2.100000 I-0.191342 J0.461940
G02 X4.408658 Y4.488459 Z-2.100000 I-0.000000 J0.500000
G02 X4.246447 Y4.596846 Z-2.100000 I0.191342 J0.461940
G02 X4.138060 Y4.759057 Z-2.100000 I0.353553 J0.353553
G02 X4.100000 Y4.950399 Z-2.100000 I0.461940 J0.191342
G02 X4.138060 Y5.141741 Z-2.100000 I0.500000 J-0.000000
G02 X4.246447 Y5.303952 Z-2.100000 I0.461940 J-0.191342
G02 X4.408658 Y5.412339 Z-2.100000 I0.353553 J-0.353553
G02 X4.600000 Y5.450399 Z-2.100000 I0.191342 J-0.461940
G02 X4.791342 Y5.412339 Z-2.100000 I0.000000 J-0.500000
G02 X4.953553 Y5.303952 Z-2.100000 I-0.191342 J-0.461940
G02 X5.061940 Y5.141741 Z-2.100000 I-0.353553 J-0.353553
G02 X5.100000 Y4.950399 Z-2.100000 I-0.461940 J-0.191342
G01 X5.100000 Y4.950399 Z-2.100000
G00 Z3.000000

(End cutting path id: circle457)


(Start cutting path id: circle457)
(Change tool to Cylindrical cutter)

G00 Z3.000000
G00 X5.100000 Y4.950399

G01 Z-2.800000 F100.0(Penetrate)
G02 X5.061940 Y4.759057 Z-2.800000 I-0.500000 J0.000000 F120.000000
G02 X4.953553 Y4.596846 Z-2.800000 I-0.461940 J0.191342
G02 X4.791342 Y4.488459 Z-2.800000 I-0.353553 J0.353553
G02 X4.600000 Y4.450399 Z-2.800000 I-0.191342 J0.461940
G02 X4.408658 Y4.488459 Z-2.800000 I-0.000000 J0.500000
G02 X4.246447 Y4.596846 Z-2.800000 I0.191342 J0.461940
G02 X4.138060 Y4.759057 Z-2.800000 I0.353553 J0.353553
G02 X4.100000 Y4.950399 Z-2.800000 I0.461940 J0.191342
G02 X4.138060 Y5.141741 Z-2.800000 I0.500000 J-0.000000
G02 X4.246447 Y5.303952 Z-2.800000 I0.461940 J-0.191342
G02 X4.408658 Y5.412339 Z-2.800000 I0.353553 J-0.353553
G02 X4.600000 Y5.450399 Z-2.800000 I0.191342 J-0.461940
G02 X4.791342 Y5.412339 Z-2.800000 I0.000000 J-0.500000
G02 X4.953553 Y5.303952 Z-2.800000 I-0.191342 J-0.461940
G02 X5.061940 Y5.141741 Z-2.800000 I-0.353553 J-0.353553
G02 X5.100000 Y4.950399 Z-2.800000 I-0.461940 J-0.191342
G01 X5.100000 Y4.950399 Z-2.800000
G00 Z3.000000

(End cutting path id: circle457)


(Start cutting path id: circle457)
(Change tool to Cylindrical cutter)

G00 Z3.000000
G00 X5.100000 Y4.950399

G01 Z-3.500000 F100.0(Penetrate)
G02 X5.061940 Y4.759057 Z-3.500000 I-0.500000 J0.000000 F120.000000
G02 X4.953553 Y4.596846 Z-3.500000 I-0.461940 J0.191342
G02 X4.791342 Y4.488459 Z-3.500000 I-0.353553 J0.353553
G02 X4.600000 Y4.450399 Z-3.500000 I-0.191342 J0.461940
G02 X4.408658 Y4.488459 Z-3.500000 I-0.000000 J0.500000
G02 X4.246447 Y4.596846 Z-3.500000 I0.191342 J0.461940
G02 X4.138060 Y4.759057 Z-3.500000 I0.353553 J0.353553
G02 X4.100000 Y4.950399 Z-3.500000 I0.461940 J0.191342
G02 X4.138060 Y5.141741 Z-3.500000 I0.500000 J-0.000000
G02 X4.246447 Y5.303952 Z-3.500000 I0.461940 J-0.191342
G02 X4.408658 Y5.412339 Z-3.500000 I0.353553 J-0.353553
G02 X4.600000 Y5.450399 Z-3.500000 I0.191342 J-0.461940
G02 X4.791342 Y5.412339 Z-3.500000 I0.000000 J-0.500000
G02 X4.953553 Y5.303952 Z-3.500000 I-0.191342 J-0.461940
G02 X5.061940 Y5.141741 Z-3.500000 I-0.353553 J-0.353553
G02 X5.100000 Y4.950399 Z-3.500000 I-0.461940 J-0.191342
G01 X5.100000 Y4.950399 Z-3.500000
G00 Z3.000000

(End cutting path id: circle457)


(Start cutting path id: circle457)
(Change tool to Cylindrical cutter)

G00 Z3.000000
G00 X5.100000 Y4.950399

G01 Z-4.200000 F100.0(Penetrate)
G02 X5.061940 Y4.759057 Z-4.200000 I-0.500000 J0.000000 F120.000000
G02 X4.953553 Y4.596846 Z-4.200000 I-0.461940 J0.191342
G02 X4.791342 Y4.488459 Z-4.200000 I-0.353553 J0.353553
G02 X4.600000 Y4.450399 Z-4.200000 I-0.191342 J0.461940
G02 X4.408658 Y4.488459 Z-4.200000 I-0.000000 J0.500000
G02 X4.246447 Y4.596846 Z-4.200000 I0.191342 J0.461940
G02 X4.138060 Y4.759057 Z-4.200000 I0.353553 J0.353553
G02 X4.100000 Y4.950399 Z-4.200000 I0.461940 J0.191342
G02 X4.138060 Y5.141741 Z-4.200000 I0.500000 J-0.000000
G02 X4.246447 Y5.303952 Z-4.200000 I0.461940 J-0.191342
G02 X4.408658 Y5.412339 Z-4.200000 I0.353553 J-0.353553
G02 X4.600000 Y5.450399 Z-4.200000 I0.191342 J-0.461940
G02 X4.791342 Y5.412339 Z-4.200000 I0.000000 J-0.500000
G02 X4.953553 Y5.303952 Z-4.200000 I-0.191342 J-0.461940
G02 X5.061940 Y5.141741 Z-4.200000 I-0.353553 J-0.353553
G02 X5.100000 Y4.950399 Z-4.200000 I-0.461940 J-0.191342
G01 X5.100000 Y4.950399 Z-4.200000
G00 Z3.000000

(End cutting path id: circle457)


(Start cutting path id: circle457)
(Change tool to Cylindrical cutter)

G00 Z3.000000
G00 X5.100000 Y4.950399

G01 Z-4.500000 F100.0(Penetrate)
G02 X5.061940 Y4.759057 Z-4.500000 I-0.500000 J0.000000 F120.000000
G02 X4.953553 Y4.596846 Z-4.500000 I-0.461940 J0.191342
G02 X4.791342 Y4.488459 Z-4.500000 I-0.353553 J0.353553
G02 X4.600000 Y4.450399 Z-4.500000 I-0.191342 J0.461940
G02 X4.408658 Y4.488459 Z-4.500000 I-0.000000 J0.500000
G02 X4.246447 Y4.596846 Z-4.500000 I0.191342 J0.461940
G02 X4.138060 Y4.759057 Z-4.500000 I0.353553 J0.353553
G02 X4.100000 Y4.950399 Z-4.500000 I0.461940 J0.191342
G02 X4.138060 Y5.141741 Z-4.500000 I0.500000 J-0.000000
G02 X4.246447 Y5.303952 Z-4.500000 I0.461940 J-0.191342
G02 X4.408658 Y5.412339 Z-4.500000 I0.353553 J-0.353553
G02 X4.600000 Y5.450399 Z-4.500000 I0.191342 J-0.461940
G02 X4.791342 Y5.412339 Z-4.500000 I0.000000 J-0.500000
G02 X4.953553 Y5.303952 Z-4.500000 I-0.191342 J-0.461940
G02 X5.061940 Y5.141741 Z-4.500000 I-0.353553 J-0.353553
G02 X5.100000 Y4.950399 Z-4.500000 I-0.461940 J-0.191342
G01 X5.100000 Y4.950399 Z-4.500000
G00 Z3.000000

(End cutting path id: circle457)


(Footer)
M5
G00 X0.0000 Y0.0000
M2
(Using default footer. To add your own footer create file "footer" in the output dir.)
(end)
%