%
(Header)
(Generated by gcodetools from Inkscape.)
(Using default header. To add your own header create file "header" in the output dir.)
M3
(Header end.)
G21 (All units in mm)

(Start cutting path id: path12621)
(Change tool to Cylindrical cutter)

G00 Z2.000000
G00 X14.600000 Y18.020000

G01 Z-0.700000 F100.0(Penetrate)
G01 X14.600000 Y18.020000 Z-0.700000 F120.000000
G00 Z2.000000

(End cutting path id: path12621)


(Start cutting path id: path12621)
(Change tool to Cylindrical cutter)

G00 Z2.000000
G00 X14.600000 Y18.020000

G01 Z-1.400000 F100.0(Penetrate)
G01 X14.600000 Y18.020000 Z-1.400000 F120.000000
G00 Z2.000000

(End cutting path id: path12621)


(Start cutting path id: path12621)
(Change tool to Cylindrical cutter)

G00 Z2.000000
G00 X14.600000 Y18.020000

G01 Z-2.100000 F100.0(Penetrate)
G01 X14.600000 Y18.020000 Z-2.100000 F120.000000
G00 Z2.000000

(End cutting path id: path12621)


(Start cutting path id: path12621)
(Change tool to Cylindrical cutter)

G00 Z2.000000
G00 X14.600000 Y18.020000

G01 Z-2.300000 F100.0(Penetrate)
G01 X14.600000 Y18.020000 Z-2.300000 F120.000000
G00 Z2.000000

(End cutting path id: path12621)


(Start cutting path id: rect14)
(Change tool to Cylindrical cutter)

G00 Z2.000000
G00 X14.599999 Y18.019900

G01 Z-0.700000 F100.0(Penetrate)
G01 X11.599999 Y18.019900 Z-0.700000 F120.000000
G01 X11.599999 Y0.243501 Z-0.700000
G01 X14.599999 Y0.243501 Z-0.700000
G01 X14.599999 Y18.019900 Z-0.700000
G00 Z2.000000

(End cutting path id: rect14)


(Start cutting path id: rect14)
(Change tool to Cylindrical cutter)

G00 Z2.000000
G00 X14.599999 Y18.019900

G01 Z-1.400000 F100.0(Penetrate)
G01 X11.599999 Y18.019900 Z-1.400000 F120.000000
G01 X11.599999 Y0.243501 Z-1.400000
G01 X14.599999 Y0.243501 Z-1.400000
G01 X14.599999 Y18.019900 Z-1.400000
G00 Z2.000000

(End cutting path id: rect14)


(Start cutting path id: rect14)
(Change tool to Cylindrical cutter)

G00 Z2.000000
G00 X14.599999 Y18.019900

G01 Z-2.100000 F100.0(Penetrate)
G01 X11.599999 Y18.019900 Z-2.100000 F120.000000
G01 X11.599999 Y0.243501 Z-2.100000
G01 X14.599999 Y0.243501 Z-2.100000
G01 X14.599999 Y18.019900 Z-2.100000
G00 Z2.000000

(End cutting path id: rect14)


(Start cutting path id: rect14)
(Change tool to Cylindrical cutter)

G00 Z2.000000
G00 X14.599999 Y18.019900

G01 Z-2.300000 F100.0(Penetrate)
G01 X11.599999 Y18.019900 Z-2.300000 F120.000000
G01 X11.599999 Y0.243501 Z-2.300000
G01 X14.599999 Y0.243501 Z-2.300000
G01 X14.599999 Y18.019900 Z-2.300000
G00 Z2.000000

(End cutting path id: rect14)


(Start cutting path id: path12621)
(Change tool to Cylindrical cutter)

G00 Z2.000000
G00 X14.600000 Y15.474000

G01 Z-0.700000 F100.0(Penetrate)
G01 X13.100000 Y16.974000 Z-0.700000 F120.000000
G01 X11.600000 Y15.474000 Z-0.700000
G00 Z2.000000

(End cutting path id: path12621)


(Start cutting path id: path12621)
(Change tool to Cylindrical cutter)

G00 Z2.000000
G00 X14.600000 Y15.474000

G01 Z-1.400000 F100.0(Penetrate)
G01 X13.100000 Y16.974000 Z-1.400000 F120.000000
G01 X11.600000 Y15.474000 Z-1.400000
G00 Z2.000000

(End cutting path id: path12621)


(Start cutting path id: path12621)
(Change tool to Cylindrical cutter)

G00 Z2.000000
G00 X14.600000 Y15.474000

G01 Z-2.100000 F100.0(Penetrate)
G01 X13.100000 Y16.974000 Z-2.100000 F120.000000
G01 X11.600000 Y15.474000 Z-2.100000
G00 Z2.000000

(End cutting path id: path12621)


(Start cutting path id: path12621)
(Change tool to Cylindrical cutter)

G00 Z2.000000
G00 X14.600000 Y15.474000

G01 Z-2.300000 F100.0(Penetrate)
G01 X13.100000 Y16.974000 Z-2.300000 F120.000000
G01 X11.600000 Y15.474000 Z-2.300000
G00 Z2.000000

(End cutting path id: path12621)


(Start cutting path id: path12621)
(Change tool to Cylindrical cutter)

G00 Z2.000000
G00 X11.600000 Y18.020000

G01 Z-0.700000 F100.0(Penetrate)
G01 X11.600000 Y18.020000 Z-0.700000 F120.000000
G00 Z2.000000

(End cutting path id: path12621)


(Start cutting path id: path12621)
(Change tool to Cylindrical cutter)

G00 Z2.000000
G00 X11.600000 Y18.020000

G01 Z-1.400000 F100.0(Penetrate)
G01 X11.600000 Y18.020000 Z-1.400000 F120.000000
G00 Z2.000000

(End cutting path id: path12621)


(Start cutting path id: path12621)
(Change tool to Cylindrical cutter)

G00 Z2.000000
G00 X11.600000 Y18.020000

G01 Z-2.100000 F100.0(Penetrate)
G01 X11.600000 Y18.020000 Z-2.100000 F120.000000
G00 Z2.000000

(End cutting path id: path12621)


(Start cutting path id: path12621)
(Change tool to Cylindrical cutter)

G00 Z2.000000
G00 X11.600000 Y18.020000

G01 Z-2.300000 F100.0(Penetrate)
G01 X11.600000 Y18.020000 Z-2.300000 F120.000000
G00 Z2.000000

(End cutting path id: path12621)


(Start cutting path id: path12621)
(Change tool to Cylindrical cutter)

G00 Z2.000000
G00 X14.600000 Y12.929000

G01 Z-0.700000 F100.0(Penetrate)
G01 X13.100000 Y14.429000 Z-0.700000 F120.000000
G01 X11.600000 Y12.929000 Z-0.700000
G00 Z2.000000

(End cutting path id: path12621)


(Start cutting path id: path12621)
(Change tool to Cylindrical cutter)

G00 Z2.000000
G00 X14.600000 Y12.929000

G01 Z-1.400000 F100.0(Penetrate)
G01 X13.100000 Y14.429000 Z-1.400000 F120.000000
G01 X11.600000 Y12.929000 Z-1.400000
G00 Z2.000000

(End cutting path id: path12621)


(Start cutting path id: path12621)
(Change tool to Cylindrical cutter)

G00 Z2.000000
G00 X14.600000 Y12.929000

G01 Z-2.100000 F100.0(Penetrate)
G01 X13.100000 Y14.429000 Z-2.100000 F120.000000
G01 X11.600000 Y12.929000 Z-2.100000
G00 Z2.000000

(End cutting path id: path12621)


(Start cutting path id: path12621)
(Change tool to Cylindrical cutter)

G00 Z2.000000
G00 X14.600000 Y12.929000

G01 Z-2.300000 F100.0(Penetrate)
G01 X13.100000 Y14.429000 Z-2.300000 F120.000000
G01 X11.600000 Y12.929000 Z-2.300000
G00 Z2.000000

(End cutting path id: path12621)


(Start cutting path id: path12621)
(Change tool to Cylindrical cutter)

G00 Z2.000000
G00 X14.600000 Y10.383000

G01 Z-0.700000 F100.0(Penetrate)
G01 X13.100000 Y11.883000 Z-0.700000 F120.000000
G01 X11.600000 Y10.383000 Z-0.700000
G00 Z2.000000

(End cutting path id: path12621)


(Start cutting path id: path12621)
(Change tool to Cylindrical cutter)

G00 Z2.000000
G00 X14.600000 Y10.383000

G01 Z-1.400000 F100.0(Penetrate)
G01 X13.100000 Y11.883000 Z-1.400000 F120.000000
G01 X11.600000 Y10.383000 Z-1.400000
G00 Z2.000000

(End cutting path id: path12621)


(Start cutting path id: path12621)
(Change tool to Cylindrical cutter)

G00 Z2.000000
G00 X14.600000 Y10.383000

G01 Z-2.100000 F100.0(Penetrate)
G01 X13.100000 Y11.883000 Z-2.100000 F120.000000
G01 X11.600000 Y10.383000 Z-2.100000
G00 Z2.000000

(End cutting path id: path12621)


(Start cutting path id: path12621)
(Change tool to Cylindrical cutter)

G00 Z2.000000
G00 X14.600000 Y10.383000

G01 Z-2.300000 F100.0(Penetrate)
G01 X13.100000 Y11.883000 Z-2.300000 F120.000000
G01 X11.600000 Y10.383000 Z-2.300000
G00 Z2.000000

(End cutting path id: path12621)


(Start cutting path id: path12621)
(Change tool to Cylindrical cutter)

G00 Z2.000000
G00 X11.600000 Y7.626000

G01 Z-0.700000 F100.0(Penetrate)
G01 X11.827200 Y7.398000 Z-0.700000 F120.000000
G01 X13.433100 Y9.004000 Z-0.700000
G01 X13.100000 Y9.338000 Z-0.700000
G01 X12.766900 Y9.004000 Z-0.700000
G00 Z2.000000

(End cutting path id: path12621)


(Start cutting path id: path12621)
(Change tool to Cylindrical cutter)

G00 Z2.000000
G00 X11.600000 Y7.626000

G01 Z-1.400000 F100.0(Penetrate)
G01 X11.827200 Y7.398000 Z-1.400000 F120.000000
G01 X13.433100 Y9.004000 Z-1.400000
G01 X13.100000 Y9.338000 Z-1.400000
G01 X12.766900 Y9.004000 Z-1.400000
G00 Z2.000000

(End cutting path id: path12621)


(Start cutting path id: path12621)
(Change tool to Cylindrical cutter)

G00 Z2.000000
G00 X11.600000 Y7.626000

G01 Z-2.100000 F100.0(Penetrate)
G01 X11.827200 Y7.398000 Z-2.100000 F120.000000
G01 X13.433100 Y9.004000 Z-2.100000
G01 X13.100000 Y9.338000 Z-2.100000
G01 X12.766900 Y9.004000 Z-2.100000
G00 Z2.000000

(End cutting path id: path12621)


(Start cutting path id: path12621)
(Change tool to Cylindrical cutter)

G00 Z2.000000
G00 X11.600000 Y7.626000

G01 Z-2.300000 F100.0(Penetrate)
G01 X11.827200 Y7.398000 Z-2.300000 F120.000000
G01 X13.433100 Y9.004000 Z-2.300000
G01 X13.100000 Y9.338000 Z-2.300000
G01 X12.766900 Y9.004000 Z-2.300000
G00 Z2.000000

(End cutting path id: path12621)


(Start cutting path id: path12621)
(Change tool to Cylindrical cutter)

G00 Z2.000000
G00 X11.600000 Y5.080000

G01 Z-0.700000 F100.0(Penetrate)
G01 X11.827200 Y4.853000 Z-0.700000 F120.000000
G01 X14.600000 Y7.626000 Z-0.700000
G00 Z2.000000

(End cutting path id: path12621)


(Start cutting path id: path12621)
(Change tool to Cylindrical cutter)

G00 Z2.000000
G00 X11.600000 Y5.080000

G01 Z-1.400000 F100.0(Penetrate)
G01 X11.827200 Y4.853000 Z-1.400000 F120.000000
G01 X14.600000 Y7.626000 Z-1.400000
G00 Z2.000000

(End cutting path id: path12621)


(Start cutting path id: path12621)
(Change tool to Cylindrical cutter)

G00 Z2.000000
G00 X11.600000 Y5.080000

G01 Z-2.100000 F100.0(Penetrate)
G01 X11.827200 Y4.853000 Z-2.100000 F120.000000
G01 X14.600000 Y7.626000 Z-2.100000
G00 Z2.000000

(End cutting path id: path12621)


(Start cutting path id: path12621)
(Change tool to Cylindrical cutter)

G00 Z2.000000
G00 X11.600000 Y5.080000

G01 Z-2.300000 F100.0(Penetrate)
G01 X11.827200 Y4.853000 Z-2.300000 F120.000000
G01 X14.600000 Y7.626000 Z-2.300000
G00 Z2.000000

(End cutting path id: path12621)


(Start cutting path id: path12621)
(Change tool to Cylindrical cutter)

G00 Z2.000000
G00 X11.600000 Y2.535000

G01 Z-0.700000 F100.0(Penetrate)
G01 X11.827200 Y2.307000 Z-0.700000 F120.000000
G01 X14.600000 Y5.080000 Z-0.700000
G00 Z2.000000

(End cutting path id: path12621)


(Start cutting path id: path12621)
(Change tool to Cylindrical cutter)

G00 Z2.000000
G00 X11.600000 Y2.535000

G01 Z-1.400000 F100.0(Penetrate)
G01 X11.827200 Y2.307000 Z-1.400000 F120.000000
G01 X14.600000 Y5.080000 Z-1.400000
G00 Z2.000000

(End cutting path id: path12621)


(Start cutting path id: path12621)
(Change tool to Cylindrical cutter)

G00 Z2.000000
G00 X11.600000 Y2.535000

G01 Z-2.100000 F100.0(Penetrate)
G01 X11.827200 Y2.307000 Z-2.100000 F120.000000
G01 X14.600000 Y5.080000 Z-2.100000
G00 Z2.000000

(End cutting path id: path12621)


(Start cutting path id: path12621)
(Change tool to Cylindrical cutter)

G00 Z2.000000
G00 X11.600000 Y2.535000

G01 Z-2.300000 F100.0(Penetrate)
G01 X11.827200 Y2.307000 Z-2.300000 F120.000000
G01 X14.600000 Y5.080000 Z-2.300000
G00 Z2.000000

(End cutting path id: path12621)


(Start cutting path id: path12621)
(Change tool to Cylindrical cutter)

G00 Z2.000000
G00 X12.309000 Y0.244000

G01 Z-0.700000 F100.0(Penetrate)
G01 X14.600000 Y2.535000 Z-0.700000 F120.000000
G00 Z2.000000

(End cutting path id: path12621)


(Start cutting path id: path12621)
(Change tool to Cylindrical cutter)

G00 Z2.000000
G00 X12.309000 Y0.244000

G01 Z-1.400000 F100.0(Penetrate)
G01 X14.600000 Y2.535000 Z-1.400000 F120.000000
G00 Z2.000000

(End cutting path id: path12621)


(Start cutting path id: path12621)
(Change tool to Cylindrical cutter)

G00 Z2.000000
G00 X12.309000 Y0.244000

G01 Z-2.100000 F100.0(Penetrate)
G01 X14.600000 Y2.535000 Z-2.100000 F120.000000
G00 Z2.000000

(End cutting path id: path12621)


(Start cutting path id: path12621)
(Change tool to Cylindrical cutter)

G00 Z2.000000
G00 X12.309000 Y0.244000

G01 Z-2.300000 F100.0(Penetrate)
G01 X14.600000 Y2.535000 Z-2.300000 F120.000000
G00 Z2.000000

(End cutting path id: path12621)


(Start cutting path id: path12617)
(Change tool to Cylindrical cutter)

G00 Z2.000000
G00 X20.638500 Y27.948000

G01 Z-0.700000 F100.0(Penetrate)
G01 X21.011200 Y28.321000 Z-0.700000 F120.000000
G00 Z2.000000

(End cutting path id: path12617)


(Start cutting path id: path12617)
(Change tool to Cylindrical cutter)

G00 Z2.000000
G00 X20.638500 Y27.948000

G01 Z-1.400000 F100.0(Penetrate)
G01 X21.011200 Y28.321000 Z-1.400000 F120.000000
G00 Z2.000000

(End cutting path id: path12617)


(Start cutting path id: path12617)
(Change tool to Cylindrical cutter)

G00 Z2.000000
G00 X20.638500 Y27.948000

G01 Z-2.100000 F100.0(Penetrate)
G01 X21.011200 Y28.321000 Z-2.100000 F120.000000
G00 Z2.000000

(End cutting path id: path12617)


(Start cutting path id: path12617)
(Change tool to Cylindrical cutter)

G00 Z2.000000
G00 X20.638500 Y27.948000

G01 Z-2.300000 F100.0(Penetrate)
G01 X21.011200 Y28.321000 Z-2.300000 F120.000000
G00 Z2.000000

(End cutting path id: path12617)


(Start cutting path id: path12617)
(Change tool to Cylindrical cutter)

G00 Z2.000000
G00 X19.722100 Y28.948000

G01 Z-0.700000 F100.0(Penetrate)
G01 X19.094800 Y28.321000 Z-0.700000 F120.000000
G01 X19.467500 Y27.948000 Z-0.700000
G00 Z2.000000

(End cutting path id: path12617)


(Start cutting path id: path12617)
(Change tool to Cylindrical cutter)

G00 Z2.000000
G00 X19.722100 Y28.948000

G01 Z-1.400000 F100.0(Penetrate)
G01 X19.094800 Y28.321000 Z-1.400000 F120.000000
G01 X19.467500 Y27.948000 Z-1.400000
G00 Z2.000000

(End cutting path id: path12617)


(Start cutting path id: path12617)
(Change tool to Cylindrical cutter)

G00 Z2.000000
G00 X19.722100 Y28.948000

G01 Z-2.100000 F100.0(Penetrate)
G01 X19.094800 Y28.321000 Z-2.100000 F120.000000
G01 X19.467500 Y27.948000 Z-2.100000
G00 Z2.000000

(End cutting path id: path12617)


(Start cutting path id: path12617)
(Change tool to Cylindrical cutter)

G00 Z2.000000
G00 X19.722100 Y28.948000

G01 Z-2.300000 F100.0(Penetrate)
G01 X19.094800 Y28.321000 Z-2.300000 F120.000000
G01 X19.467500 Y27.948000 Z-2.300000
G00 Z2.000000

(End cutting path id: path12617)


(Start cutting path id: path12617)
(Change tool to Cylindrical cutter)

G00 Z2.000000
G00 X17.176500 Y28.948000

G01 Z-0.700000 F100.0(Penetrate)
G01 X17.176500 Y28.948000 Z-0.700000 F120.000000
G00 Z2.000000

(End cutting path id: path12617)


(Start cutting path id: path12617)
(Change tool to Cylindrical cutter)

G00 Z2.000000
G00 X17.176500 Y28.948000

G01 Z-1.400000 F100.0(Penetrate)
G01 X17.176500 Y28.948000 Z-1.400000 F120.000000
G00 Z2.000000

(End cutting path id: path12617)


(Start cutting path id: path12617)
(Change tool to Cylindrical cutter)

G00 Z2.000000
G00 X17.176500 Y28.948000

G01 Z-2.100000 F100.0(Penetrate)
G01 X17.176500 Y28.948000 Z-2.100000 F120.000000
G00 Z2.000000

(End cutting path id: path12617)


(Start cutting path id: path12617)
(Change tool to Cylindrical cutter)

G00 Z2.000000
G00 X17.176500 Y28.948000

G01 Z-2.300000 F100.0(Penetrate)
G01 X17.176500 Y28.948000 Z-2.300000 F120.000000
G00 Z2.000000

(End cutting path id: path12617)


(Start cutting path id: path12617)
(Change tool to Cylindrical cutter)

G00 Z2.000000
G00 X17.176500 Y28.948000

G01 Z-0.700000 F100.0(Penetrate)
G01 X17.176500 Y28.948000 Z-0.700000 F120.000000
G00 Z2.000000

(End cutting path id: path12617)


(Start cutting path id: path12617)
(Change tool to Cylindrical cutter)

G00 Z2.000000
G00 X17.176500 Y28.948000

G01 Z-1.400000 F100.0(Penetrate)
G01 X17.176500 Y28.948000 Z-1.400000 F120.000000
G00 Z2.000000

(End cutting path id: path12617)


(Start cutting path id: path12617)
(Change tool to Cylindrical cutter)

G00 Z2.000000
G00 X17.176500 Y28.948000

G01 Z-2.100000 F100.0(Penetrate)
G01 X17.176500 Y28.948000 Z-2.100000 F120.000000
G00 Z2.000000

(End cutting path id: path12617)


(Start cutting path id: path12617)
(Change tool to Cylindrical cutter)

G00 Z2.000000
G00 X17.176500 Y28.948000

G01 Z-2.300000 F100.0(Penetrate)
G01 X17.176500 Y28.948000 Z-2.300000 F120.000000
G00 Z2.000000

(End cutting path id: path12617)


(Start cutting path id: path12617)
(Change tool to Cylindrical cutter)

G00 Z2.000000
G00 X17.176500 Y28.948000

G01 Z-0.700000 F100.0(Penetrate)
G01 X17.176500 Y28.948000 Z-0.700000 F120.000000
G00 Z2.000000

(End cutting path id: path12617)


(Start cutting path id: path12617)
(Change tool to Cylindrical cutter)

G00 Z2.000000
G00 X17.176500 Y28.948000

G01 Z-1.400000 F100.0(Penetrate)
G01 X17.176500 Y28.948000 Z-1.400000 F120.000000
G00 Z2.000000

(End cutting path id: path12617)


(Start cutting path id: path12617)
(Change tool to Cylindrical cutter)

G00 Z2.000000
G00 X17.176500 Y28.948000

G01 Z-2.100000 F100.0(Penetrate)
G01 X17.176500 Y28.948000 Z-2.100000 F120.000000
G00 Z2.000000

(End cutting path id: path12617)


(Start cutting path id: path12617)
(Change tool to Cylindrical cutter)

G00 Z2.000000
G00 X17.176500 Y28.948000

G01 Z-2.300000 F100.0(Penetrate)
G01 X17.176500 Y28.948000 Z-2.300000 F120.000000
G00 Z2.000000

(End cutting path id: path12617)


(Start cutting path id: rect18)
(Change tool to Cylindrical cutter)

G00 Z2.000000
G00 X21.500000 Y29.948199

G01 Z-0.700000 F100.0(Penetrate)
G01 X20.500000 Y29.948199 Z-0.700000 F120.000000
G01 X20.500000 Y26.948199 Z-0.700000
G01 X21.500000 Y26.948199 Z-0.700000
G01 X21.500000 Y29.948199 Z-0.700000
G00 Z2.000000

(End cutting path id: rect18)


(Start cutting path id: rect18)
(Change tool to Cylindrical cutter)

G00 Z2.000000
G00 X21.500000 Y29.948199

G01 Z-1.400000 F100.0(Penetrate)
G01 X20.500000 Y29.948199 Z-1.400000 F120.000000
G01 X20.500000 Y26.948199 Z-1.400000
G01 X21.500000 Y26.948199 Z-1.400000
G01 X21.500000 Y29.948199 Z-1.400000
G00 Z2.000000

(End cutting path id: rect18)


(Start cutting path id: rect18)
(Change tool to Cylindrical cutter)

G00 Z2.000000
G00 X21.500000 Y29.948199

G01 Z-2.100000 F100.0(Penetrate)
G01 X20.500000 Y29.948199 Z-2.100000 F120.000000
G01 X20.500000 Y26.948199 Z-2.100000
G01 X21.500000 Y26.948199 Z-2.100000
G01 X21.500000 Y29.948199 Z-2.100000
G00 Z2.000000

(End cutting path id: rect18)


(Start cutting path id: rect18)
(Change tool to Cylindrical cutter)

G00 Z2.000000
G00 X21.500000 Y29.948199

G01 Z-2.300000 F100.0(Penetrate)
G01 X20.500000 Y29.948199 Z-2.300000 F120.000000
G01 X20.500000 Y26.948199 Z-2.300000
G01 X21.500000 Y26.948199 Z-2.300000
G01 X21.500000 Y29.948199 Z-2.300000
G00 Z2.000000

(End cutting path id: rect18)


(Start cutting path id: path12617)
(Change tool to Cylindrical cutter)

G00 Z2.000000
G00 X23.184100 Y27.948000

G01 Z-0.700000 F100.0(Penetrate)
G01 X23.556800 Y28.321000 Z-0.700000 F120.000000
G01 X22.929500 Y28.948000 Z-0.700000
G00 Z2.000000

(End cutting path id: path12617)


(Start cutting path id: path12617)
(Change tool to Cylindrical cutter)

G00 Z2.000000
G00 X23.184100 Y27.948000

G01 Z-1.400000 F100.0(Penetrate)
G01 X23.556800 Y28.321000 Z-1.400000 F120.000000
G01 X22.929500 Y28.948000 Z-1.400000
G00 Z2.000000

(End cutting path id: path12617)


(Start cutting path id: path12617)
(Change tool to Cylindrical cutter)

G00 Z2.000000
G00 X23.184100 Y27.948000

G01 Z-2.100000 F100.0(Penetrate)
G01 X23.556800 Y28.321000 Z-2.100000 F120.000000
G01 X22.929500 Y28.948000 Z-2.100000
G00 Z2.000000

(End cutting path id: path12617)


(Start cutting path id: path12617)
(Change tool to Cylindrical cutter)

G00 Z2.000000
G00 X23.184100 Y27.948000

G01 Z-2.300000 F100.0(Penetrate)
G01 X23.556800 Y28.321000 Z-2.300000 F120.000000
G01 X22.929500 Y28.948000 Z-2.300000
G00 Z2.000000

(End cutting path id: path12617)


(Start cutting path id: path12617)
(Change tool to Cylindrical cutter)

G00 Z2.000000
G00 X25.475100 Y28.948000

G01 Z-0.700000 F100.0(Penetrate)
G01 X25.475100 Y28.948000 Z-0.700000 F120.000000
G00 Z2.000000

(End cutting path id: path12617)


(Start cutting path id: path12617)
(Change tool to Cylindrical cutter)

G00 Z2.000000
G00 X25.475100 Y28.948000

G01 Z-1.400000 F100.0(Penetrate)
G01 X25.475100 Y28.948000 Z-1.400000 F120.000000
G00 Z2.000000

(End cutting path id: path12617)


(Start cutting path id: path12617)
(Change tool to Cylindrical cutter)

G00 Z2.000000
G00 X25.475100 Y28.948000

G01 Z-2.100000 F100.0(Penetrate)
G01 X25.475100 Y28.948000 Z-2.100000 F120.000000
G00 Z2.000000

(End cutting path id: path12617)


(Start cutting path id: path12617)
(Change tool to Cylindrical cutter)

G00 Z2.000000
G00 X25.475100 Y28.948000

G01 Z-2.300000 F100.0(Penetrate)
G01 X25.475100 Y28.948000 Z-2.300000 F120.000000
G00 Z2.000000

(End cutting path id: path12617)


(Start cutting path id: rect16)
(Change tool to Cylindrical cutter)

G00 Z2.000000
G00 X25.475100 Y28.948199

G01 Z-0.700000 F100.0(Penetrate)
G01 X17.176500 Y28.948199 Z-0.700000 F120.000000
G01 X17.176500 Y27.948199 Z-0.700000
G01 X25.475100 Y27.948199 Z-0.700000
G01 X25.475100 Y28.948199 Z-0.700000
G00 Z2.000000

(End cutting path id: rect16)


(Start cutting path id: rect16)
(Change tool to Cylindrical cutter)

G00 Z2.000000
G00 X25.475100 Y28.948199

G01 Z-1.400000 F100.0(Penetrate)
G01 X17.176500 Y28.948199 Z-1.400000 F120.000000
G01 X17.176500 Y27.948199 Z-1.400000
G01 X25.475100 Y27.948199 Z-1.400000
G01 X25.475100 Y28.948199 Z-1.400000
G00 Z2.000000

(End cutting path id: rect16)


(Start cutting path id: rect16)
(Change tool to Cylindrical cutter)

G00 Z2.000000
G00 X25.475100 Y28.948199

G01 Z-2.100000 F100.0(Penetrate)
G01 X17.176500 Y28.948199 Z-2.100000 F120.000000
G01 X17.176500 Y27.948199 Z-2.100000
G01 X25.475100 Y27.948199 Z-2.100000
G01 X25.475100 Y28.948199 Z-2.100000
G00 Z2.000000

(End cutting path id: rect16)


(Start cutting path id: rect16)
(Change tool to Cylindrical cutter)

G00 Z2.000000
G00 X25.475100 Y28.948199

G01 Z-2.300000 F100.0(Penetrate)
G01 X17.176500 Y28.948199 Z-2.300000 F120.000000
G01 X17.176500 Y27.948199 Z-2.300000
G01 X25.475100 Y27.948199 Z-2.300000
G01 X25.475100 Y28.948199 Z-2.300000
G00 Z2.000000

(End cutting path id: rect16)


(Footer)
M5
G00 X0.0000 Y0.0000
M2
(Using default footer. To add your own footer create file "footer" in the output dir.)
(end)
%