%
(Header)
(Generated by gcodetools from Inkscape.)
(Using default header. To add your own header create file "header" in the output dir.)
M3
(Header end.)
G21 (All units in mm)

(Start cutting path id: path26)
(Change tool to Cylindrical cutter)

G00 Z2.000000
G00 X51.655700 Y19.078900

G01 Z-0.700000 F100.0(Penetrate)
G01 X51.655700 Y7.878000 Z-0.700000 F120.000000
G02 X54.363594 Y6.781543 Z-0.700000 I0.000000 J-3.892040
G02 X55.460000 Y4.193100 Z-0.700000 I-2.507252 J-2.588443
G02 X54.363584 Y1.604717 Z-0.700000 I-3.603494 J-0.000000
G02 X51.655700 Y0.508300 Z-0.700000 I-2.707884 J2.795702
G01 X35.351300 Y0.508300 Z-0.700000
G02 X32.643416 Y1.604717 Z-0.700000 I-0.000000 J3.892118
G02 X31.547000 Y4.193100 Z-0.700000 I2.507078 J2.588383
G02 X32.643406 Y6.781543 Z-0.700000 I3.603658 J0.000000
G02 X35.351300 Y7.878000 Z-0.700000 I2.707894 J-2.795583
G01 X35.351300 Y19.078700 Z-0.700000
G02 X32.216824 Y23.058511 Z-0.700000 I7.838530 J9.397834
G02 X31.003400 Y28.256800 Z-0.700000 I10.527983 J5.198289
G02 X34.605966 Y36.761709 Z-0.700000 I11.840445 J-0.000000
G02 X43.503400 Y40.364300 Z-0.700000 I8.897434 J-9.185844
G02 X52.400834 Y36.761709 Z-0.700000 I0.000000 J-12.788435
G02 X56.003400 Y28.256800 Z-0.700000 I-8.237879 J-8.504909
G02 X54.790071 Y23.058720 Z-0.700000 I-11.741328 J-0.000000
G02 X51.655700 Y19.078900 Z-0.700000 I-10.973020 J5.417803
G01 X51.655700 Y19.078900 Z-0.700000
G00 Z2.000000

(End cutting path id: path26)


(Start cutting path id: path26)
(Change tool to Cylindrical cutter)

G00 Z2.000000
G00 X51.655700 Y19.078900

G01 Z-1.400000 F100.0(Penetrate)
G01 X51.655700 Y7.878000 Z-1.400000 F120.000000
G02 X54.363594 Y6.781543 Z-1.400000 I0.000000 J-3.892040
G02 X55.460000 Y4.193100 Z-1.400000 I-2.507252 J-2.588443
G02 X54.363584 Y1.604717 Z-1.400000 I-3.603494 J-0.000000
G02 X51.655700 Y0.508300 Z-1.400000 I-2.707884 J2.795702
G01 X35.351300 Y0.508300 Z-1.400000
G02 X32.643416 Y1.604717 Z-1.400000 I-0.000000 J3.892118
G02 X31.547000 Y4.193100 Z-1.400000 I2.507078 J2.588383
G02 X32.643406 Y6.781543 Z-1.400000 I3.603658 J0.000000
G02 X35.351300 Y7.878000 Z-1.400000 I2.707894 J-2.795583
G01 X35.351300 Y19.078700 Z-1.400000
G02 X32.216824 Y23.058511 Z-1.400000 I7.838530 J9.397834
G02 X31.003400 Y28.256800 Z-1.400000 I10.527983 J5.198289
G02 X34.605966 Y36.761709 Z-1.400000 I11.840445 J-0.000000
G02 X43.503400 Y40.364300 Z-1.400000 I8.897434 J-9.185844
G02 X52.400834 Y36.761709 Z-1.400000 I0.000000 J-12.788435
G02 X56.003400 Y28.256800 Z-1.400000 I-8.237879 J-8.504909
G02 X54.790071 Y23.058720 Z-1.400000 I-11.741328 J-0.000000
G02 X51.655700 Y19.078900 Z-1.400000 I-10.973020 J5.417803
G01 X51.655700 Y19.078900 Z-1.400000
G00 Z2.000000

(End cutting path id: path26)


(Start cutting path id: path26)
(Change tool to Cylindrical cutter)

G00 Z2.000000
G00 X51.655700 Y19.078900

G01 Z-2.100000 F100.0(Penetrate)
G01 X51.655700 Y7.878000 Z-2.100000 F120.000000
G02 X54.363594 Y6.781543 Z-2.100000 I0.000000 J-3.892040
G02 X55.460000 Y4.193100 Z-2.100000 I-2.507252 J-2.588443
G02 X54.363584 Y1.604717 Z-2.100000 I-3.603494 J-0.000000
G02 X51.655700 Y0.508300 Z-2.100000 I-2.707884 J2.795702
G01 X35.351300 Y0.508300 Z-2.100000
G02 X32.643416 Y1.604717 Z-2.100000 I-0.000000 J3.892118
G02 X31.547000 Y4.193100 Z-2.100000 I2.507078 J2.588383
G02 X32.643406 Y6.781543 Z-2.100000 I3.603658 J0.000000
G02 X35.351300 Y7.878000 Z-2.100000 I2.707894 J-2.795583
G01 X35.351300 Y19.078700 Z-2.100000
G02 X32.216824 Y23.058511 Z-2.100000 I7.838530 J9.397834
G02 X31.003400 Y28.256800 Z-2.100000 I10.527983 J5.198289
G02 X34.605966 Y36.761709 Z-2.100000 I11.840445 J-0.000000
G02 X43.503400 Y40.364300 Z-2.100000 I8.897434 J-9.185844
G02 X52.400834 Y36.761709 Z-2.100000 I0.000000 J-12.788435
G02 X56.003400 Y28.256800 Z-2.100000 I-8.237879 J-8.504909
G02 X54.790071 Y23.058720 Z-2.100000 I-11.741328 J-0.000000
G02 X51.655700 Y19.078900 Z-2.100000 I-10.973020 J5.417803
G01 X51.655700 Y19.078900 Z-2.100000
G00 Z2.000000

(End cutting path id: path26)


(Start cutting path id: path26)
(Change tool to Cylindrical cutter)

G00 Z2.000000
G00 X51.655700 Y19.078900

G01 Z-2.800000 F100.0(Penetrate)
G01 X51.655700 Y7.878000 Z-2.800000 F120.000000
G02 X54.363594 Y6.781543 Z-2.800000 I0.000000 J-3.892040
G02 X55.460000 Y4.193100 Z-2.800000 I-2.507252 J-2.588443
G02 X54.363584 Y1.604717 Z-2.800000 I-3.603494 J-0.000000
G02 X51.655700 Y0.508300 Z-2.800000 I-2.707884 J2.795702
G01 X35.351300 Y0.508300 Z-2.800000
G02 X32.643416 Y1.604717 Z-2.800000 I-0.000000 J3.892118
G02 X31.547000 Y4.193100 Z-2.800000 I2.507078 J2.588383
G02 X32.643406 Y6.781543 Z-2.800000 I3.603658 J0.000000
G02 X35.351300 Y7.878000 Z-2.800000 I2.707894 J-2.795583
G01 X35.351300 Y19.078700 Z-2.800000
G02 X32.216824 Y23.058511 Z-2.800000 I7.838530 J9.397834
G02 X31.003400 Y28.256800 Z-2.800000 I10.527983 J5.198289
G02 X34.605966 Y36.761709 Z-2.800000 I11.840445 J-0.000000
G02 X43.503400 Y40.364300 Z-2.800000 I8.897434 J-9.185844
G02 X52.400834 Y36.761709 Z-2.800000 I0.000000 J-12.788435
G02 X56.003400 Y28.256800 Z-2.800000 I-8.237879 J-8.504909
G02 X54.790071 Y23.058720 Z-2.800000 I-11.741328 J-0.000000
G02 X51.655700 Y19.078900 Z-2.800000 I-10.973020 J5.417803
G01 X51.655700 Y19.078900 Z-2.800000
G00 Z2.000000

(End cutting path id: path26)


(Start cutting path id: path26)
(Change tool to Cylindrical cutter)

G00 Z2.000000
G00 X51.655700 Y19.078900

G01 Z-3.500000 F100.0(Penetrate)
G01 X51.655700 Y7.878000 Z-3.500000 F120.000000
G02 X54.363594 Y6.781543 Z-3.500000 I0.000000 J-3.892040
G02 X55.460000 Y4.193100 Z-3.500000 I-2.507252 J-2.588443
G02 X54.363584 Y1.604717 Z-3.500000 I-3.603494 J-0.000000
G02 X51.655700 Y0.508300 Z-3.500000 I-2.707884 J2.795702
G01 X35.351300 Y0.508300 Z-3.500000
G02 X32.643416 Y1.604717 Z-3.500000 I-0.000000 J3.892118
G02 X31.547000 Y4.193100 Z-3.500000 I2.507078 J2.588383
G02 X32.643406 Y6.781543 Z-3.500000 I3.603658 J0.000000
G02 X35.351300 Y7.878000 Z-3.500000 I2.707894 J-2.795583
G01 X35.351300 Y19.078700 Z-3.500000
G02 X32.216824 Y23.058511 Z-3.500000 I7.838530 J9.397834
G02 X31.003400 Y28.256800 Z-3.500000 I10.527983 J5.198289
G02 X34.605966 Y36.761709 Z-3.500000 I11.840445 J-0.000000
G02 X43.503400 Y40.364300 Z-3.500000 I8.897434 J-9.185844
G02 X52.400834 Y36.761709 Z-3.500000 I0.000000 J-12.788435
G02 X56.003400 Y28.256800 Z-3.500000 I-8.237879 J-8.504909
G02 X54.790071 Y23.058720 Z-3.500000 I-11.741328 J-0.000000
G02 X51.655700 Y19.078900 Z-3.500000 I-10.973020 J5.417803
G01 X51.655700 Y19.078900 Z-3.500000
G00 Z2.000000

(End cutting path id: path26)


(Start cutting path id: path26)
(Change tool to Cylindrical cutter)

G00 Z2.000000
G00 X51.655700 Y19.078900

G01 Z-4.200000 F100.0(Penetrate)
G01 X51.655700 Y7.878000 Z-4.200000 F120.000000
G02 X54.363594 Y6.781543 Z-4.200000 I0.000000 J-3.892040
G02 X55.460000 Y4.193100 Z-4.200000 I-2.507252 J-2.588443
G02 X54.363584 Y1.604717 Z-4.200000 I-3.603494 J-0.000000
G02 X51.655700 Y0.508300 Z-4.200000 I-2.707884 J2.795702
G01 X35.351300 Y0.508300 Z-4.200000
G02 X32.643416 Y1.604717 Z-4.200000 I-0.000000 J3.892118
G02 X31.547000 Y4.193100 Z-4.200000 I2.507078 J2.588383
G02 X32.643406 Y6.781543 Z-4.200000 I3.603658 J0.000000
G02 X35.351300 Y7.878000 Z-4.200000 I2.707894 J-2.795583
G01 X35.351300 Y19.078700 Z-4.200000
G02 X32.216824 Y23.058511 Z-4.200000 I7.838530 J9.397834
G02 X31.003400 Y28.256800 Z-4.200000 I10.527983 J5.198289
G02 X34.605966 Y36.761709 Z-4.200000 I11.840445 J-0.000000
G02 X43.503400 Y40.364300 Z-4.200000 I8.897434 J-9.185844
G02 X52.400834 Y36.761709 Z-4.200000 I0.000000 J-12.788435
G02 X56.003400 Y28.256800 Z-4.200000 I-8.237879 J-8.504909
G02 X54.790071 Y23.058720 Z-4.200000 I-11.741328 J-0.000000
G02 X51.655700 Y19.078900 Z-4.200000 I-10.973020 J5.417803
G01 X51.655700 Y19.078900 Z-4.200000
G00 Z2.000000

(End cutting path id: path26)


(Start cutting path id: path26)
(Change tool to Cylindrical cutter)

G00 Z2.000000
G00 X51.655700 Y19.078900

G01 Z-4.500000 F100.0(Penetrate)
G01 X51.655700 Y7.878000 Z-4.500000 F120.000000
G02 X54.363594 Y6.781543 Z-4.500000 I0.000000 J-3.892040
G02 X55.460000 Y4.193100 Z-4.500000 I-2.507252 J-2.588443
G02 X54.363584 Y1.604717 Z-4.500000 I-3.603494 J-0.000000
G02 X51.655700 Y0.508300 Z-4.500000 I-2.707884 J2.795702
G01 X35.351300 Y0.508300 Z-4.500000
G02 X32.643416 Y1.604717 Z-4.500000 I-0.000000 J3.892118
G02 X31.547000 Y4.193100 Z-4.500000 I2.507078 J2.588383
G02 X32.643406 Y6.781543 Z-4.500000 I3.603658 J0.000000
G02 X35.351300 Y7.878000 Z-4.500000 I2.707894 J-2.795583
G01 X35.351300 Y19.078700 Z-4.500000
G02 X32.216824 Y23.058511 Z-4.500000 I7.838530 J9.397834
G02 X31.003400 Y28.256800 Z-4.500000 I10.527983 J5.198289
G02 X34.605966 Y36.761709 Z-4.500000 I11.840445 J-0.000000
G02 X43.503400 Y40.364300 Z-4.500000 I8.897434 J-9.185844
G02 X52.400834 Y36.761709 Z-4.500000 I0.000000 J-12.788435
G02 X56.003400 Y28.256800 Z-4.500000 I-8.237879 J-8.504909
G02 X54.790071 Y23.058720 Z-4.500000 I-11.741328 J-0.000000
G02 X51.655700 Y19.078900 Z-4.500000 I-10.973020 J5.417803
G01 X51.655700 Y19.078900 Z-4.500000
G00 Z2.000000

(End cutting path id: path26)


(Start cutting path id: path16)
(Change tool to Cylindrical cutter)

G00 Z2.000000
G00 X20.752300 Y19.078900

G01 Z-0.700000 F100.0(Penetrate)
G01 X20.752300 Y7.878000 Z-0.700000 F120.000000
G02 X23.460194 Y6.781543 Z-0.700000 I0.000000 J-3.892040
G02 X24.556600 Y4.193100 Z-0.700000 I-2.507252 J-2.588443
G02 X23.460184 Y1.604717 Z-0.700000 I-3.603494 J-0.000000
G02 X20.752300 Y0.508300 Z-0.700000 I-2.707884 J2.795702
G01 X4.447900 Y0.508300 Z-0.700000
G02 X1.740016 Y1.604717 Z-0.700000 I-0.000000 J3.892118
G02 X0.643600 Y4.193100 Z-0.700000 I2.507078 J2.588383
G02 X1.740006 Y6.781543 Z-0.700000 I3.603658 J0.000000
G02 X4.447900 Y7.878000 Z-0.700000 I2.707894 J-2.795583
G01 X4.447900 Y19.078700 Z-0.700000
G02 X1.313424 Y23.058511 Z-0.700000 I7.838530 J9.397834
G02 X0.100000 Y28.256800 Z-0.700000 I10.527983 J5.198289
G02 X3.702566 Y36.761709 Z-0.700000 I11.840445 J-0.000000
G02 X12.600000 Y40.364300 Z-0.700000 I8.897434 J-9.185844
G02 X21.497434 Y36.761709 Z-0.700000 I0.000000 J-12.788435
G02 X25.100000 Y28.256800 Z-0.700000 I-8.237879 J-8.504909
G02 X23.886671 Y23.058720 Z-0.700000 I-11.741328 J-0.000000
G02 X20.752300 Y19.078900 Z-0.700000 I-10.973020 J5.417803
G01 X20.752300 Y19.078900 Z-0.700000
G00 Z2.000000

(End cutting path id: path16)


(Start cutting path id: path16)
(Change tool to Cylindrical cutter)

G00 Z2.000000
G00 X20.752300 Y19.078900

G01 Z-1.400000 F100.0(Penetrate)
G01 X20.752300 Y7.878000 Z-1.400000 F120.000000
G02 X23.460194 Y6.781543 Z-1.400000 I0.000000 J-3.892040
G02 X24.556600 Y4.193100 Z-1.400000 I-2.507252 J-2.588443
G02 X23.460184 Y1.604717 Z-1.400000 I-3.603494 J-0.000000
G02 X20.752300 Y0.508300 Z-1.400000 I-2.707884 J2.795702
G01 X4.447900 Y0.508300 Z-1.400000
G02 X1.740016 Y1.604717 Z-1.400000 I-0.000000 J3.892118
G02 X0.643600 Y4.193100 Z-1.400000 I2.507078 J2.588383
G02 X1.740006 Y6.781543 Z-1.400000 I3.603658 J0.000000
G02 X4.447900 Y7.878000 Z-1.400000 I2.707894 J-2.795583
G01 X4.447900 Y19.078700 Z-1.400000
G02 X1.313424 Y23.058511 Z-1.400000 I7.838530 J9.397834
G02 X0.100000 Y28.256800 Z-1.400000 I10.527983 J5.198289
G02 X3.702566 Y36.761709 Z-1.400000 I11.840445 J-0.000000
G02 X12.600000 Y40.364300 Z-1.400000 I8.897434 J-9.185844
G02 X21.497434 Y36.761709 Z-1.400000 I0.000000 J-12.788435
G02 X25.100000 Y28.256800 Z-1.400000 I-8.237879 J-8.504909
G02 X23.886671 Y23.058720 Z-1.400000 I-11.741328 J-0.000000
G02 X20.752300 Y19.078900 Z-1.400000 I-10.973020 J5.417803
G01 X20.752300 Y19.078900 Z-1.400000
G00 Z2.000000

(End cutting path id: path16)


(Start cutting path id: path16)
(Change tool to Cylindrical cutter)

G00 Z2.000000
G00 X20.752300 Y19.078900

G01 Z-2.100000 F100.0(Penetrate)
G01 X20.752300 Y7.878000 Z-2.100000 F120.000000
G02 X23.460194 Y6.781543 Z-2.100000 I0.000000 J-3.892040
G02 X24.556600 Y4.193100 Z-2.100000 I-2.507252 J-2.588443
G02 X23.460184 Y1.604717 Z-2.100000 I-3.603494 J-0.000000
G02 X20.752300 Y0.508300 Z-2.100000 I-2.707884 J2.795702
G01 X4.447900 Y0.508300 Z-2.100000
G02 X1.740016 Y1.604717 Z-2.100000 I-0.000000 J3.892118
G02 X0.643600 Y4.193100 Z-2.100000 I2.507078 J2.588383
G02 X1.740006 Y6.781543 Z-2.100000 I3.603658 J0.000000
G02 X4.447900 Y7.878000 Z-2.100000 I2.707894 J-2.795583
G01 X4.447900 Y19.078700 Z-2.100000
G02 X1.313424 Y23.058511 Z-2.100000 I7.838530 J9.397834
G02 X0.100000 Y28.256800 Z-2.100000 I10.527983 J5.198289
G02 X3.702566 Y36.761709 Z-2.100000 I11.840445 J-0.000000
G02 X12.600000 Y40.364300 Z-2.100000 I8.897434 J-9.185844
G02 X21.497434 Y36.761709 Z-2.100000 I0.000000 J-12.788435
G02 X25.100000 Y28.256800 Z-2.100000 I-8.237879 J-8.504909
G02 X23.886671 Y23.058720 Z-2.100000 I-11.741328 J-0.000000
G02 X20.752300 Y19.078900 Z-2.100000 I-10.973020 J5.417803
G01 X20.752300 Y19.078900 Z-2.100000
G00 Z2.000000

(End cutting path id: path16)


(Start cutting path id: path16)
(Change tool to Cylindrical cutter)

G00 Z2.000000
G00 X20.752300 Y19.078900

G01 Z-2.800000 F100.0(Penetrate)
G01 X20.752300 Y7.878000 Z-2.800000 F120.000000
G02 X23.460194 Y6.781543 Z-2.800000 I0.000000 J-3.892040
G02 X24.556600 Y4.193100 Z-2.800000 I-2.507252 J-2.588443
G02 X23.460184 Y1.604717 Z-2.800000 I-3.603494 J-0.000000
G02 X20.752300 Y0.508300 Z-2.800000 I-2.707884 J2.795702
G01 X4.447900 Y0.508300 Z-2.800000
G02 X1.740016 Y1.604717 Z-2.800000 I-0.000000 J3.892118
G02 X0.643600 Y4.193100 Z-2.800000 I2.507078 J2.588383
G02 X1.740006 Y6.781543 Z-2.800000 I3.603658 J0.000000
G02 X4.447900 Y7.878000 Z-2.800000 I2.707894 J-2.795583
G01 X4.447900 Y19.078700 Z-2.800000
G02 X1.313424 Y23.058511 Z-2.800000 I7.838530 J9.397834
G02 X0.100000 Y28.256800 Z-2.800000 I10.527983 J5.198289
G02 X3.702566 Y36.761709 Z-2.800000 I11.840445 J-0.000000
G02 X12.600000 Y40.364300 Z-2.800000 I8.897434 J-9.185844
G02 X21.497434 Y36.761709 Z-2.800000 I0.000000 J-12.788435
G02 X25.100000 Y28.256800 Z-2.800000 I-8.237879 J-8.504909
G02 X23.886671 Y23.058720 Z-2.800000 I-11.741328 J-0.000000
G02 X20.752300 Y19.078900 Z-2.800000 I-10.973020 J5.417803
G01 X20.752300 Y19.078900 Z-2.800000
G00 Z2.000000

(End cutting path id: path16)


(Start cutting path id: path16)
(Change tool to Cylindrical cutter)

G00 Z2.000000
G00 X20.752300 Y19.078900

G01 Z-3.500000 F100.0(Penetrate)
G01 X20.752300 Y7.878000 Z-3.500000 F120.000000
G02 X23.460194 Y6.781543 Z-3.500000 I0.000000 J-3.892040
G02 X24.556600 Y4.193100 Z-3.500000 I-2.507252 J-2.588443
G02 X23.460184 Y1.604717 Z-3.500000 I-3.603494 J-0.000000
G02 X20.752300 Y0.508300 Z-3.500000 I-2.707884 J2.795702
G01 X4.447900 Y0.508300 Z-3.500000
G02 X1.740016 Y1.604717 Z-3.500000 I-0.000000 J3.892118
G02 X0.643600 Y4.193100 Z-3.500000 I2.507078 J2.588383
G02 X1.740006 Y6.781543 Z-3.500000 I3.603658 J0.000000
G02 X4.447900 Y7.878000 Z-3.500000 I2.707894 J-2.795583
G01 X4.447900 Y19.078700 Z-3.500000
G02 X1.313424 Y23.058511 Z-3.500000 I7.838530 J9.397834
G02 X0.100000 Y28.256800 Z-3.500000 I10.527983 J5.198289
G02 X3.702566 Y36.761709 Z-3.500000 I11.840445 J-0.000000
G02 X12.600000 Y40.364300 Z-3.500000 I8.897434 J-9.185844
G02 X21.497434 Y36.761709 Z-3.500000 I0.000000 J-12.788435
G02 X25.100000 Y28.256800 Z-3.500000 I-8.237879 J-8.504909
G02 X23.886671 Y23.058720 Z-3.500000 I-11.741328 J-0.000000
G02 X20.752300 Y19.078900 Z-3.500000 I-10.973020 J5.417803
G01 X20.752300 Y19.078900 Z-3.500000
G00 Z2.000000

(End cutting path id: path16)


(Start cutting path id: path16)
(Change tool to Cylindrical cutter)

G00 Z2.000000
G00 X20.752300 Y19.078900

G01 Z-4.200000 F100.0(Penetrate)
G01 X20.752300 Y7.878000 Z-4.200000 F120.000000
G02 X23.460194 Y6.781543 Z-4.200000 I0.000000 J-3.892040
G02 X24.556600 Y4.193100 Z-4.200000 I-2.507252 J-2.588443
G02 X23.460184 Y1.604717 Z-4.200000 I-3.603494 J-0.000000
G02 X20.752300 Y0.508300 Z-4.200000 I-2.707884 J2.795702
G01 X4.447900 Y0.508300 Z-4.200000
G02 X1.740016 Y1.604717 Z-4.200000 I-0.000000 J3.892118
G02 X0.643600 Y4.193100 Z-4.200000 I2.507078 J2.588383
G02 X1.740006 Y6.781543 Z-4.200000 I3.603658 J0.000000
G02 X4.447900 Y7.878000 Z-4.200000 I2.707894 J-2.795583
G01 X4.447900 Y19.078700 Z-4.200000
G02 X1.313424 Y23.058511 Z-4.200000 I7.838530 J9.397834
G02 X0.100000 Y28.256800 Z-4.200000 I10.527983 J5.198289
G02 X3.702566 Y36.761709 Z-4.200000 I11.840445 J-0.000000
G02 X12.600000 Y40.364300 Z-4.200000 I8.897434 J-9.185844
G02 X21.497434 Y36.761709 Z-4.200000 I0.000000 J-12.788435
G02 X25.100000 Y28.256800 Z-4.200000 I-8.237879 J-8.504909
G02 X23.886671 Y23.058720 Z-4.200000 I-11.741328 J-0.000000
G02 X20.752300 Y19.078900 Z-4.200000 I-10.973020 J5.417803
G01 X20.752300 Y19.078900 Z-4.200000
G00 Z2.000000

(End cutting path id: path16)


(Start cutting path id: path16)
(Change tool to Cylindrical cutter)

G00 Z2.000000
G00 X20.752300 Y19.078900

G01 Z-4.500000 F100.0(Penetrate)
G01 X20.752300 Y7.878000 Z-4.500000 F120.000000
G02 X23.460194 Y6.781543 Z-4.500000 I0.000000 J-3.892040
G02 X24.556600 Y4.193100 Z-4.500000 I-2.507252 J-2.588443
G02 X23.460184 Y1.604717 Z-4.500000 I-3.603494 J-0.000000
G02 X20.752300 Y0.508300 Z-4.500000 I-2.707884 J2.795702
G01 X4.447900 Y0.508300 Z-4.500000
G02 X1.740016 Y1.604717 Z-4.500000 I-0.000000 J3.892118
G02 X0.643600 Y4.193100 Z-4.500000 I2.507078 J2.588383
G02 X1.740006 Y6.781543 Z-4.500000 I3.603658 J0.000000
G02 X4.447900 Y7.878000 Z-4.500000 I2.707894 J-2.795583
G01 X4.447900 Y19.078700 Z-4.500000
G02 X1.313424 Y23.058511 Z-4.500000 I7.838530 J9.397834
G02 X0.100000 Y28.256800 Z-4.500000 I10.527983 J5.198289
G02 X3.702566 Y36.761709 Z-4.500000 I11.840445 J-0.000000
G02 X12.600000 Y40.364300 Z-4.500000 I8.897434 J-9.185844
G02 X21.497434 Y36.761709 Z-4.500000 I0.000000 J-12.788435
G02 X25.100000 Y28.256800 Z-4.500000 I-8.237879 J-8.504909
G02 X23.886671 Y23.058720 Z-4.500000 I-11.741328 J-0.000000
G02 X20.752300 Y19.078900 Z-4.500000 I-10.973020 J5.417803
G01 X20.752300 Y19.078900 Z-4.500000
G00 Z2.000000

(End cutting path id: path16)


(Footer)
M5
G00 X0.0000 Y0.0000
M2
(Using default footer. To add your own footer create file "footer" in the output dir.)
(end)
%